(G-CODE GENERATED BY FLATCAM v8.991 - www.flatcam.org - Version Date: 2019/12/30)

(Name: Cncjob_Top_Copper_pyramidal)
(Type: G-code from Geometry)
(Units: MM)

(Created on Monday, 30 January 2023 at 17:36)

(TOOL DIAMETER: 0.1 mm)
(Feedrate: 2500.0 mm/min)
(Feedrate_Z: 250.0 mm/min)
(Feedrate rapids 1500.0 mm/min)

(Z_Cut: -0.03 mm)
(Z_Move: 0.5 mm)
(Z Toolchange: 15.0 mm)
(X,Y Toolchange: 0.0000, 0.0000 mm)
(Z Start: 0.5 mm)
(Z End: 2.0 mm)
(Steps per circle: 64)
(Preprocessor Geometry: default)

(X range:    2.6526 ...   79.1508  mm)
(Y range:    2.7908 ...   81.4665  mm)

(Spindle Speed: None RPM)
G21
G90
G94




G01 F2500.00
G00 Z0.5000
G00 Z0.5000
M03
G4 P1.0
G00 X4.2554 Y10.2310
G01 F250.00
G01 Z-0.0300
G01 F2500.00
G01 X4.2554 Y22.7723
G01 X4.4310 Y22.9479
G01 X5.5789 Y22.9479
G01 X5.6338 Y22.9508
G01 X5.6822 Y22.9579
G01 X5.7131 Y22.9640
G01 X5.7531 Y22.8977
G01 X5.8437 Y22.7756
G01 X5.8482 Y22.7698
G01 X5.9537 Y22.6537
G01 X6.0698 Y22.5482
G01 X6.0756 Y22.5437
G01 X6.1957 Y22.4546
G01 X6.2038 Y22.4491
G01 X6.3363 Y22.3699
G01 X6.4781 Y22.3027
G01 X6.4849 Y22.3000
G01 X6.6257 Y22.2496
G01 X6.6351 Y22.2468
G01 X6.7849 Y22.2093
G01 X6.9425 Y22.1860
G01 X7.0968 Y22.1783
G01 X7.1065 Y22.1783
G01 X7.2608 Y22.1860
G01 X7.4160 Y22.2089
G01 X7.4231 Y22.2104
G01 X7.5729 Y22.2481
G01 X7.7184 Y22.3000
G01 X7.7274 Y22.3037
G01 X7.8670 Y22.3699
G01 X7.9995 Y22.4491
G01 X8.0076 Y22.4546
G01 X8.1316 Y22.5467
G01 X8.2496 Y22.6537
G01 X8.3534 Y22.7680
G01 X8.3596 Y22.7756
G01 X8.4487 Y22.8957
G01 X8.4542 Y22.9038
G01 X8.5335 Y23.0363
G01 X8.5864 Y23.1479
G01 X9.6017 Y23.1479
G01 X9.6511 Y23.1502
G01 X9.6608 Y23.1512
G01 X9.7097 Y23.1586
G01 X9.7624 Y23.1718
G01 X9.8136 Y23.1901
G01 X9.8583 Y23.2111
G01 X9.8648 Y23.2145
G01 X9.9093 Y23.2412
G01 X9.9491 Y23.2706
G01 X9.9566 Y23.2768
G01 X9.9914 Y23.3084
G01 X10.7310 Y24.0479
G01 X20.0503 Y24.0479
G01 X20.0939 Y23.9561
G01 X20.1630 Y23.8408
G01 X20.2430 Y23.7328
G01 X20.3299 Y23.6368
G01 X20.3368 Y23.6299
G01 X20.4292 Y23.5462
G01 X20.4367 Y23.5400
G01 X20.5408 Y23.4630
G01 X20.6539 Y23.3950
G01 X20.6604 Y23.3917
G01 X20.7731 Y23.3384
G01 X20.7821 Y23.3346
G01 X20.9041 Y23.2911
G01 X21.0345 Y23.2585
G01 X21.1674 Y23.2387
G01 X21.2968 Y23.2323
G01 X21.3065 Y23.2323
G01 X21.4310 Y23.2384
G01 X21.4407 Y23.2393
G01 X21.5688 Y23.2585
G01 X21.6945 Y23.2898
G01 X21.7038 Y23.2927
G01 X21.8257 Y23.3364
G01 X21.9429 Y23.3917
G01 X21.9515 Y23.3963
G01 X22.0625 Y23.4630
G01 X22.1666 Y23.5400
G01 X22.1742 Y23.5462
G01 X22.2700 Y23.6333
G01 X22.3571 Y23.7292
G01 X22.3633 Y23.7367
G01 X22.4403 Y23.8408
G01 X22.5070 Y23.9518
G01 X22.5116 Y23.9604
G01 X22.5669 Y24.0776
G01 X22.6106 Y24.1995
G01 X22.6135 Y24.2088
G01 X22.6448 Y24.3345
G01 X22.6646 Y24.4674
G01 X22.6710 Y24.5968
G01 X22.6710 Y24.6065
G01 X22.6646 Y24.7359
G01 X22.6457 Y24.8640
G01 X22.6438 Y24.8736
G01 X22.6122 Y24.9992
G01 X22.5687 Y25.1212
G01 X22.5649 Y25.1302
G01 X22.5094 Y25.2472
G01 X22.4430 Y25.3584
G01 X22.4375 Y25.3665
G01 X22.3633 Y25.4666
G01 X22.3587 Y25.4723
G01 X22.2700 Y25.5700
G01 X22.1742 Y25.6571
G01 X22.1666 Y25.6633
G01 X22.0625 Y25.7403
G01 X21.9515 Y25.8070
G01 X21.9429 Y25.8116
G01 X21.8302 Y25.8649
G01 X21.8212 Y25.8687
G01 X21.6992 Y25.9122
G01 X21.5688 Y25.9448
G01 X21.4359 Y25.9646
G01 X21.3065 Y25.9710
G01 X21.2992 Y25.9711
G01 X21.1674 Y25.9646
G01 X21.0393 Y25.9457
G01 X21.0297 Y25.9438
G01 X20.9041 Y25.9122
G01 X20.7821 Y25.8687
G01 X20.7731 Y25.8649
G01 X20.6561 Y25.8094
G01 X20.5408 Y25.7403
G01 X20.4367 Y25.6633
G01 X20.4292 Y25.6571
G01 X20.3333 Y25.5700
G01 X20.2430 Y25.4705
G01 X20.1658 Y25.3665
G01 X20.1603 Y25.3584
G01 X20.0939 Y25.2472
G01 X20.0503 Y25.1554
G01 X10.5017 Y25.1554
G01 X10.4474 Y25.1527
G01 X10.3936 Y25.1447
G01 X10.3456 Y25.1328
G01 X10.3363 Y25.1300
G01 X10.2897 Y25.1132
G01 X10.2450 Y25.0922
G01 X10.2364 Y25.0876
G01 X10.1940 Y25.0621
G01 X10.1504 Y25.0297
G01 X10.1101 Y24.9932
G01 X9.3723 Y24.2554
G01 X8.6598 Y24.2554
G01 X8.6559 Y24.2706
G01 X8.6537 Y24.2776
G01 X8.6033 Y24.4184
G01 X8.5996 Y24.4274
G01 X8.5334 Y24.5670
G01 X8.4542 Y24.6995
G01 X8.4487 Y24.7076
G01 X8.3566 Y24.8316
G01 X8.2496 Y24.9496
G01 X8.1316 Y25.0566
G01 X8.0036 Y25.1515
G01 X7.8670 Y25.2334
G01 X7.7274 Y25.2996
G01 X7.7184 Y25.3033
G01 X7.5776 Y25.3537
G01 X7.5682 Y25.3565
G01 X7.4184 Y25.3940
G01 X7.2608 Y25.4173
G01 X7.1017 Y25.4252
G01 X6.9450 Y25.4175
G01 X6.9377 Y25.4167
G01 X6.7849 Y25.3940
G01 X6.6351 Y25.3565
G01 X6.6257 Y25.3537
G01 X6.4849 Y25.3033
G01 X6.4759 Y25.2996
G01 X6.3363 Y25.2334
G01 X6.1997 Y25.1515
G01 X6.0717 Y25.0566
G01 X5.9554 Y24.9513
G01 X5.9503 Y24.9461
G01 X5.8499 Y24.8353
G01 X5.8437 Y24.8277
G01 X5.7518 Y24.7036
G01 X5.6723 Y24.5712
G01 X5.6687 Y24.5648
G01 X5.6017 Y24.4229
G01 X5.5488 Y24.2753
G01 X5.5468 Y24.2682
G01 X5.5099 Y24.1208
G01 X5.4999 Y24.0554
G01 X4.2017 Y24.0554
G01 X4.1498 Y24.0529
G01 X4.0984 Y24.0456
G01 X4.0889 Y24.0437
G01 X4.0409 Y24.0315
G01 X3.9897 Y24.0132
G01 X3.9450 Y23.9922
G01 X3.9364 Y23.9876
G01 X3.8940 Y23.9621
G01 X3.8504 Y23.9297
G01 X3.8101 Y23.8932
G01 X3.3101 Y23.3932
G01 X3.2768 Y23.3566
G01 X3.2721 Y23.3510
G01 X3.2412 Y23.3093
G01 X3.2157 Y23.2669
G01 X3.2111 Y23.2583
G01 X3.1901 Y23.2136
G01 X3.1718 Y23.1624
G01 X3.1596 Y23.1144
G01 X3.1577 Y23.1049
G01 X3.1512 Y23.0608
G01 X3.1502 Y23.0511
G01 X3.1479 Y23.0017
G01 X3.1480 Y9.9980
G01 X3.1506 Y9.9474
G01 X3.1586 Y9.8936
G01 X3.1718 Y9.8409
G01 X3.1901 Y9.7897
G01 X3.2133 Y9.7406
G01 X3.2412 Y9.6940
G01 X3.2736 Y9.6504
G01 X3.3092 Y9.6110
G01 X4.1101 Y8.8101
G01 X4.1485 Y8.7752
G01 X4.1900 Y8.7441
G01 X4.1981 Y8.7386
G01 X4.2406 Y8.7133
G01 X4.2897 Y8.6901
G01 X4.3409 Y8.6718
G01 X4.3889 Y8.6596
G01 X4.3984 Y8.6577
G01 X4.4498 Y8.6504
G01 X4.5017 Y8.6479
G01 X20.8723 Y8.6479
G01 X21.4879 Y8.0323
G01 X21.4879 Y7.9572
G01 X21.0257 Y7.9572
G01 X21.0159 Y7.9567
G01 X21.0062 Y7.9552
G01 X20.9968 Y7.9529
G01 X20.9876 Y7.9496
G01 X20.9787 Y7.9454
G01 X20.9704 Y7.9404
G01 X20.9625 Y7.9346
G01 X20.9553 Y7.9280
G01 X20.9487 Y7.9208
G01 X20.9429 Y7.9129
G01 X20.9379 Y7.9046
G01 X20.9337 Y7.8957
G01 X20.9304 Y7.8865
G01 X20.9281 Y7.8771
G01 X20.9266 Y7.8674
G01 X20.9262 Y7.8577
G01 X20.9262 Y5.8257
G01 X20.9266 Y5.8159
G01 X20.9281 Y5.8062
G01 X20.9304 Y5.7968
G01 X20.9337 Y5.7876
G01 X20.9379 Y5.7787
G01 X20.9429 Y5.7704
G01 X20.9487 Y5.7625
G01 X20.9553 Y5.7553
G01 X20.9625 Y5.7487
G01 X20.9704 Y5.7429
G01 X20.9787 Y5.7379
G01 X20.9876 Y5.7337
G01 X20.9968 Y5.7304
G01 X21.0062 Y5.7281
G01 X21.0159 Y5.7266
G01 X21.0257 Y5.7262
G01 X21.4879 Y5.7262
G01 X21.4879 Y5.4172
G01 X21.0257 Y5.4172
G01 X21.0159 Y5.4167
G01 X21.0062 Y5.4152
G01 X20.9968 Y5.4129
G01 X20.9876 Y5.4096
G01 X20.9787 Y5.4054
G01 X20.9704 Y5.4004
G01 X20.9625 Y5.3946
G01 X20.9553 Y5.3880
G01 X20.9487 Y5.3808
G01 X20.9429 Y5.3729
G01 X20.9379 Y5.3646
G01 X20.9337 Y5.3557
G01 X20.9304 Y5.3465
G01 X20.9281 Y5.3371
G01 X20.9266 Y5.3274
G01 X20.9262 Y5.3177
G01 X20.9262 Y3.2857
G01 X20.9266 Y3.2759
G01 X20.9281 Y3.2662
G01 X20.9304 Y3.2568
G01 X20.9337 Y3.2476
G01 X20.9379 Y3.2387
G01 X20.9429 Y3.2304
G01 X20.9487 Y3.2225
G01 X20.9553 Y3.2153
G01 X20.9625 Y3.2087
G01 X20.9704 Y3.2029
G01 X20.9787 Y3.1979
G01 X20.9876 Y3.1937
G01 X20.9968 Y3.1904
G01 X21.0062 Y3.1881
G01 X21.0159 Y3.1866
G01 X21.0232 Y3.1862
G01 X23.0577 Y3.1862
G01 X23.0674 Y3.1866
G01 X23.0771 Y3.1881
G01 X23.0865 Y3.1904
G01 X23.0957 Y3.1937
G01 X23.1046 Y3.1979
G01 X23.1129 Y3.2029
G01 X23.1208 Y3.2087
G01 X23.1280 Y3.2153
G01 X23.1346 Y3.2225
G01 X23.1404 Y3.2304
G01 X23.1454 Y3.2387
G01 X23.1496 Y3.2476
G01 X23.1529 Y3.2568
G01 X23.1552 Y3.2662
G01 X23.1567 Y3.2759
G01 X23.1571 Y3.2832
G01 X23.1572 Y5.3177
G01 X23.1567 Y5.3274
G01 X23.1552 Y5.3371
G01 X23.1529 Y5.3465
G01 X23.1496 Y5.3557
G01 X23.1454 Y5.3646
G01 X23.1404 Y5.3729
G01 X23.1346 Y5.3808
G01 X23.1280 Y5.3880
G01 X23.1208 Y5.3946
G01 X23.1129 Y5.4004
G01 X23.1046 Y5.4054
G01 X23.0957 Y5.4096
G01 X23.0865 Y5.4129
G01 X23.0771 Y5.4152
G01 X23.0674 Y5.4167
G01 X23.0577 Y5.4172
G01 X22.5954 Y5.4172
G01 X22.5954 Y5.7262
G01 X23.0577 Y5.7262
G01 X23.0674 Y5.7266
G01 X23.0771 Y5.7281
G01 X23.0865 Y5.7304
G01 X23.0957 Y5.7337
G01 X23.1046 Y5.7379
G01 X23.1129 Y5.7429
G01 X23.1208 Y5.7487
G01 X23.1280 Y5.7553
G01 X23.1346 Y5.7625
G01 X23.1404 Y5.7704
G01 X23.1454 Y5.7787
G01 X23.1496 Y5.7876
G01 X23.1529 Y5.7968
G01 X23.1552 Y5.8062
G01 X23.1567 Y5.8159
G01 X23.1572 Y5.8257
G01 X23.1572 Y7.8577
G01 X23.1567 Y7.8674
G01 X23.1552 Y7.8771
G01 X23.1529 Y7.8865
G01 X23.1496 Y7.8957
G01 X23.1454 Y7.9046
G01 X23.1404 Y7.9129
G01 X23.1346 Y7.9208
G01 X23.1280 Y7.9280
G01 X23.1208 Y7.9346
G01 X23.1129 Y7.9404
G01 X23.1046 Y7.9454
G01 X23.0957 Y7.9496
G01 X23.0865 Y7.9529
G01 X23.0771 Y7.9552
G01 X23.0674 Y7.9567
G01 X23.0577 Y7.9572
G01 X22.5954 Y7.9572
G01 X22.5953 Y8.2641
G01 X22.5927 Y8.3159
G01 X22.5856 Y8.3649
G01 X22.5837 Y8.3744
G01 X22.5715 Y8.4224
G01 X22.5532 Y8.4736
G01 X22.5300 Y8.5227
G01 X22.5047 Y8.5652
G01 X22.4992 Y8.5733
G01 X22.4697 Y8.6129
G01 X22.4341 Y8.6523
G01 X21.4914 Y9.5949
G01 X21.4529 Y9.6297
G01 X21.4093 Y9.6621
G01 X21.3627 Y9.6900
G01 X21.3180 Y9.7112
G01 X21.3113 Y9.7141
G01 X21.2624 Y9.7315
G01 X21.2097 Y9.7447
G01 X21.1559 Y9.7527
G01 X21.1017 Y9.7554
G01 X4.7310 Y9.7554
G01 X4.2554 Y10.2310
G00 Z0.5000
G00 X8.7588 Y12.8502
G01 F250.00
G01 Z-0.0300
G01 F2500.00
G01 X9.2904 Y12.8502
G01 X10.0703 Y12.0703
G01 X10.0809 Y12.0603
G01 X10.1139 Y12.0303
G01 X10.1250 Y12.0208
G01 X10.1365 Y12.0118
G01 X10.1723 Y11.9853
G01 X10.1842 Y11.9769
G01 X10.1965 Y11.9691
G01 X10.2347 Y11.9462
G01 X10.2474 Y11.9390
G01 X10.2605 Y11.9324
G01 X10.3008 Y11.9133
G01 X10.3141 Y11.9074
G01 X10.3277 Y11.9022
G01 X10.3697 Y11.8872
G01 X10.3835 Y11.8826
G01 X10.3976 Y11.8787
G01 X10.4408 Y11.8679
G01 X10.4551 Y11.8647
G01 X10.4694 Y11.8622
G01 X10.5135 Y11.8556
G01 X10.5280 Y11.8539
G01 X10.5425 Y11.8528
G01 X10.5871 Y11.8506
G01 X10.6017 Y11.8502
G01 X19.9267 Y11.8502
G01 X19.9908 Y11.7433
G01 X19.9986 Y11.7310
G01 X20.0070 Y11.7190
G01 X20.0812 Y11.6189
G01 X20.0902 Y11.6074
G01 X20.0997 Y11.5964
G01 X20.1834 Y11.5040
G01 X20.1935 Y11.4935
G01 X20.2040 Y11.4834
G01 X20.2964 Y11.3997
G01 X20.3074 Y11.3902
G01 X20.3189 Y11.3812
G01 X20.4190 Y11.3070
G01 X20.4310 Y11.2986
G01 X20.4433 Y11.2908
G01 X20.5502 Y11.2267
G01 X20.5629 Y11.2195
G01 X20.5759 Y11.2130
G01 X20.6886 Y11.1597
G01 X20.7019 Y11.1538
G01 X20.7155 Y11.1485
G01 X20.8329 Y11.1065
G01 X20.8467 Y11.1019
G01 X20.8608 Y11.0981
G01 X20.9817 Y11.0678
G01 X20.9959 Y11.0646
G01 X21.0103 Y11.0621
G01 X21.1336 Y11.0438
G01 X21.1553 Y11.0414
G01 X21.2871 Y11.0348
G01 X21.3017 Y11.0345
G01 X21.3162 Y11.0348
G01 X21.4407 Y11.0409
G01 X21.4553 Y11.0420
G01 X21.4697 Y11.0438
G01 X21.5930 Y11.0621
G01 X21.6074 Y11.0646
G01 X21.6216 Y11.0678
G01 X21.7425 Y11.0981
G01 X21.7566 Y11.1019
G01 X21.7704 Y11.1065
G01 X21.8878 Y11.1485
G01 X21.9014 Y11.1538
G01 X21.9147 Y11.1597
G01 X22.0274 Y11.2130
G01 X22.0404 Y11.2195
G01 X22.0531 Y11.2267
G01 X22.1600 Y11.2908
G01 X22.1723 Y11.2986
G01 X22.1843 Y11.3070
G01 X22.2844 Y11.3812
G01 X22.2959 Y11.3902
G01 X22.3069 Y11.3997
G01 X22.3993 Y11.4834
G01 X22.4098 Y11.4935
G01 X22.4199 Y11.5040
G01 X22.5036 Y11.5964
G01 X22.5131 Y11.6074
G01 X22.5221 Y11.6189
G01 X22.5963 Y11.7190
G01 X22.6047 Y11.7310
G01 X22.6125 Y11.7433
G01 X22.6766 Y11.8502
G01 X23.5904 Y11.8502
G01 X23.8302 Y11.6104
G01 X23.8302 Y8.1548
G01 X23.5584 Y8.1547
G01 X23.5365 Y8.1534
G01 X23.5077 Y8.1491
G01 X23.4794 Y8.1420
G01 X23.4519 Y8.1322
G01 X23.4256 Y8.1197
G01 X23.4005 Y8.1048
G01 X23.3771 Y8.0874
G01 X23.3555 Y8.0678
G01 X23.3359 Y8.0462
G01 X23.3185 Y8.0228
G01 X23.3117 Y8.0112
G01 X23.3048 Y8.0228
G01 X23.2874 Y8.0462
G01 X23.2678 Y8.0678
G01 X23.2462 Y8.0874
G01 X23.2228 Y8.1048
G01 X23.1977 Y8.1197
G01 X23.1714 Y8.1322
G01 X23.1439 Y8.1420
G01 X23.1156 Y8.1491
G01 X23.0868 Y8.1534
G01 X23.0649 Y8.1547
G01 X22.7931 Y8.1548
G01 X22.7930 Y8.2689
G01 X22.7905 Y8.3208
G01 X22.7894 Y8.3353
G01 X22.7877 Y8.3498
G01 X22.7811 Y8.3939
G01 X22.7786 Y8.4082
G01 X22.7754 Y8.4225
G01 X22.7646 Y8.4657
G01 X22.7607 Y8.4798
G01 X22.7561 Y8.4936
G01 X22.7411 Y8.5356
G01 X22.7359 Y8.5492
G01 X22.7300 Y8.5625
G01 X22.7109 Y8.6028
G01 X22.7043 Y8.6159
G01 X22.6971 Y8.6286
G01 X22.6742 Y8.6668
G01 X22.6664 Y8.6791
G01 X22.6580 Y8.6910
G01 X22.6315 Y8.7268
G01 X22.6225 Y8.7383
G01 X22.6130 Y8.7494
G01 X22.5830 Y8.7824
G01 X22.5730 Y8.7930
G01 X21.6330 Y9.7330
G01 X21.6224 Y9.7430
G01 X21.5894 Y9.7730
G01 X21.5783 Y9.7825
G01 X21.5668 Y9.7915
G01 X21.5310 Y9.8180
G01 X21.5191 Y9.8264
G01 X21.5068 Y9.8342
G01 X21.4686 Y9.8571
G01 X21.4559 Y9.8643
G01 X21.4428 Y9.8709
G01 X21.4025 Y9.8900
G01 X21.3892 Y9.8959
G01 X21.3756 Y9.9011
G01 X21.3336 Y9.9161
G01 X21.3198 Y9.9207
G01 X21.3057 Y9.9246
G01 X21.2625 Y9.9354
G01 X21.2482 Y9.9386
G01 X21.2339 Y9.9411
G01 X21.1826 Y9.9486
G01 X21.1608 Y9.9505
G01 X21.1162 Y9.9527
G01 X21.1017 Y9.9531
G01 X4.8129 Y9.9531
G01 X4.4531 Y10.3129
G01 X4.4531 Y22.6904
G01 X4.5129 Y22.7502
G01 X5.5777 Y22.7502
G01 X5.6152 Y22.7517
G01 X5.6849 Y22.6578
G01 X5.6939 Y22.6463
G01 X5.7034 Y22.6353
G01 X5.8038 Y22.5244
G01 X5.8139 Y22.5139
G01 X5.8244 Y22.5038
G01 X5.9353 Y22.4034
G01 X5.9463 Y22.3939
G01 X5.9578 Y22.3849
G01 X6.0779 Y22.2958
G01 X6.0899 Y22.2874
G01 X6.1022 Y22.2796
G01 X6.2305 Y22.2027
G01 X6.2431 Y22.1955
G01 X6.2562 Y22.1889
G01 X6.3914 Y22.1250
G01 X6.4047 Y22.1191
G01 X6.4183 Y22.1138
G01 X6.5591 Y22.0635
G01 X6.5730 Y22.0589
G01 X6.5870 Y22.0550
G01 X6.7321 Y22.0187
G01 X6.7464 Y22.0155
G01 X6.7607 Y22.0130
G01 X6.9087 Y21.9910
G01 X6.9231 Y21.9892
G01 X6.9377 Y21.9882
G01 X7.0871 Y21.9808
G01 X7.1017 Y21.9805
G01 X7.1162 Y21.9808
G01 X7.2656 Y21.9882
G01 X7.2802 Y21.9892
G01 X7.2946 Y21.9910
G01 X7.4498 Y22.0141
G01 X7.4712 Y22.0187
G01 X7.6163 Y22.0550
G01 X7.6303 Y22.0589
G01 X7.6442 Y22.0635
G01 X7.7850 Y22.1138
G01 X7.7986 Y22.1191
G01 X7.8119 Y22.1250
G01 X7.9471 Y22.1889
G01 X7.9602 Y22.1955
G01 X7.9728 Y22.2027
G01 X8.1011 Y22.2796
G01 X8.1134 Y22.2874
G01 X8.1254 Y22.2958
G01 X8.2455 Y22.3849
G01 X8.2570 Y22.3939
G01 X8.2680 Y22.4034
G01 X8.3789 Y22.5038
G01 X8.3894 Y22.5139
G01 X8.3995 Y22.5244
G01 X8.4999 Y22.6353
G01 X8.5094 Y22.6463
G01 X8.5184 Y22.6578
G01 X8.6075 Y22.7779
G01 X8.6159 Y22.7899
G01 X8.6237 Y22.8022
G01 X8.7006 Y22.9305
G01 X8.7115 Y22.9502
G01 X9.6017 Y22.9502
G01 X9.6162 Y22.9506
G01 X9.6680 Y22.9532
G01 X9.6898 Y22.9556
G01 X9.7339 Y22.9622
G01 X9.7482 Y22.9647
G01 X9.7625 Y22.9679
G01 X9.8057 Y22.9787
G01 X9.8198 Y22.9826
G01 X9.8336 Y22.9872
G01 X9.8756 Y23.0022
G01 X9.8892 Y23.0074
G01 X9.9025 Y23.0133
G01 X9.9428 Y23.0324
G01 X9.9559 Y23.0390
G01 X9.9686 Y23.0462
G01 X10.0068 Y23.0691
G01 X10.0191 Y23.0769
G01 X10.0310 Y23.0853
G01 X10.0668 Y23.1118
G01 X10.0783 Y23.1208
G01 X10.0894 Y23.1303
G01 X10.1278 Y23.1652
G01 X10.8129 Y23.8502
G01 X19.9267 Y23.8502
G01 X19.9908 Y23.7433
G01 X19.9986 Y23.7310
G01 X20.0070 Y23.7190
G01 X20.0812 Y23.6189
G01 X20.0902 Y23.6074
G01 X20.0997 Y23.5964
G01 X20.1834 Y23.5040
G01 X20.1935 Y23.4935
G01 X20.2040 Y23.4834
G01 X20.2964 Y23.3997
G01 X20.3074 Y23.3902
G01 X20.3189 Y23.3812
G01 X20.4190 Y23.3070
G01 X20.4310 Y23.2986
G01 X20.4433 Y23.2908
G01 X20.5502 Y23.2267
G01 X20.5629 Y23.2195
G01 X20.5759 Y23.2130
G01 X20.6886 Y23.1597
G01 X20.7019 Y23.1538
G01 X20.7155 Y23.1485
G01 X20.8329 Y23.1065
G01 X20.8467 Y23.1019
G01 X20.8608 Y23.0981
G01 X20.9817 Y23.0678
G01 X20.9959 Y23.0646
G01 X21.0103 Y23.0621
G01 X21.1336 Y23.0438
G01 X21.1480 Y23.0420
G01 X21.1626 Y23.0409
G01 X21.2871 Y23.0348
G01 X21.3017 Y23.0345
G01 X21.3162 Y23.0348
G01 X21.4407 Y23.0409
G01 X21.4553 Y23.0420
G01 X21.4697 Y23.0438
G01 X21.5930 Y23.0621
G01 X21.6074 Y23.0646
G01 X21.6216 Y23.0678
G01 X21.7425 Y23.0981
G01 X21.7566 Y23.1019
G01 X21.7704 Y23.1065
G01 X21.8878 Y23.1485
G01 X21.9014 Y23.1538
G01 X21.9147 Y23.1597
G01 X22.0274 Y23.2130
G01 X22.0404 Y23.2195
G01 X22.0531 Y23.2267
G01 X22.1600 Y23.2908
G01 X22.1723 Y23.2986
G01 X22.1843 Y23.3070
G01 X22.2844 Y23.3812
G01 X22.2959 Y23.3902
G01 X22.3069 Y23.3997
G01 X22.3993 Y23.4834
G01 X22.4098 Y23.4935
G01 X22.4199 Y23.5040
G01 X22.5036 Y23.5964
G01 X22.5131 Y23.6074
G01 X22.5221 Y23.6189
G01 X22.5963 Y23.7190
G01 X22.6047 Y23.7310
G01 X22.6125 Y23.7433
G01 X22.6766 Y23.8502
G01 X22.6838 Y23.8629
G01 X22.6903 Y23.8759
G01 X22.7436 Y23.9886
G01 X22.7495 Y24.0019
G01 X22.7548 Y24.0155
G01 X22.7968 Y24.1329
G01 X22.8014 Y24.1467
G01 X22.8052 Y24.1608
G01 X22.8355 Y24.2817
G01 X22.8387 Y24.2959
G01 X22.8412 Y24.3103
G01 X22.8595 Y24.4336
G01 X22.8613 Y24.4480
G01 X22.8624 Y24.4626
G01 X22.8686 Y24.5907
G01 X22.8688 Y24.6017
G01 X22.8685 Y24.6162
G01 X22.8624 Y24.7407
G01 X22.8613 Y24.7553
G01 X22.8595 Y24.7697
G01 X22.8412 Y24.8930
G01 X22.8387 Y24.9074
G01 X22.8355 Y24.9216
G01 X22.8052 Y25.0425
G01 X22.8014 Y25.0566
G01 X22.7968 Y25.0704
G01 X22.7548 Y25.1878
G01 X22.7495 Y25.2014
G01 X22.7436 Y25.2147
G01 X22.6903 Y25.3274
G01 X22.6838 Y25.3404
G01 X22.6766 Y25.3531
G01 X22.6125 Y25.4600
G01 X22.6047 Y25.4723
G01 X22.5963 Y25.4843
G01 X22.5221 Y25.5844
G01 X22.5131 Y25.5959
G01 X22.5036 Y25.6069
G01 X22.4199 Y25.6993
G01 X22.4098 Y25.7098
G01 X22.3993 Y25.7199
G01 X22.3069 Y25.8036
G01 X22.2959 Y25.8131
G01 X22.2844 Y25.8221
G01 X22.1843 Y25.8963
G01 X22.1723 Y25.9047
G01 X22.1600 Y25.9125
G01 X22.0531 Y25.9766
G01 X22.0404 Y25.9838
G01 X22.0274 Y25.9903
G01 X21.9147 Y26.0436
G01 X21.9014 Y26.0495
G01 X21.8878 Y26.0548
G01 X21.7704 Y26.0968
G01 X21.7566 Y26.1014
G01 X21.7425 Y26.1052
G01 X21.6216 Y26.1355
G01 X21.6074 Y26.1387
G01 X21.5930 Y26.1412
G01 X21.4697 Y26.1595
G01 X21.4553 Y26.1613
G01 X21.4407 Y26.1624
G01 X21.3162 Y26.1685
G01 X21.3017 Y26.1688
G01 X21.2871 Y26.1685
G01 X21.1626 Y26.1624
G01 X21.1480 Y26.1613
G01 X21.1336 Y26.1595
G01 X21.0103 Y26.1412
G01 X20.9959 Y26.1387
G01 X20.9817 Y26.1355
G01 X20.8608 Y26.1052
G01 X20.8467 Y26.1014
G01 X20.8329 Y26.0968
G01 X20.7155 Y26.0548
G01 X20.7019 Y26.0495
G01 X20.6886 Y26.0436
G01 X20.5759 Y25.9903
G01 X20.5629 Y25.9838
G01 X20.5502 Y25.9766
G01 X20.4433 Y25.9125
G01 X20.4310 Y25.9047
G01 X20.4190 Y25.8963
G01 X20.3189 Y25.8221
G01 X20.3074 Y25.8131
G01 X20.2964 Y25.8036
G01 X20.2040 Y25.7199
G01 X20.1935 Y25.7098
G01 X20.1834 Y25.6993
G01 X20.0997 Y25.6069
G01 X20.0902 Y25.5959
G01 X20.0812 Y25.5844
G01 X20.0070 Y25.4843
G01 X19.9986 Y25.4723
G01 X19.9908 Y25.4600
G01 X19.9267 Y25.3531
G01 X10.5017 Y25.3531
G01 X10.4871 Y25.3527
G01 X10.4425 Y25.3505
G01 X10.4207 Y25.3486
G01 X10.3694 Y25.3411
G01 X10.3551 Y25.3386
G01 X10.3408 Y25.3354
G01 X10.2976 Y25.3246
G01 X10.2835 Y25.3207
G01 X10.2697 Y25.3161
G01 X10.2277 Y25.3011
G01 X10.2141 Y25.2959
G01 X10.2008 Y25.2900
G01 X10.1605 Y25.2709
G01 X10.1474 Y25.2643
G01 X10.1347 Y25.2571
G01 X10.0965 Y25.2342
G01 X10.0842 Y25.2264
G01 X10.0723 Y25.2180
G01 X10.0307 Y25.1871
G01 X10.0139 Y25.1730
G01 X9.9809 Y25.1430
G01 X9.9703 Y25.1330
G01 X9.2904 Y24.4531
G01 X8.8009 Y24.4531
G01 X8.7869 Y24.4918
G01 X8.7813 Y24.5053
G01 X8.7144 Y24.6471
G01 X8.7078 Y24.6602
G01 X8.7006 Y24.6728
G01 X8.6237 Y24.8011
G01 X8.6159 Y24.8134
G01 X8.6075 Y24.8254
G01 X8.5184 Y24.9455
G01 X8.5094 Y24.9570
G01 X8.4999 Y24.9680
G01 X8.3995 Y25.0789
G01 X8.3894 Y25.0894
G01 X8.3789 Y25.0995
G01 X8.2680 Y25.1999
G01 X8.2570 Y25.2094
G01 X8.2455 Y25.2184
G01 X8.1254 Y25.3075
G01 X8.1134 Y25.3159
G01 X8.1011 Y25.3237
G01 X7.9728 Y25.4006
G01 X7.9537 Y25.4112
G01 X7.8119 Y25.4783
G01 X7.7986 Y25.4842
G01 X7.7850 Y25.4895
G01 X7.6442 Y25.5398
G01 X7.6303 Y25.5444
G01 X7.6163 Y25.5483
G01 X7.4712 Y25.5846
G01 X7.4569 Y25.5878
G01 X7.4426 Y25.5903
G01 X7.2946 Y25.6123
G01 X7.2802 Y25.6141
G01 X7.2656 Y25.6151
G01 X7.1162 Y25.6225
G01 X7.1017 Y25.6228
G01 X7.0871 Y25.6225
G01 X6.9377 Y25.6151
G01 X6.9231 Y25.6141
G01 X6.9087 Y25.6123
G01 X6.7607 Y25.5903
G01 X6.7464 Y25.5878
G01 X6.7321 Y25.5846
G01 X6.5870 Y25.5483
G01 X6.5730 Y25.5444
G01 X6.5591 Y25.5398
G01 X6.4183 Y25.4895
G01 X6.4047 Y25.4842
G01 X6.3914 Y25.4783
G01 X6.2562 Y25.4144
G01 X6.2431 Y25.4078
G01 X6.2305 Y25.4006
G01 X6.1022 Y25.3237
G01 X6.0899 Y25.3159
G01 X6.0779 Y25.3075
G01 X5.9578 Y25.2184
G01 X5.9407 Y25.2048
G01 X5.8244 Y25.0995
G01 X5.8139 Y25.0894
G01 X5.8038 Y25.0789
G01 X5.7034 Y24.9680
G01 X5.6939 Y24.9570
G01 X5.6849 Y24.9455
G01 X5.5958 Y24.8254
G01 X5.5834 Y24.8073
G01 X5.5027 Y24.6728
G01 X5.4955 Y24.6602
G01 X5.4889 Y24.6471
G01 X5.4220 Y24.5053
G01 X5.4138 Y24.4850
G01 X5.3611 Y24.3373
G01 X5.3550 Y24.3163
G01 X5.3392 Y24.2531
G01 X4.2017 Y24.2531
G01 X4.1871 Y24.2527
G01 X4.1425 Y24.2505
G01 X4.1280 Y24.2494
G01 X4.1135 Y24.2477
G01 X4.0694 Y24.2411
G01 X4.0551 Y24.2386
G01 X4.0408 Y24.2354
G01 X3.9976 Y24.2246
G01 X3.9835 Y24.2207
G01 X3.9697 Y24.2161
G01 X3.9277 Y24.2011
G01 X3.9141 Y24.1959
G01 X3.9008 Y24.1900
G01 X3.8605 Y24.1709
G01 X3.8474 Y24.1643
G01 X3.8347 Y24.1571
G01 X3.7965 Y24.1342
G01 X3.7842 Y24.1264
G01 X3.7723 Y24.1180
G01 X3.7365 Y24.0915
G01 X3.7194 Y24.0778
G01 X3.6809 Y24.0430
G01 X3.6703 Y24.0330
G01 X3.1678 Y23.5304
G01 X3.1303 Y23.4894
G01 X3.1208 Y23.4783
G01 X3.1118 Y23.4668
G01 X3.0853 Y23.4310
G01 X3.0769 Y23.4191
G01 X3.0691 Y23.4068
G01 X3.0462 Y23.3686
G01 X3.0356 Y23.3494
G01 X3.0133 Y23.3025
G01 X3.0074 Y23.2892
G01 X3.0022 Y23.2756
G01 X2.9848 Y23.2267
G01 X2.9787 Y23.2057
G01 X2.9679 Y23.1625
G01 X2.9633 Y23.1411
G01 X2.9556 Y23.0898
G01 X2.9539 Y23.0753
G01 X2.9528 Y23.0608
G01 X2.9506 Y23.0162
G01 X2.9502 Y23.0017
G01 X2.9503 Y9.9980
G01 X2.9528 Y9.9425
G01 X2.9547 Y9.9207
G01 X2.9633 Y9.8622
G01 X2.9679 Y9.8408
G01 X2.9787 Y9.7976
G01 X2.9826 Y9.7835
G01 X2.9872 Y9.7697
G01 X3.0022 Y9.7277
G01 X3.0103 Y9.7074
G01 X3.0356 Y9.6539
G01 X3.0462 Y9.6347
G01 X3.0691 Y9.5965
G01 X3.0769 Y9.5842
G01 X3.0853 Y9.5723
G01 X3.1118 Y9.5365
G01 X3.1208 Y9.5250
G01 X3.1303 Y9.5139
G01 X3.1652 Y9.4755
G01 X3.9703 Y8.6703
G01 X3.9809 Y8.6603
G01 X4.0194 Y8.6255
G01 X4.0365 Y8.6118
G01 X4.0723 Y8.5853
G01 X4.0842 Y8.5769
G01 X4.0965 Y8.5691
G01 X4.1347 Y8.5462
G01 X4.1474 Y8.5390
G01 X4.1605 Y8.5324
G01 X4.2008 Y8.5133
G01 X4.2141 Y8.5074
G01 X4.2277 Y8.5022
G01 X4.2697 Y8.4872
G01 X4.2835 Y8.4826
G01 X4.2976 Y8.4787
G01 X4.3408 Y8.4679
G01 X4.3551 Y8.4647
G01 X4.3694 Y8.4622
G01 X4.4135 Y8.4556
G01 X4.4353 Y8.4532
G01 X4.4871 Y8.4506
G01 X4.5017 Y8.4502
G01 X20.7904 Y8.4502
G01 X21.0858 Y8.1548
G01 X21.0184 Y8.1547
G01 X20.9965 Y8.1534
G01 X20.9677 Y8.1491
G01 X20.9394 Y8.1420
G01 X20.9119 Y8.1322
G01 X20.8856 Y8.1197
G01 X20.8605 Y8.1048
G01 X20.8371 Y8.0874
G01 X20.8155 Y8.0678
G01 X20.7959 Y8.0462
G01 X20.7785 Y8.0228
G01 X20.7636 Y7.9977
G01 X20.7511 Y7.9714
G01 X20.7413 Y7.9439
G01 X20.7342 Y7.9156
G01 X20.7299 Y7.8868
G01 X20.7286 Y7.8649
G01 X20.7285 Y5.8257
G01 X20.7288 Y5.8111
G01 X20.7299 Y5.7965
G01 X20.7342 Y5.7677
G01 X20.7413 Y5.7394
G01 X20.7511 Y5.7119
G01 X20.7636 Y5.6856
G01 X20.7785 Y5.6605
G01 X20.7959 Y5.6371
G01 X20.8155 Y5.6155
G01 X20.8371 Y5.5959
G01 X20.8605 Y5.5785
G01 X20.8721 Y5.5717
G01 X20.8605 Y5.5648
G01 X20.8371 Y5.5474
G01 X20.8155 Y5.5278
G01 X20.7959 Y5.5062
G01 X20.7785 Y5.4828
G01 X20.7636 Y5.4577
G01 X20.7511 Y5.4314
G01 X20.7413 Y5.4039
G01 X20.7342 Y5.3756
G01 X20.7299 Y5.3468
G01 X20.7288 Y5.3322
G01 X20.7285 Y5.3177
G01 X20.7285 Y3.2857
G01 X20.7288 Y3.2711
G01 X20.7299 Y3.2565
G01 X20.7342 Y3.2277
G01 X20.7413 Y3.1994
G01 X20.7511 Y3.1719
G01 X20.7636 Y3.1456
G01 X20.7785 Y3.1205
G01 X20.7959 Y3.0971
G01 X20.8155 Y3.0755
G01 X20.8371 Y3.0559
G01 X20.8605 Y3.0385
G01 X20.8856 Y3.0236
G01 X20.9119 Y3.0111
G01 X20.9394 Y3.0013
G01 X20.9677 Y2.9942
G01 X20.9965 Y2.9899
G01 X21.0111 Y2.9888
G01 X21.0257 Y2.9885
G01 X23.0577 Y2.9885
G01 X23.0722 Y2.9888
G01 X23.0868 Y2.9899
G01 X23.1156 Y2.9942
G01 X23.1439 Y3.0013
G01 X23.1714 Y3.0111
G01 X23.1977 Y3.0236
G01 X23.2228 Y3.0385
G01 X23.2462 Y3.0559
G01 X23.2678 Y3.0755
G01 X23.2874 Y3.0971
G01 X23.3048 Y3.1205
G01 X23.3117 Y3.1321
G01 X23.3185 Y3.1205
G01 X23.3359 Y3.0971
G01 X23.3555 Y3.0755
G01 X23.3771 Y3.0559
G01 X23.4005 Y3.0385
G01 X23.4256 Y3.0236
G01 X23.4519 Y3.0111
G01 X23.4794 Y3.0013
G01 X23.5077 Y2.9942
G01 X23.5365 Y2.9899
G01 X23.5584 Y2.9886
G01 X25.5977 Y2.9885
G01 X25.6122 Y2.9888
G01 X25.6268 Y2.9899
G01 X25.6556 Y2.9942
G01 X25.6839 Y3.0013
G01 X25.7114 Y3.0111
G01 X25.7377 Y3.0236
G01 X25.7628 Y3.0385
G01 X25.7862 Y3.0559
G01 X25.8078 Y3.0755
G01 X25.8274 Y3.0971
G01 X25.8448 Y3.1205
G01 X25.8517 Y3.1321
G01 X25.8585 Y3.1205
G01 X25.8759 Y3.0971
G01 X25.8955 Y3.0755
G01 X25.9171 Y3.0559
G01 X25.9405 Y3.0385
G01 X25.9656 Y3.0236
G01 X25.9919 Y3.0111
G01 X26.0194 Y3.0013
G01 X26.0477 Y2.9942
G01 X26.0765 Y2.9899
G01 X26.0984 Y2.9886
G01 X28.1377 Y2.9885
G01 X28.1522 Y2.9888
G01 X28.1668 Y2.9899
G01 X28.1956 Y2.9942
G01 X28.2239 Y3.0013
G01 X28.2514 Y3.0111
G01 X28.2777 Y3.0236
G01 X28.3028 Y3.0385
G01 X28.3262 Y3.0559
G01 X28.3478 Y3.0755
G01 X28.3674 Y3.0971
G01 X28.3848 Y3.1205
G01 X28.3917 Y3.1321
G01 X28.3985 Y3.1205
G01 X28.4159 Y3.0971
G01 X28.4355 Y3.0755
G01 X28.4571 Y3.0559
G01 X28.4805 Y3.0385
G01 X28.5056 Y3.0236
G01 X28.5319 Y3.0111
G01 X28.5594 Y3.0013
G01 X28.5877 Y2.9942
G01 X28.6165 Y2.9899
G01 X28.6384 Y2.9886
G01 X30.6777 Y2.9885
G01 X30.6922 Y2.9888
G01 X30.7068 Y2.9899
G01 X30.7356 Y2.9942
G01 X30.7639 Y3.0013
G01 X30.7914 Y3.0111
G01 X30.8177 Y3.0236
G01 X30.8428 Y3.0385
G01 X30.8662 Y3.0559
G01 X30.8878 Y3.0755
G01 X30.9074 Y3.0971
G01 X30.9248 Y3.1205
G01 X30.9317 Y3.1321
G01 X30.9385 Y3.1205
G01 X30.9559 Y3.0971
G01 X30.9755 Y3.0755
G01 X30.9971 Y3.0559
G01 X31.0205 Y3.0385
G01 X31.0456 Y3.0236
G01 X31.0719 Y3.0111
G01 X31.0994 Y3.0013
G01 X31.1277 Y2.9942
G01 X31.1565 Y2.9899
G01 X31.1711 Y2.9888
G01 X31.1857 Y2.9885
G01 X33.2177 Y2.9885
G01 X33.2322 Y2.9888
G01 X33.2468 Y2.9899
G01 X33.2756 Y2.9942
G01 X33.3039 Y3.0013
G01 X33.3314 Y3.0111
G01 X33.3577 Y3.0236
G01 X33.3828 Y3.0385
G01 X33.4062 Y3.0559
G01 X33.4278 Y3.0755
G01 X33.4474 Y3.0971
G01 X33.4648 Y3.1205
G01 X33.4797 Y3.1456
G01 X33.4922 Y3.1719
G01 X33.5020 Y3.1994
G01 X33.5091 Y3.2277
G01 X33.5134 Y3.2565
G01 X33.5145 Y3.2711
G01 X33.5148 Y3.2857
G01 X33.5148 Y5.3177
G01 X33.5145 Y5.3322
G01 X33.5134 Y5.3468
G01 X33.5091 Y5.3756
G01 X33.5020 Y5.4039
G01 X33.4922 Y5.4314
G01 X33.4797 Y5.4577
G01 X33.4648 Y5.4828
G01 X33.4474 Y5.5062
G01 X33.4278 Y5.5278
G01 X33.4062 Y5.5474
G01 X33.3828 Y5.5648
G01 X33.3712 Y5.5717
G01 X33.3828 Y5.5785
G01 X33.4062 Y5.5959
G01 X33.4278 Y5.6155
G01 X33.4474 Y5.6371
G01 X33.4648 Y5.6605
G01 X33.4797 Y5.6856
G01 X33.4922 Y5.7119
G01 X33.5020 Y5.7394
G01 X33.5091 Y5.7677
G01 X33.5134 Y5.7965
G01 X33.5147 Y5.8184
G01 X33.5148 Y6.0902
G01 X36.1489 Y6.0903
G01 X36.2080 Y6.0932
G01 X36.2298 Y6.0956
G01 X36.2739 Y6.1022
G01 X36.2882 Y6.1047
G01 X36.3025 Y6.1079
G01 X36.3457 Y6.1187
G01 X36.3598 Y6.1226
G01 X36.3736 Y6.1272
G01 X36.4156 Y6.1422
G01 X36.4292 Y6.1474
G01 X36.4425 Y6.1533
G01 X36.4828 Y6.1724
G01 X36.4959 Y6.1790
G01 X36.5086 Y6.1862
G01 X36.5468 Y6.2091
G01 X36.5591 Y6.2169
G01 X36.5710 Y6.2253
G01 X36.6068 Y6.2518
G01 X36.6183 Y6.2608
G01 X36.6294 Y6.2703
G01 X36.6704 Y6.3078
G01 X39.5355 Y9.1729
G01 X39.5730 Y9.2139
G01 X39.5871 Y9.2307
G01 X39.6223 Y9.2782
G01 X39.6342 Y9.2965
G01 X39.6571 Y9.3347
G01 X39.6643 Y9.3474
G01 X39.6709 Y9.3605
G01 X39.6900 Y9.4008
G01 X39.6986 Y9.4209
G01 X39.7185 Y9.4766
G01 X39.7246 Y9.4976
G01 X39.7354 Y9.5408
G01 X39.7386 Y9.5551
G01 X39.7411 Y9.5694
G01 X39.7477 Y9.6135
G01 X39.7494 Y9.6280
G01 X39.7505 Y9.6425
G01 X39.7527 Y9.6871
G01 X39.7531 Y9.7017
G01 X39.7531 Y22.9017
G01 X39.7527 Y22.9162
G01 X39.7505 Y22.9608
G01 X39.7494 Y22.9753
G01 X39.7477 Y22.9898
G01 X39.7411 Y23.0339
G01 X39.7386 Y23.0482
G01 X39.7354 Y23.0625
G01 X39.7246 Y23.1057
G01 X39.7185 Y23.1267
G01 X39.7011 Y23.1756
G01 X39.6930 Y23.1959
G01 X39.6677 Y23.2494
G01 X39.6571 Y23.2686
G01 X39.6342 Y23.3068
G01 X39.6264 Y23.3191
G01 X39.6180 Y23.3310
G01 X39.5915 Y23.3668
G01 X39.5778 Y23.3839
G01 X39.5406 Y23.4251
G01 X37.8330 Y25.1330
G01 X37.8224 Y25.1430
G01 X37.7894 Y25.1730
G01 X37.7783 Y25.1825
G01 X37.7668 Y25.1915
G01 X37.7310 Y25.2180
G01 X37.7191 Y25.2264
G01 X37.7068 Y25.2342
G01 X37.6686 Y25.2571
G01 X37.6559 Y25.2643
G01 X37.6428 Y25.2709
G01 X37.6025 Y25.2900
G01 X37.5892 Y25.2959
G01 X37.5756 Y25.3011
G01 X37.5336 Y25.3161
G01 X37.5198 Y25.3207
G01 X37.5057 Y25.3246
G01 X37.4625 Y25.3354
G01 X37.4482 Y25.3386
G01 X37.4339 Y25.3411
G01 X37.3898 Y25.3477
G01 X37.3680 Y25.3501
G01 X37.3053 Y25.3530
G01 X35.1766 Y25.3531
G01 X35.1125 Y25.4600
G01 X35.1047 Y25.4723
G01 X35.0963 Y25.4843
G01 X35.0221 Y25.5844
G01 X35.0131 Y25.5959
G01 X35.0036 Y25.6069
G01 X34.9199 Y25.6993
G01 X34.9098 Y25.7098
G01 X34.8993 Y25.7199
G01 X34.8069 Y25.8036
G01 X34.7959 Y25.8131
G01 X34.7844 Y25.8221
G01 X34.6843 Y25.8963
G01 X34.6723 Y25.9047
G01 X34.6600 Y25.9125
G01 X34.5531 Y25.9766
G01 X34.5404 Y25.9838
G01 X34.5274 Y25.9903
G01 X34.4147 Y26.0436
G01 X34.4014 Y26.0495
G01 X34.3878 Y26.0548
G01 X34.2704 Y26.0968
G01 X34.2566 Y26.1014
G01 X34.2425 Y26.1052
G01 X34.1216 Y26.1355
G01 X34.1074 Y26.1387
G01 X34.0930 Y26.1412
G01 X33.9697 Y26.1595
G01 X33.9553 Y26.1613
G01 X33.9407 Y26.1624
G01 X33.8162 Y26.1685
G01 X33.8017 Y26.1688
G01 X33.7871 Y26.1685
G01 X33.6626 Y26.1624
G01 X33.6480 Y26.1613
G01 X33.6336 Y26.1595
G01 X33.5103 Y26.1412
G01 X33.4959 Y26.1387
G01 X33.4817 Y26.1355
G01 X33.3608 Y26.1052
G01 X33.3467 Y26.1014
G01 X33.3329 Y26.0968
G01 X33.2155 Y26.0548
G01 X33.2019 Y26.0495
G01 X33.1886 Y26.0436
G01 X33.0759 Y25.9903
G01 X33.0629 Y25.9838
G01 X33.0502 Y25.9766
G01 X32.9433 Y25.9125
G01 X32.9310 Y25.9047
G01 X32.9190 Y25.8963
G01 X32.8189 Y25.8221
G01 X32.8074 Y25.8131
G01 X32.7964 Y25.8036
G01 X32.7040 Y25.7199
G01 X32.6935 Y25.7098
G01 X32.6834 Y25.6993
G01 X32.5997 Y25.6069
G01 X32.5902 Y25.5959
G01 X32.5812 Y25.5844
G01 X32.5070 Y25.4843
G01 X32.4986 Y25.4723
G01 X32.4908 Y25.4600
G01 X32.4267 Y25.3531
G01 X32.4195 Y25.3404
G01 X32.4130 Y25.3274
G01 X32.3597 Y25.2147
G01 X32.3538 Y25.2014
G01 X32.3485 Y25.1878
G01 X32.3065 Y25.0704
G01 X32.3019 Y25.0566
G01 X32.2981 Y25.0425
G01 X32.2678 Y24.9216
G01 X32.2646 Y24.9074
G01 X32.2621 Y24.8930
G01 X32.2438 Y24.7697
G01 X32.2420 Y24.7553
G01 X32.2409 Y24.7407
G01 X32.2348 Y24.6162
G01 X32.2345 Y24.6017
G01 X32.2348 Y24.5871
G01 X32.2409 Y24.4626
G01 X32.2420 Y24.4480
G01 X32.2438 Y24.4336
G01 X32.2621 Y24.3103
G01 X32.2646 Y24.2959
G01 X32.2678 Y24.2817
G01 X32.2981 Y24.1608
G01 X32.3019 Y24.1467
G01 X32.3065 Y24.1329
G01 X32.3485 Y24.0155
G01 X32.3538 Y24.0019
G01 X32.3597 Y23.9886
G01 X32.4130 Y23.8759
G01 X32.4195 Y23.8629
G01 X32.4267 Y23.8502
G01 X32.4908 Y23.7433
G01 X32.4986 Y23.7310
G01 X32.5070 Y23.7190
G01 X32.5812 Y23.6189
G01 X32.5902 Y23.6074
G01 X32.5997 Y23.5964
G01 X32.6834 Y23.5040
G01 X32.6935 Y23.4935
G01 X32.7040 Y23.4834
G01 X32.7964 Y23.3997
G01 X32.8074 Y23.3902
G01 X32.8189 Y23.3812
G01 X32.9190 Y23.3070
G01 X32.9310 Y23.2986
G01 X32.9433 Y23.2908
G01 X33.0502 Y23.2267
G01 X33.0629 Y23.2195
G01 X33.0759 Y23.2130
G01 X33.1886 Y23.1597
G01 X33.2019 Y23.1538
G01 X33.2155 Y23.1485
G01 X33.3329 Y23.1065
G01 X33.3467 Y23.1019
G01 X33.3608 Y23.0981
G01 X33.4817 Y23.0678
G01 X33.4959 Y23.0646
G01 X33.5103 Y23.0621
G01 X33.6336 Y23.0438
G01 X33.6480 Y23.0420
G01 X33.6626 Y23.0409
G01 X33.7871 Y23.0348
G01 X33.8017 Y23.0345
G01 X33.8162 Y23.0348
G01 X33.9407 Y23.0409
G01 X33.9553 Y23.0420
G01 X33.9697 Y23.0438
G01 X34.0930 Y23.0621
G01 X34.1074 Y23.0646
G01 X34.1216 Y23.0678
G01 X34.2425 Y23.0981
G01 X34.2566 Y23.1019
G01 X34.2704 Y23.1065
G01 X34.3878 Y23.1485
G01 X34.4014 Y23.1538
G01 X34.4147 Y23.1597
G01 X34.5274 Y23.2130
G01 X34.5404 Y23.2195
G01 X34.5531 Y23.2267
G01 X34.6600 Y23.2908
G01 X34.6723 Y23.2986
G01 X34.6843 Y23.3070
G01 X34.7844 Y23.3812
G01 X34.7959 Y23.3902
G01 X34.8069 Y23.3997
G01 X34.8993 Y23.4834
G01 X34.9098 Y23.4935
G01 X34.9199 Y23.5040
G01 X35.0036 Y23.5964
G01 X35.0131 Y23.6074
G01 X35.0221 Y23.6189
G01 X35.0963 Y23.7190
G01 X35.1047 Y23.7310
G01 X35.1125 Y23.7433
G01 X35.1766 Y23.8502
G01 X36.9904 Y23.8502
G01 X38.2502 Y22.5904
G01 X38.2502 Y10.0129
G01 X35.8304 Y7.5931
G01 X33.5148 Y7.5931
G01 X33.5148 Y7.8577
G01 X33.5145 Y7.8722
G01 X33.5134 Y7.8868
G01 X33.5091 Y7.9156
G01 X33.5020 Y7.9439
G01 X33.4922 Y7.9714
G01 X33.4797 Y7.9977
G01 X33.4648 Y8.0228
G01 X33.4474 Y8.0462
G01 X33.4278 Y8.0678
G01 X33.4062 Y8.0874
G01 X33.3828 Y8.1048
G01 X33.3577 Y8.1197
G01 X33.3314 Y8.1322
G01 X33.3039 Y8.1420
G01 X33.2756 Y8.1491
G01 X33.2468 Y8.1534
G01 X33.2322 Y8.1545
G01 X33.2177 Y8.1548
G01 X31.1857 Y8.1548
G01 X31.1711 Y8.1545
G01 X31.1565 Y8.1534
G01 X31.1277 Y8.1491
G01 X31.0994 Y8.1420
G01 X31.0719 Y8.1322
G01 X31.0456 Y8.1197
G01 X31.0205 Y8.1048
G01 X30.9971 Y8.0874
G01 X30.9755 Y8.0678
G01 X30.9559 Y8.0462
G01 X30.9385 Y8.0228
G01 X30.9317 Y8.0112
G01 X30.9248 Y8.0228
G01 X30.9074 Y8.0462
G01 X30.8878 Y8.0678
G01 X30.8662 Y8.0874
G01 X30.8428 Y8.1048
G01 X30.8177 Y8.1197
G01 X30.7914 Y8.1322
G01 X30.7639 Y8.1420
G01 X30.7356 Y8.1491
G01 X30.7068 Y8.1534
G01 X30.6849 Y8.1547
G01 X30.4131 Y8.1548
G01 X30.4131 Y11.7504
G01 X30.5129 Y11.8502
G01 X32.4267 Y11.8502
G01 X32.4908 Y11.7433
G01 X32.4986 Y11.7310
G01 X32.5070 Y11.7190
G01 X32.5812 Y11.6189
G01 X32.5902 Y11.6074
G01 X32.5997 Y11.5964
G01 X32.6834 Y11.5040
G01 X32.6935 Y11.4935
G01 X32.7040 Y11.4834
G01 X32.7964 Y11.3997
G01 X32.8074 Y11.3902
G01 X32.8189 Y11.3812
G01 X32.9190 Y11.3070
G01 X32.9310 Y11.2986
G01 X32.9433 Y11.2908
G01 X33.0502 Y11.2267
G01 X33.0629 Y11.2195
G01 X33.0759 Y11.2130
G01 X33.1886 Y11.1597
G01 X33.2019 Y11.1538
G01 X33.2155 Y11.1485
G01 X33.3329 Y11.1065
G01 X33.3467 Y11.1019
G01 X33.3608 Y11.0981
G01 X33.4817 Y11.0678
G01 X33.4959 Y11.0646
G01 X33.5103 Y11.0621
G01 X33.6336 Y11.0438
G01 X33.6480 Y11.0420
G01 X33.6626 Y11.0409
G01 X33.7871 Y11.0348
G01 X33.8017 Y11.0345
G01 X33.8162 Y11.0348
G01 X33.9407 Y11.0409
G01 X33.9553 Y11.0420
G01 X33.9697 Y11.0438
G01 X34.0930 Y11.0621
G01 X34.1074 Y11.0646
G01 X34.1216 Y11.0678
G01 X34.2425 Y11.0981
G01 X34.2566 Y11.1019
G01 X34.2704 Y11.1065
G01 X34.3878 Y11.1485
G01 X34.4014 Y11.1538
G01 X34.4147 Y11.1597
G01 X34.5274 Y11.2130
G01 X34.5404 Y11.2195
G01 X34.5531 Y11.2267
G01 X34.6600 Y11.2908
G01 X34.6723 Y11.2986
G01 X34.6843 Y11.3070
G01 X34.7844 Y11.3812
G01 X34.7959 Y11.3902
G01 X34.8069 Y11.3997
G01 X34.8993 Y11.4834
G01 X34.9098 Y11.4935
G01 X34.9199 Y11.5040
G01 X35.0036 Y11.5964
G01 X35.0131 Y11.6074
G01 X35.0221 Y11.6189
G01 X35.0963 Y11.7190
G01 X35.1047 Y11.7310
G01 X35.1125 Y11.7433
G01 X35.1766 Y11.8502
G01 X35.1838 Y11.8629
G01 X35.1903 Y11.8759
G01 X35.2436 Y11.9886
G01 X35.2495 Y12.0019
G01 X35.2548 Y12.0155
G01 X35.2968 Y12.1329
G01 X35.3014 Y12.1467
G01 X35.3052 Y12.1608
G01 X35.3355 Y12.2817
G01 X35.3387 Y12.2959
G01 X35.3412 Y12.3103
G01 X35.3595 Y12.4336
G01 X35.3613 Y12.4480
G01 X35.3624 Y12.4626
G01 X35.3685 Y12.5871
G01 X35.3688 Y12.6017
G01 X35.3685 Y12.6162
G01 X35.3624 Y12.7407
G01 X35.3613 Y12.7553
G01 X35.3595 Y12.7697
G01 X35.3412 Y12.8930
G01 X35.3387 Y12.9074
G01 X35.3355 Y12.9216
G01 X35.3052 Y13.0425
G01 X35.3014 Y13.0566
G01 X35.2968 Y13.0704
G01 X35.2548 Y13.1878
G01 X35.2495 Y13.2014
G01 X35.2436 Y13.2147
G01 X35.1903 Y13.3274
G01 X35.1838 Y13.3404
G01 X35.1766 Y13.3531
G01 X35.1125 Y13.4600
G01 X35.1047 Y13.4723
G01 X35.0963 Y13.4843
G01 X35.0221 Y13.5844
G01 X35.0131 Y13.5959
G01 X35.0036 Y13.6069
G01 X34.9199 Y13.6993
G01 X34.9098 Y13.7098
G01 X34.8993 Y13.7199
G01 X34.8069 Y13.8036
G01 X34.7959 Y13.8131
G01 X34.7844 Y13.8221
G01 X34.6843 Y13.8963
G01 X34.6723 Y13.9047
G01 X34.6600 Y13.9125
G01 X34.5531 Y13.9766
G01 X34.5404 Y13.9838
G01 X34.5274 Y13.9903
G01 X34.4147 Y14.0436
G01 X34.4014 Y14.0495
G01 X34.3878 Y14.0548
G01 X34.2704 Y14.0968
G01 X34.2566 Y14.1014
G01 X34.2425 Y14.1052
G01 X34.1216 Y14.1355
G01 X34.1074 Y14.1387
G01 X34.0930 Y14.1412
G01 X33.9697 Y14.1595
G01 X33.9480 Y14.1619
G01 X33.8162 Y14.1685
G01 X33.8017 Y14.1688
G01 X33.7871 Y14.1685
G01 X33.6626 Y14.1624
G01 X33.6480 Y14.1613
G01 X33.6336 Y14.1595
G01 X33.5103 Y14.1412
G01 X33.4959 Y14.1387
G01 X33.4817 Y14.1355
G01 X33.3608 Y14.1052
G01 X33.3467 Y14.1014
G01 X33.3329 Y14.0968
G01 X33.2155 Y14.0548
G01 X33.2019 Y14.0495
G01 X33.1886 Y14.0436
G01 X33.0759 Y13.9903
G01 X33.0629 Y13.9838
G01 X33.0502 Y13.9766
G01 X32.9433 Y13.9125
G01 X32.9310 Y13.9047
G01 X32.9190 Y13.8963
G01 X32.8189 Y13.8221
G01 X32.8074 Y13.8131
G01 X32.7964 Y13.8036
G01 X32.7040 Y13.7199
G01 X32.6935 Y13.7098
G01 X32.6834 Y13.6993
G01 X32.5997 Y13.6069
G01 X32.5902 Y13.5959
G01 X32.5812 Y13.5844
G01 X32.5070 Y13.4843
G01 X32.4986 Y13.4723
G01 X32.4908 Y13.4600
G01 X32.4267 Y13.3531
G01 X30.2017 Y13.3531
G01 X30.1871 Y13.3527
G01 X30.1353 Y13.3501
G01 X30.1135 Y13.3477
G01 X30.0622 Y13.3400
G01 X30.0408 Y13.3354
G01 X29.9976 Y13.3246
G01 X29.9766 Y13.3185
G01 X29.9277 Y13.3011
G01 X29.9141 Y13.2959
G01 X29.9008 Y13.2900
G01 X29.8605 Y13.2709
G01 X29.8474 Y13.2643
G01 X29.8347 Y13.2571
G01 X29.7965 Y13.2342
G01 X29.7842 Y13.2264
G01 X29.7723 Y13.2180
G01 X29.7365 Y13.1915
G01 X29.7250 Y13.1825
G01 X29.7139 Y13.1730
G01 X29.6809 Y13.1430
G01 X29.6703 Y13.1330
G01 X29.1303 Y12.5930
G01 X29.1203 Y12.5824
G01 X29.0903 Y12.5494
G01 X29.0762 Y12.5326
G01 X29.0453 Y12.4910
G01 X29.0369 Y12.4791
G01 X29.0291 Y12.4668
G01 X29.0062 Y12.4286
G01 X28.9956 Y12.4094
G01 X28.9703 Y12.3559
G01 X28.9622 Y12.3356
G01 X28.9472 Y12.2936
G01 X28.9426 Y12.2798
G01 X28.9387 Y12.2657
G01 X28.9279 Y12.2225
G01 X28.9247 Y12.2082
G01 X28.9222 Y12.1939
G01 X28.9156 Y12.1498
G01 X28.9139 Y12.1353
G01 X28.9128 Y12.1208
G01 X28.9106 Y12.0762
G01 X28.9102 Y12.0617
G01 X28.9102 Y8.1548
G01 X28.6384 Y8.1547
G01 X28.6165 Y8.1534
G01 X28.5877 Y8.1491
G01 X28.5594 Y8.1420
G01 X28.5319 Y8.1322
G01 X28.5056 Y8.1197
G01 X28.4805 Y8.1048
G01 X28.4571 Y8.0874
G01 X28.4355 Y8.0678
G01 X28.4159 Y8.0462
G01 X28.3985 Y8.0228
G01 X28.3917 Y8.0112
G01 X28.3848 Y8.0228
G01 X28.3674 Y8.0462
G01 X28.3478 Y8.0678
G01 X28.3262 Y8.0874
G01 X28.3028 Y8.1048
G01 X28.2777 Y8.1197
G01 X28.2514 Y8.1322
G01 X28.2239 Y8.1420
G01 X28.1956 Y8.1491
G01 X28.1668 Y8.1534
G01 X28.1449 Y8.1547
G01 X27.8731 Y8.1548
G01 X27.8731 Y17.8502
G01 X34.4267 Y17.8502
G01 X34.4908 Y17.7433
G01 X34.4986 Y17.7310
G01 X34.5070 Y17.7190
G01 X34.5812 Y17.6189
G01 X34.5902 Y17.6074
G01 X34.5997 Y17.5964
G01 X34.6834 Y17.5040
G01 X34.6935 Y17.4935
G01 X34.7040 Y17.4834
G01 X34.7964 Y17.3997
G01 X34.8074 Y17.3902
G01 X34.8189 Y17.3812
G01 X34.9190 Y17.3070
G01 X34.9310 Y17.2986
G01 X34.9433 Y17.2908
G01 X35.0502 Y17.2267
G01 X35.0629 Y17.2195
G01 X35.0759 Y17.2130
G01 X35.1886 Y17.1597
G01 X35.2019 Y17.1538
G01 X35.2155 Y17.1485
G01 X35.3329 Y17.1065
G01 X35.3467 Y17.1019
G01 X35.3608 Y17.0981
G01 X35.4817 Y17.0678
G01 X35.4959 Y17.0646
G01 X35.5103 Y17.0621
G01 X35.6336 Y17.0438
G01 X35.6480 Y17.0420
G01 X35.6626 Y17.0409
G01 X35.7871 Y17.0348
G01 X35.8017 Y17.0345
G01 X35.8162 Y17.0348
G01 X35.9407 Y17.0409
G01 X35.9553 Y17.0420
G01 X35.9697 Y17.0438
G01 X36.0930 Y17.0621
G01 X36.1074 Y17.0646
G01 X36.1216 Y17.0678
G01 X36.2496 Y17.0999
G01 X36.2704 Y17.1065
G01 X36.3878 Y17.1485
G01 X36.4014 Y17.1538
G01 X36.4147 Y17.1597
G01 X36.5274 Y17.2130
G01 X36.5404 Y17.2195
G01 X36.5531 Y17.2267
G01 X36.6600 Y17.2908
G01 X36.6723 Y17.2986
G01 X36.6843 Y17.3070
G01 X36.7844 Y17.3812
G01 X36.7959 Y17.3902
G01 X36.8069 Y17.3997
G01 X36.8993 Y17.4834
G01 X36.9098 Y17.4935
G01 X36.9199 Y17.5040
G01 X37.0036 Y17.5964
G01 X37.0131 Y17.6074
G01 X37.0221 Y17.6189
G01 X37.0963 Y17.7190
G01 X37.1047 Y17.7310
G01 X37.1125 Y17.7433
G01 X37.1766 Y17.8502
G01 X37.1838 Y17.8629
G01 X37.1903 Y17.8759
G01 X37.2436 Y17.9886
G01 X37.2495 Y18.0019
G01 X37.2548 Y18.0155
G01 X37.2968 Y18.1329
G01 X37.3014 Y18.1467
G01 X37.3052 Y18.1608
G01 X37.3355 Y18.2817
G01 X37.3387 Y18.2959
G01 X37.3412 Y18.3103
G01 X37.3595 Y18.4336
G01 X37.3613 Y18.4480
G01 X37.3624 Y18.4626
G01 X37.3686 Y18.5907
G01 X37.3688 Y18.6017
G01 X37.3685 Y18.6162
G01 X37.3624 Y18.7407
G01 X37.3613 Y18.7553
G01 X37.3595 Y18.7697
G01 X37.3412 Y18.8930
G01 X37.3387 Y18.9074
G01 X37.3355 Y18.9216
G01 X37.3052 Y19.0425
G01 X37.3014 Y19.0566
G01 X37.2968 Y19.0704
G01 X37.2548 Y19.1878
G01 X37.2495 Y19.2014
G01 X37.2436 Y19.2147
G01 X37.1903 Y19.3274
G01 X37.1838 Y19.3404
G01 X37.1766 Y19.3531
G01 X37.1125 Y19.4600
G01 X37.1047 Y19.4723
G01 X37.0963 Y19.4843
G01 X37.0221 Y19.5844
G01 X37.0131 Y19.5959
G01 X37.0036 Y19.6069
G01 X36.9199 Y19.6993
G01 X36.9098 Y19.7098
G01 X36.8993 Y19.7199
G01 X36.8069 Y19.8036
G01 X36.7959 Y19.8131
G01 X36.7844 Y19.8221
G01 X36.6843 Y19.8963
G01 X36.6723 Y19.9047
G01 X36.6600 Y19.9125
G01 X36.5531 Y19.9766
G01 X36.5404 Y19.9838
G01 X36.5274 Y19.9903
G01 X36.4147 Y20.0436
G01 X36.4014 Y20.0495
G01 X36.3878 Y20.0548
G01 X36.2704 Y20.0968
G01 X36.2566 Y20.1014
G01 X36.2425 Y20.1052
G01 X36.1216 Y20.1355
G01 X36.1074 Y20.1387
G01 X36.0930 Y20.1412
G01 X35.9697 Y20.1595
G01 X35.9553 Y20.1613
G01 X35.9407 Y20.1624
G01 X35.8162 Y20.1685
G01 X35.8017 Y20.1688
G01 X35.7871 Y20.1685
G01 X35.6626 Y20.1624
G01 X35.6480 Y20.1613
G01 X35.6336 Y20.1595
G01 X35.5103 Y20.1412
G01 X35.4959 Y20.1387
G01 X35.4817 Y20.1355
G01 X35.3608 Y20.1052
G01 X35.3467 Y20.1014
G01 X35.3329 Y20.0968
G01 X35.2155 Y20.0548
G01 X35.2019 Y20.0495
G01 X35.1886 Y20.0436
G01 X35.0759 Y19.9903
G01 X35.0629 Y19.9838
G01 X35.0502 Y19.9766
G01 X34.9433 Y19.9125
G01 X34.9310 Y19.9047
G01 X34.9190 Y19.8963
G01 X34.8189 Y19.8221
G01 X34.8074 Y19.8131
G01 X34.7964 Y19.8036
G01 X34.7040 Y19.7199
G01 X34.6935 Y19.7098
G01 X34.6834 Y19.6993
G01 X34.5997 Y19.6069
G01 X34.5902 Y19.5959
G01 X34.5812 Y19.5844
G01 X34.5070 Y19.4843
G01 X34.4986 Y19.4723
G01 X34.4908 Y19.4600
G01 X34.4267 Y19.3531
G01 X8.8009 Y19.3531
G01 X8.7869 Y19.3918
G01 X8.7813 Y19.4053
G01 X8.7144 Y19.5471
G01 X8.7043 Y19.5665
G01 X8.6237 Y19.7011
G01 X8.6159 Y19.7134
G01 X8.6075 Y19.7254
G01 X8.5140 Y19.8513
G01 X8.4999 Y19.8680
G01 X8.3995 Y19.9789
G01 X8.3894 Y19.9894
G01 X8.3789 Y19.9995
G01 X8.2680 Y20.0999
G01 X8.2570 Y20.1094
G01 X8.2455 Y20.1184
G01 X8.1254 Y20.2075
G01 X8.1134 Y20.2159
G01 X8.1011 Y20.2237
G01 X7.9728 Y20.3006
G01 X7.9602 Y20.3078
G01 X7.9471 Y20.3144
G01 X7.8119 Y20.3783
G01 X7.7986 Y20.3842
G01 X7.7850 Y20.3895
G01 X7.6442 Y20.4398
G01 X7.6303 Y20.4444
G01 X7.6163 Y20.4483
G01 X7.4712 Y20.4846
G01 X7.4569 Y20.4878
G01 X7.4426 Y20.4903
G01 X7.2946 Y20.5123
G01 X7.2802 Y20.5141
G01 X7.2656 Y20.5151
G01 X7.1162 Y20.5225
G01 X7.0944 Y20.5227
G01 X6.9377 Y20.5151
G01 X6.9231 Y20.5141
G01 X6.9087 Y20.5123
G01 X6.7607 Y20.4903
G01 X6.7464 Y20.4878
G01 X6.7321 Y20.4846
G01 X6.5870 Y20.4483
G01 X6.5730 Y20.4444
G01 X6.5591 Y20.4398
G01 X6.4183 Y20.3895
G01 X6.4047 Y20.3842
G01 X6.3914 Y20.3783
G01 X6.2562 Y20.3144
G01 X6.2431 Y20.3078
G01 X6.2305 Y20.3006
G01 X6.1022 Y20.2237
G01 X6.0899 Y20.2159
G01 X6.0779 Y20.2075
G01 X5.9578 Y20.1184
G01 X5.9463 Y20.1094
G01 X5.9353 Y20.0999
G01 X5.8244 Y19.9995
G01 X5.8139 Y19.9894
G01 X5.8038 Y19.9789
G01 X5.7034 Y19.8680
G01 X5.6939 Y19.8570
G01 X5.6849 Y19.8455
G01 X5.5958 Y19.7254
G01 X5.5874 Y19.7134
G01 X5.5796 Y19.7011
G01 X5.4990 Y19.5665
G01 X5.4889 Y19.5471
G01 X5.4250 Y19.4119
G01 X5.4191 Y19.3986
G01 X5.4138 Y19.3850
G01 X5.3635 Y19.2442
G01 X5.3589 Y19.2303
G01 X5.3550 Y19.2163
G01 X5.3187 Y19.0712
G01 X5.3155 Y19.0569
G01 X5.3130 Y19.0426
G01 X5.2910 Y18.8946
G01 X5.2892 Y18.8802
G01 X5.2882 Y18.8656
G01 X5.2808 Y18.7162
G01 X5.2805 Y18.7017
G01 X5.2808 Y18.6871
G01 X5.2882 Y18.5377
G01 X5.2892 Y18.5231
G01 X5.2910 Y18.5087
G01 X5.3130 Y18.3607
G01 X5.3155 Y18.3464
G01 X5.3187 Y18.3321
G01 X5.3550 Y18.1870
G01 X5.3589 Y18.1730
G01 X5.3635 Y18.1591
G01 X5.4138 Y18.0183
G01 X5.4191 Y18.0047
G01 X5.4250 Y17.9914
G01 X5.4889 Y17.8562
G01 X5.4955 Y17.8432
G01 X5.5027 Y17.8305
G01 X5.5796 Y17.7022
G01 X5.5874 Y17.6899
G01 X5.5958 Y17.6779
G01 X5.6849 Y17.5578
G01 X5.6939 Y17.5463
G01 X5.7034 Y17.5353
G01 X5.8038 Y17.4244
G01 X5.8139 Y17.4139
G01 X5.8244 Y17.4038
G01 X5.9353 Y17.3034
G01 X5.9463 Y17.2939
G01 X5.9578 Y17.2849
G01 X6.0779 Y17.1958
G01 X6.0899 Y17.1874
G01 X6.1022 Y17.1796
G01 X6.2305 Y17.1027
G01 X6.2431 Y17.0955
G01 X6.2562 Y17.0889
G01 X6.3914 Y17.0250
G01 X6.4047 Y17.0191
G01 X6.4183 Y17.0138
G01 X6.5591 Y16.9635
G01 X6.5730 Y16.9589
G01 X6.5870 Y16.9550
G01 X6.7321 Y16.9187
G01 X6.7464 Y16.9155
G01 X6.7607 Y16.9130
G01 X6.9087 Y16.8910
G01 X6.9304 Y16.8886
G01 X7.0871 Y16.8808
G01 X7.1017 Y16.8805
G01 X7.1162 Y16.8808
G01 X7.2656 Y16.8882
G01 X7.2802 Y16.8892
G01 X7.2946 Y16.8910
G01 X7.4426 Y16.9130
G01 X7.4569 Y16.9155
G01 X7.4712 Y16.9187
G01 X7.6163 Y16.9550
G01 X7.6303 Y16.9589
G01 X7.6442 Y16.9635
G01 X7.7850 Y17.0138
G01 X7.7986 Y17.0191
G01 X7.8119 Y17.0250
G01 X7.9471 Y17.0889
G01 X7.9602 Y17.0955
G01 X7.9728 Y17.1027
G01 X8.1011 Y17.1796
G01 X8.1134 Y17.1874
G01 X8.1254 Y17.1958
G01 X8.2455 Y17.2849
G01 X8.2570 Y17.2939
G01 X8.2680 Y17.3034
G01 X8.3789 Y17.4038
G01 X8.3894 Y17.4139
G01 X8.3995 Y17.4244
G01 X8.4999 Y17.5353
G01 X8.5094 Y17.5463
G01 X8.5184 Y17.5578
G01 X8.6075 Y17.6779
G01 X8.6159 Y17.6899
G01 X8.6237 Y17.7022
G01 X8.7006 Y17.8305
G01 X8.7115 Y17.8502
G01 X26.3702 Y17.8502
G01 X26.3702 Y8.1548
G01 X26.0984 Y8.1547
G01 X26.0765 Y8.1534
G01 X26.0477 Y8.1491
G01 X26.0194 Y8.1420
G01 X25.9919 Y8.1322
G01 X25.9656 Y8.1197
G01 X25.9405 Y8.1048
G01 X25.9171 Y8.0874
G01 X25.8955 Y8.0678
G01 X25.8759 Y8.0462
G01 X25.8585 Y8.0228
G01 X25.8517 Y8.0112
G01 X25.8448 Y8.0228
G01 X25.8274 Y8.0462
G01 X25.8078 Y8.0678
G01 X25.7862 Y8.0874
G01 X25.7628 Y8.1048
G01 X25.7377 Y8.1197
G01 X25.7114 Y8.1322
G01 X25.6839 Y8.1420
G01 X25.6556 Y8.1491
G01 X25.6268 Y8.1534
G01 X25.6049 Y8.1547
G01 X25.3331 Y8.1548
G01 X25.3330 Y11.9289
G01 X25.3305 Y11.9808
G01 X25.3294 Y11.9953
G01 X25.3277 Y12.0098
G01 X25.3211 Y12.0539
G01 X25.3186 Y12.0682
G01 X25.3154 Y12.0825
G01 X25.3046 Y12.1257
G01 X25.3007 Y12.1398
G01 X25.2961 Y12.1536
G01 X25.2811 Y12.1956
G01 X25.2759 Y12.2092
G01 X25.2700 Y12.2225
G01 X25.2509 Y12.2628
G01 X25.2443 Y12.2759
G01 X25.2371 Y12.2886
G01 X25.2142 Y12.3268
G01 X25.2064 Y12.3391
G01 X25.1980 Y12.3510
G01 X25.1715 Y12.3868
G01 X25.1625 Y12.3983
G01 X25.1530 Y12.4094
G01 X25.1155 Y12.4504
G01 X24.4304 Y13.1355
G01 X24.3894 Y13.1730
G01 X24.3783 Y13.1825
G01 X24.3668 Y13.1915
G01 X24.3310 Y13.2180
G01 X24.3191 Y13.2264
G01 X24.3068 Y13.2342
G01 X24.2686 Y13.2571
G01 X24.2494 Y13.2677
G01 X24.2025 Y13.2900
G01 X24.1892 Y13.2959
G01 X24.1756 Y13.3011
G01 X24.1336 Y13.3161
G01 X24.1128 Y13.3227
G01 X24.0625 Y13.3354
G01 X24.0411 Y13.3400
G01 X23.9826 Y13.3486
G01 X23.9608 Y13.3505
G01 X23.9162 Y13.3527
G01 X23.9017 Y13.3531
G01 X22.6766 Y13.3531
G01 X22.6125 Y13.4600
G01 X22.6047 Y13.4723
G01 X22.5963 Y13.4843
G01 X22.5221 Y13.5844
G01 X22.5131 Y13.5959
G01 X22.5036 Y13.6069
G01 X22.4199 Y13.6993
G01 X22.4098 Y13.7098
G01 X22.3993 Y13.7199
G01 X22.3069 Y13.8036
G01 X22.2959 Y13.8131
G01 X22.2844 Y13.8221
G01 X22.1843 Y13.8963
G01 X22.1723 Y13.9047
G01 X22.1600 Y13.9125
G01 X22.0531 Y13.9766
G01 X22.0404 Y13.9838
G01 X22.0274 Y13.9903
G01 X21.9147 Y14.0436
G01 X21.9014 Y14.0495
G01 X21.8878 Y14.0548
G01 X21.7704 Y14.0968
G01 X21.7496 Y14.1034
G01 X21.6216 Y14.1355
G01 X21.6074 Y14.1387
G01 X21.5930 Y14.1412
G01 X21.4697 Y14.1595
G01 X21.4553 Y14.1613
G01 X21.4407 Y14.1624
G01 X21.3162 Y14.1685
G01 X21.3017 Y14.1688
G01 X21.2871 Y14.1685
G01 X21.1626 Y14.1624
G01 X21.1480 Y14.1613
G01 X21.1336 Y14.1595
G01 X21.0103 Y14.1412
G01 X20.9959 Y14.1387
G01 X20.9817 Y14.1355
G01 X20.8608 Y14.1052
G01 X20.8467 Y14.1014
G01 X20.8329 Y14.0968
G01 X20.7155 Y14.0548
G01 X20.7019 Y14.0495
G01 X20.6886 Y14.0436
G01 X20.5759 Y13.9903
G01 X20.5629 Y13.9838
G01 X20.5502 Y13.9766
G01 X20.4433 Y13.9125
G01 X20.4310 Y13.9047
G01 X20.4190 Y13.8963
G01 X20.3189 Y13.8221
G01 X20.3074 Y13.8131
G01 X20.2964 Y13.8036
G01 X20.2040 Y13.7199
G01 X20.1935 Y13.7098
G01 X20.1834 Y13.6993
G01 X20.0997 Y13.6069
G01 X20.0902 Y13.5959
G01 X20.0812 Y13.5844
G01 X20.0070 Y13.4843
G01 X19.9986 Y13.4723
G01 X19.9908 Y13.4600
G01 X19.9267 Y13.3531
G01 X10.9129 Y13.3531
G01 X10.1278 Y14.1381
G01 X10.0894 Y14.1730
G01 X10.0783 Y14.1825
G01 X10.0668 Y14.1915
G01 X10.0310 Y14.2180
G01 X10.0191 Y14.2264
G01 X10.0068 Y14.2342
G01 X9.9686 Y14.2571
G01 X9.9559 Y14.2643
G01 X9.9428 Y14.2709
G01 X9.9025 Y14.2900
G01 X9.8892 Y14.2959
G01 X9.8756 Y14.3011
G01 X9.8336 Y14.3161
G01 X9.8198 Y14.3207
G01 X9.8057 Y14.3246
G01 X9.7625 Y14.3354
G01 X9.7482 Y14.3386
G01 X9.7339 Y14.3411
G01 X9.6898 Y14.3477
G01 X9.6680 Y14.3501
G01 X9.6162 Y14.3527
G01 X9.6017 Y14.3531
G01 X8.7588 Y14.3531
G01 X8.7144 Y14.4471
G01 X8.7078 Y14.4602
G01 X8.7006 Y14.4728
G01 X8.6199 Y14.6073
G01 X8.6075 Y14.6254
G01 X8.5184 Y14.7455
G01 X8.5048 Y14.7626
G01 X8.3995 Y14.8789
G01 X8.3894 Y14.8894
G01 X8.3789 Y14.8995
G01 X8.2680 Y14.9999
G01 X8.2570 Y15.0094
G01 X8.2455 Y15.0184
G01 X8.1254 Y15.1075
G01 X8.1073 Y15.1199
G01 X7.9728 Y15.2006
G01 X7.9602 Y15.2078
G01 X7.9471 Y15.2144
G01 X7.8119 Y15.2783
G01 X7.7986 Y15.2842
G01 X7.7850 Y15.2895
G01 X7.6442 Y15.3398
G01 X7.6303 Y15.3444
G01 X7.6163 Y15.3483
G01 X7.4712 Y15.3846
G01 X7.4569 Y15.3878
G01 X7.4426 Y15.3903
G01 X7.2946 Y15.4123
G01 X7.2802 Y15.4141
G01 X7.2656 Y15.4151
G01 X7.1089 Y15.4227
G01 X7.0871 Y15.4225
G01 X6.9377 Y15.4151
G01 X6.9231 Y15.4141
G01 X6.9087 Y15.4123
G01 X6.7607 Y15.3903
G01 X6.7464 Y15.3878
G01 X6.7321 Y15.3846
G01 X6.5870 Y15.3483
G01 X6.5730 Y15.3444
G01 X6.5591 Y15.3398
G01 X6.4183 Y15.2895
G01 X6.4047 Y15.2842
G01 X6.3914 Y15.2783
G01 X6.2562 Y15.2144
G01 X6.2431 Y15.2078
G01 X6.2305 Y15.2006
G01 X6.1022 Y15.1237
G01 X6.0899 Y15.1159
G01 X6.0779 Y15.1075
G01 X5.9578 Y15.0184
G01 X5.9463 Y15.0094
G01 X5.9353 Y14.9999
G01 X5.8244 Y14.8995
G01 X5.8139 Y14.8894
G01 X5.8038 Y14.8789
G01 X5.7034 Y14.7680
G01 X5.6939 Y14.7570
G01 X5.6849 Y14.7455
G01 X5.5958 Y14.6254
G01 X5.5874 Y14.6134
G01 X5.5796 Y14.6011
G01 X5.5027 Y14.4728
G01 X5.4955 Y14.4602
G01 X5.4889 Y14.4471
G01 X5.4220 Y14.3053
G01 X5.4138 Y14.2850
G01 X5.3635 Y14.1442
G01 X5.3589 Y14.1303
G01 X5.3550 Y14.1163
G01 X5.3187 Y13.9712
G01 X5.3155 Y13.9569
G01 X5.3130 Y13.9426
G01 X5.2910 Y13.7946
G01 X5.2892 Y13.7802
G01 X5.2882 Y13.7656
G01 X5.2808 Y13.6162
G01 X5.2805 Y13.6017
G01 X5.2808 Y13.5871
G01 X5.2882 Y13.4377
G01 X5.2892 Y13.4231
G01 X5.2910 Y13.4087
G01 X5.3130 Y13.2607
G01 X5.3155 Y13.2464
G01 X5.3187 Y13.2321
G01 X5.3550 Y13.0870
G01 X5.3589 Y13.0730
G01 X5.3635 Y13.0591
G01 X5.4138 Y12.9183
G01 X5.4191 Y12.9047
G01 X5.4250 Y12.8914
G01 X5.4889 Y12.7562
G01 X5.4955 Y12.7431
G01 X5.5027 Y12.7305
G01 X5.5796 Y12.6022
G01 X5.5874 Y12.5899
G01 X5.5958 Y12.5779
G01 X5.6849 Y12.4578
G01 X5.6939 Y12.4463
G01 X5.7034 Y12.4353
G01 X5.8038 Y12.3244
G01 X5.8139 Y12.3139
G01 X5.8244 Y12.3038
G01 X5.9353 Y12.2034
G01 X5.9463 Y12.1939
G01 X5.9578 Y12.1849
G01 X6.0779 Y12.0958
G01 X6.0899 Y12.0874
G01 X6.1022 Y12.0796
G01 X6.2305 Y12.0027
G01 X6.2431 Y11.9955
G01 X6.2562 Y11.9889
G01 X6.3980 Y11.9220
G01 X6.4183 Y11.9138
G01 X6.5591 Y11.8635
G01 X6.5730 Y11.8589
G01 X6.5870 Y11.8550
G01 X6.7321 Y11.8187
G01 X6.7464 Y11.8155
G01 X6.7607 Y11.8130
G01 X6.9087 Y11.7910
G01 X6.9231 Y11.7892
G01 X6.9377 Y11.7882
G01 X7.0871 Y11.7808
G01 X7.1017 Y11.7805
G01 X7.1162 Y11.7808
G01 X7.2656 Y11.7882
G01 X7.2802 Y11.7892
G01 X7.2946 Y11.7910
G01 X7.4426 Y11.8130
G01 X7.4569 Y11.8155
G01 X7.4712 Y11.8187
G01 X7.6163 Y11.8550
G01 X7.6303 Y11.8589
G01 X7.6442 Y11.8635
G01 X7.7918 Y11.9164
G01 X7.8119 Y11.9250
G01 X7.9471 Y11.9889
G01 X7.9602 Y11.9955
G01 X7.9728 Y12.0027
G01 X8.1011 Y12.0796
G01 X8.1134 Y12.0874
G01 X8.1254 Y12.0958
G01 X8.2455 Y12.1849
G01 X8.2570 Y12.1939
G01 X8.2680 Y12.2034
G01 X8.3842 Y12.3088
G01 X8.3995 Y12.3244
G01 X8.4999 Y12.4353
G01 X8.5094 Y12.4463
G01 X8.5184 Y12.4578
G01 X8.6118 Y12.5838
G01 X8.6237 Y12.6022
G01 X8.7043 Y12.7368
G01 X8.7144 Y12.7562
G01 X8.7588 Y12.8502
G00 Z0.5000
G00 X8.8835 Y12.6526
G01 F250.00
G01 Z-0.0300
G01 F2500.00
G01 X9.2085 Y12.6526
G01 X9.9305 Y11.9305
G01 X9.9437 Y11.9179
G01 X9.9812 Y11.8839
G01 X9.9903 Y11.8758
G01 X10.0090 Y11.8604
G01 X10.0545 Y11.8265
G01 X10.0744 Y11.8125
G01 X10.0949 Y11.7995
G01 X10.1331 Y11.7766
G01 X10.1436 Y11.7705
G01 X10.1650 Y11.7590
G01 X10.2162 Y11.7346
G01 X10.2384 Y11.7248
G01 X10.2611 Y11.7161
G01 X10.3146 Y11.6971
G01 X10.3261 Y11.6934
G01 X10.3496 Y11.6869
G01 X10.3928 Y11.6761
G01 X10.4165 Y11.6708
G01 X10.4404 Y11.6666
G01 X10.4845 Y11.6601
G01 X10.5086 Y11.6571
G01 X10.5207 Y11.6561
G01 X10.5774 Y11.6531
G01 X10.6017 Y11.6526
G01 X19.8147 Y11.6526
G01 X19.8276 Y11.6313
G01 X19.8411 Y11.6111
G01 X19.9298 Y11.4915
G01 X19.9452 Y11.4727
G01 X19.9533 Y11.4636
G01 X20.0369 Y11.3713
G01 X20.0537 Y11.3537
G01 X20.0713 Y11.3369
G01 X20.1636 Y11.2533
G01 X20.1820 Y11.2374
G01 X20.2012 Y11.2224
G01 X20.3013 Y11.1482
G01 X20.3211 Y11.1342
G01 X20.3417 Y11.1212
G01 X20.4591 Y11.0510
G01 X20.4697 Y11.0452
G01 X20.4914 Y11.0343
G01 X20.6041 Y10.9810
G01 X20.6263 Y10.9711
G01 X20.6489 Y10.9624
G01 X20.7663 Y10.9204
G01 X20.7893 Y10.9128
G01 X20.8127 Y10.9063
G01 X20.9336 Y10.8760
G01 X20.9573 Y10.8707
G01 X20.9813 Y10.8665
G01 X21.1046 Y10.8482
G01 X21.1287 Y10.8453
G01 X21.1408 Y10.8442
G01 X21.2774 Y10.8374
G01 X21.3017 Y10.8368
G01 X21.3259 Y10.8374
G01 X21.4504 Y10.8435
G01 X21.4746 Y10.8453
G01 X21.4987 Y10.8482
G01 X21.6220 Y10.8665
G01 X21.6460 Y10.8707
G01 X21.6697 Y10.8760
G01 X21.7906 Y10.9063
G01 X21.8140 Y10.9128
G01 X21.8370 Y10.9204
G01 X21.9544 Y10.9624
G01 X21.9770 Y10.9711
G01 X21.9992 Y10.9810
G01 X22.1228 Y11.0396
G01 X22.1442 Y11.0510
G01 X22.1547 Y11.0571
G01 X22.2616 Y11.1212
G01 X22.2822 Y11.1342
G01 X22.3020 Y11.1482
G01 X22.4021 Y11.2224
G01 X22.4213 Y11.2374
G01 X22.4397 Y11.2533
G01 X22.5320 Y11.3369
G01 X22.5496 Y11.3537
G01 X22.5664 Y11.3713
G01 X22.6501 Y11.4636
G01 X22.6659 Y11.4820
G01 X22.6809 Y11.5012
G01 X22.7622 Y11.6111
G01 X22.7757 Y11.6313
G01 X22.7886 Y11.6526
G01 X23.5085 Y11.6526
G01 X23.6326 Y11.5285
G01 X23.6326 Y8.3525
G01 X23.5657 Y8.3525
G01 X23.5414 Y8.3519
G01 X23.5171 Y8.3501
G01 X23.4691 Y8.3430
G01 X23.4220 Y8.3312
G01 X23.3763 Y8.3149
G01 X23.3324 Y8.2941
G01 X23.3117 Y8.2817
G01 X23.2909 Y8.2941
G01 X23.2470 Y8.3149
G01 X23.2013 Y8.3312
G01 X23.1542 Y8.3430
G01 X23.1062 Y8.3501
G01 X23.0819 Y8.3519
G01 X23.0577 Y8.3525
G01 X22.9864 Y8.3525
G01 X22.9832 Y8.3788
G01 X22.9767 Y8.4229
G01 X22.9725 Y8.4468
G01 X22.9672 Y8.4705
G01 X22.9533 Y8.5255
G01 X22.9462 Y8.5487
G01 X22.9272 Y8.6022
G01 X22.9185 Y8.6249
G01 X22.9087 Y8.6471
G01 X22.8896 Y8.6874
G01 X22.8787 Y8.7091
G01 X22.8667 Y8.7302
G01 X22.8438 Y8.7684
G01 X22.8308 Y8.7889
G01 X22.8168 Y8.8088
G01 X22.7903 Y8.8446
G01 X22.7753 Y8.8638
G01 X22.7595 Y8.8821
G01 X22.7254 Y8.9196
G01 X22.7128 Y8.9328
G01 X21.7728 Y9.8728
G01 X21.7597 Y9.8854
G01 X21.7221 Y9.9195
G01 X21.7130 Y9.9275
G01 X21.6943 Y9.9429
G01 X21.6488 Y9.9768
G01 X21.6289 Y9.9908
G01 X21.6084 Y10.0038
G01 X21.5702 Y10.0267
G01 X21.5597 Y10.0328
G01 X21.5383 Y10.0443
G01 X21.4871 Y10.0687
G01 X21.4649 Y10.0785
G01 X21.4422 Y10.0872
G01 X21.3887 Y10.1062
G01 X21.3772 Y10.1099
G01 X21.3538 Y10.1164
G01 X21.3105 Y10.1272
G01 X21.2868 Y10.1325
G01 X21.2629 Y10.1367
G01 X21.2188 Y10.1432
G01 X21.1947 Y10.1462
G01 X21.1705 Y10.1480
G01 X21.1199 Y10.1504
G01 X21.1017 Y10.1508
G01 X4.8948 Y10.1508
G01 X4.6508 Y10.3948
G01 X4.6508 Y22.5526
G01 X5.5168 Y22.5526
G01 X5.5335 Y22.5304
G01 X5.5489 Y22.5116
G01 X5.6573 Y22.3917
G01 X5.6741 Y22.3741
G01 X5.6917 Y22.3573
G01 X5.8025 Y22.2569
G01 X5.8209 Y22.2410
G01 X5.8400 Y22.2261
G01 X5.9602 Y22.1370
G01 X5.9800 Y22.1230
G01 X6.0005 Y22.1100
G01 X6.1288 Y22.0331
G01 X6.1500 Y22.0212
G01 X6.1717 Y22.0102
G01 X6.3069 Y21.9463
G01 X6.3291 Y21.9365
G01 X6.3403 Y21.9319
G01 X6.4925 Y21.8773
G01 X6.5156 Y21.8697
G01 X6.5390 Y21.8632
G01 X6.6841 Y21.8269
G01 X6.7078 Y21.8216
G01 X6.7317 Y21.8174
G01 X6.8797 Y21.7955
G01 X6.9038 Y21.7925
G01 X6.9280 Y21.7907
G01 X7.0774 Y21.7834
G01 X7.1017 Y21.7828
G01 X7.1259 Y21.7834
G01 X7.2753 Y21.7907
G01 X7.2995 Y21.7925
G01 X7.3236 Y21.7955
G01 X7.4836 Y21.8193
G01 X7.4955 Y21.8216
G01 X7.5192 Y21.8269
G01 X7.6643 Y21.8632
G01 X7.6877 Y21.8697
G01 X7.7108 Y21.8773
G01 X7.8516 Y21.9277
G01 X7.8742 Y21.9365
G01 X7.8964 Y21.9463
G01 X8.0316 Y22.0102
G01 X8.0533 Y22.0212
G01 X8.0745 Y22.0331
G01 X8.2028 Y22.1100
G01 X8.2131 Y22.1164
G01 X8.2333 Y22.1299
G01 X8.3633 Y22.2261
G01 X8.3824 Y22.2410
G01 X8.4008 Y22.2569
G01 X8.5116 Y22.3573
G01 X8.5292 Y22.3741
G01 X8.5377 Y22.3828
G01 X8.6464 Y22.5025
G01 X8.6544 Y22.5116
G01 X8.6699 Y22.5304
G01 X8.7734 Y22.6700
G01 X8.7869 Y22.6902
G01 X8.8244 Y22.7526
G01 X9.6017 Y22.7526
G01 X9.6199 Y22.7529
G01 X9.6705 Y22.7553
G01 X9.6947 Y22.7571
G01 X9.7188 Y22.7601
G01 X9.7629 Y22.7666
G01 X9.7868 Y22.7708
G01 X9.8105 Y22.7761
G01 X9.8538 Y22.7869
G01 X9.8772 Y22.7934
G01 X9.9002 Y22.8010
G01 X9.9422 Y22.8161
G01 X9.9649 Y22.8248
G01 X9.9871 Y22.8346
G01 X10.0274 Y22.8537
G01 X10.0491 Y22.8646
G01 X10.0702 Y22.8766
G01 X10.1188 Y22.9059
G01 X10.1289 Y22.9125
G01 X10.1488 Y22.9265
G01 X10.1846 Y22.9530
G01 X10.2038 Y22.9680
G01 X10.2221 Y22.9839
G01 X10.2597 Y23.0179
G01 X10.2728 Y23.0305
G01 X10.8948 Y23.6526
G01 X19.8147 Y23.6526
G01 X19.8276 Y23.6313
G01 X19.8342 Y23.6211
G01 X19.8482 Y23.6013
G01 X19.9298 Y23.4915
G01 X19.9452 Y23.4727
G01 X19.9533 Y23.4636
G01 X20.0369 Y23.3713
G01 X20.0537 Y23.3537
G01 X20.0713 Y23.3369
G01 X20.1636 Y23.2533
G01 X20.1820 Y23.2374
G01 X20.2012 Y23.2224
G01 X20.3013 Y23.1482
G01 X20.3211 Y23.1342
G01 X20.3417 Y23.1212
G01 X20.4486 Y23.0571
G01 X20.4697 Y23.0452
G01 X20.4914 Y23.0343
G01 X20.6041 Y22.9810
G01 X20.6263 Y22.9711
G01 X20.6489 Y22.9624
G01 X20.7663 Y22.9204
G01 X20.7893 Y22.9128
G01 X20.8127 Y22.9063
G01 X20.9336 Y22.8760
G01 X20.9573 Y22.8707
G01 X20.9813 Y22.8665
G01 X21.1046 Y22.8482
G01 X21.1287 Y22.8453
G01 X21.1529 Y22.8435
G01 X21.2774 Y22.8374
G01 X21.3017 Y22.8368
G01 X21.3259 Y22.8374
G01 X21.4504 Y22.8435
G01 X21.4746 Y22.8453
G01 X21.4987 Y22.8482
G01 X21.6220 Y22.8665
G01 X21.6340 Y22.8685
G01 X21.6578 Y22.8732
G01 X21.7906 Y22.9063
G01 X21.8140 Y22.9128
G01 X21.8370 Y22.9204
G01 X21.9544 Y22.9624
G01 X21.9770 Y22.9711
G01 X21.9882 Y22.9759
G01 X22.1119 Y23.0343
G01 X22.1336 Y23.0452
G01 X22.1547 Y23.0571
G01 X22.2616 Y23.1212
G01 X22.2822 Y23.1342
G01 X22.3020 Y23.1482
G01 X22.4021 Y23.2224
G01 X22.4213 Y23.2374
G01 X22.4397 Y23.2533
G01 X22.5320 Y23.3369
G01 X22.5496 Y23.3537
G01 X22.5664 Y23.3713
G01 X22.6501 Y23.4636
G01 X22.6659 Y23.4820
G01 X22.6809 Y23.5012
G01 X22.7622 Y23.6111
G01 X22.7691 Y23.6211
G01 X22.7821 Y23.6417
G01 X22.8462 Y23.7486
G01 X22.8581 Y23.7697
G01 X22.8691 Y23.7914
G01 X22.9223 Y23.9041
G01 X22.9322 Y23.9263
G01 X22.9409 Y23.9489
G01 X22.9829 Y24.0663
G01 X22.9905 Y24.0893
G01 X22.9970 Y24.1127
G01 X23.0273 Y24.2336
G01 X23.0326 Y24.2573
G01 X23.0368 Y24.2813
G01 X23.0551 Y24.4046
G01 X23.0580 Y24.4287
G01 X23.0598 Y24.4529
G01 X23.0662 Y24.5834
G01 X23.0665 Y24.6017
G01 X23.0659 Y24.6259
G01 X23.0598 Y24.7504
G01 X23.0580 Y24.7746
G01 X23.0551 Y24.7987
G01 X23.0368 Y24.9220
G01 X23.0326 Y24.9460
G01 X23.0273 Y24.9697
G01 X22.9970 Y25.0906
G01 X22.9905 Y25.1140
G01 X22.9829 Y25.1370
G01 X22.9409 Y25.2544
G01 X22.9367 Y25.2658
G01 X22.9274 Y25.2882
G01 X22.8691 Y25.4119
G01 X22.8581 Y25.4336
G01 X22.8462 Y25.4547
G01 X22.7821 Y25.5616
G01 X22.7691 Y25.5822
G01 X22.7551 Y25.6020
G01 X22.6809 Y25.7021
G01 X22.6659 Y25.7213
G01 X22.6501 Y25.7397
G01 X22.5664 Y25.8320
G01 X22.5496 Y25.8496
G01 X22.5320 Y25.8664
G01 X22.4397 Y25.9501
G01 X22.4306 Y25.9581
G01 X22.4118 Y25.9735
G01 X22.3020 Y26.0551
G01 X22.2822 Y26.0691
G01 X22.2616 Y26.0821
G01 X22.1547 Y26.1462
G01 X22.1336 Y26.1581
G01 X22.1119 Y26.1691
G01 X21.9992 Y26.2223
G01 X21.9770 Y26.2322
G01 X21.9544 Y26.2409
G01 X21.8370 Y26.2829
G01 X21.8140 Y26.2905
G01 X21.7906 Y26.2970
G01 X21.6697 Y26.3273
G01 X21.6460 Y26.3326
G01 X21.6220 Y26.3368
G01 X21.4867 Y26.3567
G01 X21.4625 Y26.3591
G01 X21.4504 Y26.3598
G01 X21.3259 Y26.3659
G01 X21.3017 Y26.3665
G01 X21.2774 Y26.3659
G01 X21.1529 Y26.3598
G01 X21.1287 Y26.3580
G01 X21.1046 Y26.3551
G01 X20.9813 Y26.3368
G01 X20.9573 Y26.3326
G01 X20.9336 Y26.3273
G01 X20.8127 Y26.2970
G01 X20.7893 Y26.2905
G01 X20.7663 Y26.2829
G01 X20.6489 Y26.2409
G01 X20.6263 Y26.2322
G01 X20.6041 Y26.2223
G01 X20.4914 Y26.1691
G01 X20.4697 Y26.1581
G01 X20.4486 Y26.1462
G01 X20.3417 Y26.0821
G01 X20.3211 Y26.0691
G01 X20.3013 Y26.0551
G01 X20.2012 Y25.9809
G01 X20.1820 Y25.9659
G01 X20.1636 Y25.9501
G01 X20.0624 Y25.8581
G01 X20.0452 Y25.8409
G01 X20.0369 Y25.8320
G01 X19.9533 Y25.7397
G01 X19.9452 Y25.7306
G01 X19.9298 Y25.7118
G01 X19.8482 Y25.6020
G01 X19.8342 Y25.5822
G01 X19.8276 Y25.5720
G01 X19.8147 Y25.5508
G01 X10.5017 Y25.5508
G01 X10.4834 Y25.5504
G01 X10.4328 Y25.5480
G01 X10.4207 Y25.5472
G01 X10.3965 Y25.5448
G01 X10.3404 Y25.5367
G01 X10.3165 Y25.5325
G01 X10.2928 Y25.5272
G01 X10.2496 Y25.5164
G01 X10.2261 Y25.5099
G01 X10.2146 Y25.5062
G01 X10.1611 Y25.4872
G01 X10.1384 Y25.4785
G01 X10.1162 Y25.4687
G01 X10.0650 Y25.4443
G01 X10.0542 Y25.4387
G01 X10.0331 Y25.4267
G01 X9.9949 Y25.4038
G01 X9.9744 Y25.3908
G01 X9.9545 Y25.3768
G01 X9.9187 Y25.3503
G01 X9.8995 Y25.3353
G01 X9.8903 Y25.3275
G01 X9.8481 Y25.2895
G01 X9.8349 Y25.2770
G01 X9.2085 Y24.6508
G01 X8.9313 Y24.6508
G01 X8.8931 Y24.7316
G01 X8.8877 Y24.7426
G01 X8.8763 Y24.7640
G01 X8.7933 Y24.9028
G01 X8.7803 Y24.9233
G01 X8.7734 Y24.9333
G01 X8.6772 Y25.0633
G01 X8.6623 Y25.0824
G01 X8.6464 Y25.1008
G01 X8.5377 Y25.2205
G01 X8.5205 Y25.2377
G01 X8.5116 Y25.2460
G01 X8.4008 Y25.3464
G01 X8.3824 Y25.3623
G01 X8.3633 Y25.3772
G01 X8.2431 Y25.4663
G01 X8.2233 Y25.4803
G01 X8.2028 Y25.4933
G01 X8.0745 Y25.5702
G01 X8.0533 Y25.5821
G01 X8.0426 Y25.5877
G01 X7.8964 Y25.6570
G01 X7.8742 Y25.6668
G01 X7.8516 Y25.6756
G01 X7.7108 Y25.7260
G01 X7.6877 Y25.7336
G01 X7.6643 Y25.7401
G01 X7.5192 Y25.7764
G01 X7.4955 Y25.7817
G01 X7.4716 Y25.7859
G01 X7.3236 Y25.8078
G01 X7.2995 Y25.8108
G01 X7.2753 Y25.8126
G01 X7.1259 Y25.8199
G01 X7.1017 Y25.8205
G01 X7.0774 Y25.8199
G01 X6.9280 Y25.8126
G01 X6.9038 Y25.8108
G01 X6.8797 Y25.8078
G01 X6.7317 Y25.7859
G01 X6.7078 Y25.7817
G01 X6.6841 Y25.7764
G01 X6.5390 Y25.7401
G01 X6.5156 Y25.7336
G01 X6.4925 Y25.7260
G01 X6.3517 Y25.6756
G01 X6.3291 Y25.6668
G01 X6.3069 Y25.6570
G01 X6.1717 Y25.5931
G01 X6.1500 Y25.5821
G01 X6.1288 Y25.5702
G01 X6.0005 Y25.4933
G01 X5.9800 Y25.4803
G01 X5.9602 Y25.4663
G01 X5.8304 Y25.3699
G01 X5.8116 Y25.3544
G01 X5.8025 Y25.3464
G01 X5.6917 Y25.2460
G01 X5.6741 Y25.2292
G01 X5.6573 Y25.2116
G01 X5.5569 Y25.1008
G01 X5.5410 Y25.0824
G01 X5.5261 Y25.0633
G01 X5.4299 Y24.9333
G01 X5.4230 Y24.9233
G01 X5.4100 Y24.9028
G01 X5.3331 Y24.7745
G01 X5.3212 Y24.7533
G01 X5.3156 Y24.7426
G01 X5.2463 Y24.5964
G01 X5.2365 Y24.5742
G01 X5.2277 Y24.5516
G01 X5.1916 Y24.4508
G01 X4.1956 Y24.4507
G01 X4.1774 Y24.4502
G01 X4.1207 Y24.4472
G01 X4.1086 Y24.4462
G01 X4.0845 Y24.4432
G01 X4.0404 Y24.4367
G01 X4.0165 Y24.4325
G01 X3.9928 Y24.4272
G01 X3.9378 Y24.4133
G01 X3.9146 Y24.4062
G01 X3.9031 Y24.4023
G01 X3.8497 Y24.3830
G01 X3.8273 Y24.3737
G01 X3.7759 Y24.3496
G01 X3.7542 Y24.3387
G01 X3.7331 Y24.3267
G01 X3.6845 Y24.2974
G01 X3.6643 Y24.2839
G01 X3.6187 Y24.2503
G01 X3.5995 Y24.2353
G01 X3.5903 Y24.2275
G01 X3.5481 Y24.1895
G01 X3.5305 Y24.1728
G01 X3.0263 Y23.6684
G01 X2.9839 Y23.6221
G01 X2.9680 Y23.6038
G01 X2.9530 Y23.5846
G01 X2.9194 Y23.5390
G01 X2.9059 Y23.5188
G01 X2.8766 Y23.4702
G01 X2.8646 Y23.4491
G01 X2.8590 Y23.4383
G01 X2.8346 Y23.3871
G01 X2.8248 Y23.3649
G01 X2.8161 Y23.3422
G01 X2.8010 Y23.3002
G01 X2.7971 Y23.2887
G01 X2.7900 Y23.2655
G01 X2.7761 Y23.2105
G01 X2.7708 Y23.1868
G01 X2.7666 Y23.1629
G01 X2.7585 Y23.1068
G01 X2.7561 Y23.0826
G01 X2.7553 Y23.0705
G01 X2.7529 Y23.0199
G01 X2.7526 Y23.0017
G01 X2.7526 Y9.9956
G01 X2.7553 Y9.9328
G01 X2.7561 Y9.9207
G01 X2.7585 Y9.8965
G01 X2.7686 Y9.8284
G01 X2.7733 Y9.8046
G01 X2.7761 Y9.7928
G01 X2.7900 Y9.7378
G01 X2.7971 Y9.7146
G01 X2.8010 Y9.7031
G01 X2.8161 Y9.6611
G01 X2.8248 Y9.6384
G01 X2.8346 Y9.6162
G01 X2.8537 Y9.5759
G01 X2.8646 Y9.5542
G01 X2.8766 Y9.5331
G01 X2.9059 Y9.4845
G01 X2.9194 Y9.4643
G01 X2.9530 Y9.4187
G01 X2.9680 Y9.3996
G01 X2.9839 Y9.3812
G01 X3.0220 Y9.3392
G01 X3.8305 Y8.5305
G01 X3.8481 Y8.5138
G01 X3.8903 Y8.4758
G01 X3.9090 Y8.4604
G01 X3.9545 Y8.4265
G01 X3.9744 Y8.4125
G01 X3.9949 Y8.3995
G01 X4.0331 Y8.3766
G01 X4.0542 Y8.3646
G01 X4.0759 Y8.3537
G01 X4.1162 Y8.3346
G01 X4.1384 Y8.3248
G01 X4.1611 Y8.3161
G01 X4.2031 Y8.3010
G01 X4.2261 Y8.2934
G01 X4.2496 Y8.2869
G01 X4.2928 Y8.2761
G01 X4.3165 Y8.2708
G01 X4.3404 Y8.2666
G01 X4.3966 Y8.2585
G01 X4.4207 Y8.2561
G01 X4.4774 Y8.2531
G01 X4.5017 Y8.2526
G01 X20.7085 Y8.2526
G01 X20.7170 Y8.2441
G01 X20.7117 Y8.2402
G01 X20.6757 Y8.2076
G01 X20.6431 Y8.1716
G01 X20.6142 Y8.1326
G01 X20.5892 Y8.0909
G01 X20.5684 Y8.0470
G01 X20.5521 Y8.0013
G01 X20.5403 Y7.9542
G01 X20.5332 Y7.9062
G01 X20.5314 Y7.8819
G01 X20.5309 Y7.8698
G01 X20.5309 Y5.8135
G01 X20.5314 Y5.8014
G01 X20.5332 Y5.7771
G01 X20.5403 Y5.7291
G01 X20.5521 Y5.6820
G01 X20.5684 Y5.6363
G01 X20.5892 Y5.5924
G01 X20.6016 Y5.5717
G01 X20.5892 Y5.5509
G01 X20.5684 Y5.5070
G01 X20.5521 Y5.4613
G01 X20.5403 Y5.4142
G01 X20.5332 Y5.3662
G01 X20.5314 Y5.3419
G01 X20.5309 Y5.3298
G01 X20.5308 Y3.2857
G01 X20.5314 Y3.2614
G01 X20.5332 Y3.2371
G01 X20.5403 Y3.1891
G01 X20.5521 Y3.1420
G01 X20.5684 Y3.0963
G01 X20.5892 Y3.0524
G01 X20.6142 Y3.0107
G01 X20.6431 Y2.9717
G01 X20.6757 Y2.9357
G01 X20.7117 Y2.9031
G01 X20.7507 Y2.8742
G01 X20.7924 Y2.8492
G01 X20.8363 Y2.8284
G01 X20.8820 Y2.8121
G01 X20.9291 Y2.8003
G01 X20.9771 Y2.7932
G01 X21.0014 Y2.7914
G01 X21.0257 Y2.7908
G01 X23.0698 Y2.7909
G01 X23.0819 Y2.7914
G01 X23.1062 Y2.7932
G01 X23.1542 Y2.8003
G01 X23.2013 Y2.8121
G01 X23.2470 Y2.8284
G01 X23.2909 Y2.8492
G01 X23.3117 Y2.8616
G01 X23.3324 Y2.8492
G01 X23.3763 Y2.8284
G01 X23.4220 Y2.8121
G01 X23.4691 Y2.8003
G01 X23.5171 Y2.7932
G01 X23.5414 Y2.7914
G01 X23.5657 Y2.7908
G01 X25.6098 Y2.7909
G01 X25.6219 Y2.7914
G01 X25.6462 Y2.7932
G01 X25.6942 Y2.8003
G01 X25.7413 Y2.8121
G01 X25.7870 Y2.8284
G01 X25.8309 Y2.8492
G01 X25.8517 Y2.8616
G01 X25.8724 Y2.8492
G01 X25.9163 Y2.8284
G01 X25.9620 Y2.8121
G01 X26.0091 Y2.8003
G01 X26.0571 Y2.7932
G01 X26.0814 Y2.7914
G01 X26.1057 Y2.7908
G01 X28.1498 Y2.7909
G01 X28.1619 Y2.7914
G01 X28.1862 Y2.7932
G01 X28.2342 Y2.8003
G01 X28.2813 Y2.8121
G01 X28.3270 Y2.8284
G01 X28.3709 Y2.8492
G01 X28.3917 Y2.8616
G01 X28.4124 Y2.8492
G01 X28.4563 Y2.8284
G01 X28.5020 Y2.8121
G01 X28.5491 Y2.8003
G01 X28.5971 Y2.7932
G01 X28.6214 Y2.7914
G01 X28.6457 Y2.7908
G01 X30.6898 Y2.7909
G01 X30.7019 Y2.7914
G01 X30.7262 Y2.7932
G01 X30.7742 Y2.8003
G01 X30.8213 Y2.8121
G01 X30.8670 Y2.8284
G01 X30.9109 Y2.8492
G01 X30.9317 Y2.8616
G01 X30.9524 Y2.8492
G01 X30.9963 Y2.8284
G01 X31.0420 Y2.8121
G01 X31.0891 Y2.8003
G01 X31.1371 Y2.7932
G01 X31.1614 Y2.7914
G01 X31.1735 Y2.7909
G01 X33.2177 Y2.7908
G01 X33.2419 Y2.7914
G01 X33.2662 Y2.7932
G01 X33.3142 Y2.8003
G01 X33.3613 Y2.8121
G01 X33.4070 Y2.8284
G01 X33.4509 Y2.8492
G01 X33.4926 Y2.8742
G01 X33.5316 Y2.9031
G01 X33.5676 Y2.9357
G01 X33.6002 Y2.9717
G01 X33.6291 Y3.0107
G01 X33.6541 Y3.0524
G01 X33.6749 Y3.0963
G01 X33.6912 Y3.1420
G01 X33.7030 Y3.1891
G01 X33.7101 Y3.2371
G01 X33.7119 Y3.2614
G01 X33.7125 Y3.2857
G01 X33.7124 Y5.3298
G01 X33.7119 Y5.3419
G01 X33.7101 Y5.3662
G01 X33.7030 Y5.4142
G01 X33.6912 Y5.4613
G01 X33.6749 Y5.5070
G01 X33.6541 Y5.5509
G01 X33.6417 Y5.5717
G01 X33.6541 Y5.5924
G01 X33.6749 Y5.6363
G01 X33.6912 Y5.6820
G01 X33.7030 Y5.7291
G01 X33.7101 Y5.7771
G01 X33.7119 Y5.8014
G01 X33.7125 Y5.8257
G01 X33.7125 Y5.8926
G01 X36.1417 Y5.8926
G01 X36.1599 Y5.8929
G01 X36.2105 Y5.8953
G01 X36.2347 Y5.8971
G01 X36.2588 Y5.9001
G01 X36.3029 Y5.9066
G01 X36.3149 Y5.9086
G01 X36.3387 Y5.9133
G01 X36.4055 Y5.9300
G01 X36.4287 Y5.9371
G01 X36.4402 Y5.9410
G01 X36.4822 Y5.9561
G01 X36.5049 Y5.9648
G01 X36.5271 Y5.9746
G01 X36.5674 Y5.9937
G01 X36.5890 Y6.0046
G01 X36.5997 Y6.0105
G01 X36.6484 Y6.0395
G01 X36.6689 Y6.0525
G01 X36.6888 Y6.0665
G01 X36.7246 Y6.0930
G01 X36.7438 Y6.1080
G01 X36.7530 Y6.1158
G01 X36.7952 Y6.1538
G01 X36.8084 Y6.1663
G01 X39.6770 Y9.0349
G01 X39.7195 Y9.0812
G01 X39.7275 Y9.0903
G01 X39.7429 Y9.1090
G01 X39.7839 Y9.1643
G01 X39.7974 Y9.1845
G01 X39.8038 Y9.1949
G01 X39.8267 Y9.2331
G01 X39.8387 Y9.2542
G01 X39.8496 Y9.2759
G01 X39.8687 Y9.3162
G01 X39.8785 Y9.3384
G01 X39.8830 Y9.3497
G01 X39.9062 Y9.4146
G01 X39.9133 Y9.4378
G01 X39.9272 Y9.4928
G01 X39.9325 Y9.5165
G01 X39.9367 Y9.5404
G01 X39.9432 Y9.5845
G01 X39.9462 Y9.6086
G01 X39.9480 Y9.6328
G01 X39.9504 Y9.6834
G01 X39.9508 Y9.7017
G01 X39.9508 Y22.9017
G01 X39.9504 Y22.9199
G01 X39.9480 Y22.9705
G01 X39.9462 Y22.9947
G01 X39.9432 Y23.0188
G01 X39.9367 Y23.0629
G01 X39.9325 Y23.0868
G01 X39.9272 Y23.1105
G01 X39.9133 Y23.1655
G01 X39.9062 Y23.1887
G01 X39.8830 Y23.2536
G01 X39.8737 Y23.2760
G01 X39.8443 Y23.3383
G01 X39.8328 Y23.3597
G01 X39.8267 Y23.3702
G01 X39.8038 Y23.4084
G01 X39.7908 Y23.4289
G01 X39.7768 Y23.4488
G01 X39.7503 Y23.4846
G01 X39.7353 Y23.5038
G01 X39.7275 Y23.5130
G01 X39.6854 Y23.5597
G01 X39.6728 Y23.5728
G01 X37.9684 Y25.2770
G01 X37.9221 Y25.3195
G01 X37.9038 Y25.3353
G01 X37.8846 Y25.3503
G01 X37.8488 Y25.3768
G01 X37.8289 Y25.3908
G01 X37.8188 Y25.3974
G01 X37.7702 Y25.4267
G01 X37.7490 Y25.4387
G01 X37.7274 Y25.4496
G01 X37.6760 Y25.4737
G01 X37.6649 Y25.4785
G01 X37.6422 Y25.4872
G01 X37.6002 Y25.5023
G01 X37.5772 Y25.5099
G01 X37.5538 Y25.5164
G01 X37.5105 Y25.5272
G01 X37.4868 Y25.5325
G01 X37.4749 Y25.5347
G01 X37.4068 Y25.5448
G01 X37.3826 Y25.5472
G01 X37.3705 Y25.5480
G01 X37.3077 Y25.5507
G01 X35.2886 Y25.5508
G01 X35.2757 Y25.5720
G01 X35.2622 Y25.5922
G01 X35.1809 Y25.7021
G01 X35.1659 Y25.7213
G01 X35.1501 Y25.7397
G01 X35.0664 Y25.8320
G01 X35.0496 Y25.8496
G01 X35.0320 Y25.8664
G01 X34.9397 Y25.9501
G01 X34.9213 Y25.9659
G01 X34.9021 Y25.9809
G01 X34.8020 Y26.0551
G01 X34.7822 Y26.0691
G01 X34.7616 Y26.0821
G01 X34.6547 Y26.1462
G01 X34.6442 Y26.1523
G01 X34.6228 Y26.1637
G01 X34.4992 Y26.2223
G01 X34.4770 Y26.2322
G01 X34.4544 Y26.2409
G01 X34.3370 Y26.2829
G01 X34.3140 Y26.2905
G01 X34.2906 Y26.2970
G01 X34.1697 Y26.3273
G01 X34.1460 Y26.3326
G01 X34.1220 Y26.3368
G01 X33.9987 Y26.3551
G01 X33.9746 Y26.3580
G01 X33.9504 Y26.3598
G01 X33.8259 Y26.3659
G01 X33.8017 Y26.3665
G01 X33.7774 Y26.3659
G01 X33.6408 Y26.3591
G01 X33.6287 Y26.3580
G01 X33.6046 Y26.3551
G01 X33.4813 Y26.3368
G01 X33.4573 Y26.3326
G01 X33.4336 Y26.3273
G01 X33.3127 Y26.2970
G01 X33.2893 Y26.2905
G01 X33.2663 Y26.2829
G01 X33.1489 Y26.2409
G01 X33.1263 Y26.2322
G01 X33.1041 Y26.2223
G01 X32.9914 Y26.1691
G01 X32.9697 Y26.1581
G01 X32.9486 Y26.1462
G01 X32.8417 Y26.0821
G01 X32.8211 Y26.0691
G01 X32.8013 Y26.0551
G01 X32.7012 Y25.9809
G01 X32.6820 Y25.9659
G01 X32.6636 Y25.9501
G01 X32.5713 Y25.8664
G01 X32.5537 Y25.8496
G01 X32.5369 Y25.8320
G01 X32.4533 Y25.7397
G01 X32.4374 Y25.7213
G01 X32.4224 Y25.7021
G01 X32.3482 Y25.6020
G01 X32.3342 Y25.5822
G01 X32.3212 Y25.5616
G01 X32.2571 Y25.4547
G01 X32.2452 Y25.4336
G01 X32.2343 Y25.4119
G01 X32.1810 Y25.2992
G01 X32.1711 Y25.2770
G01 X32.1624 Y25.2544
G01 X32.1204 Y25.1370
G01 X32.1164 Y25.1255
G01 X32.1094 Y25.1023
G01 X32.0760 Y24.9697
G01 X32.0707 Y24.9460
G01 X32.0665 Y24.9220
G01 X32.0482 Y24.7987
G01 X32.0453 Y24.7746
G01 X32.0435 Y24.7504
G01 X32.0374 Y24.6259
G01 X32.0368 Y24.6017
G01 X32.0374 Y24.5774
G01 X32.0435 Y24.4529
G01 X32.0453 Y24.4287
G01 X32.0482 Y24.4046
G01 X32.0665 Y24.2813
G01 X32.0707 Y24.2573
G01 X32.0760 Y24.2336
G01 X32.1063 Y24.1127
G01 X32.1128 Y24.0893
G01 X32.1204 Y24.0663
G01 X32.1624 Y23.9489
G01 X32.1711 Y23.9263
G01 X32.1810 Y23.9041
G01 X32.2343 Y23.7914
G01 X32.2396 Y23.7805
G01 X32.2510 Y23.7591
G01 X32.3212 Y23.6417
G01 X32.3342 Y23.6211
G01 X32.3482 Y23.6013
G01 X32.4224 Y23.5012
G01 X32.4374 Y23.4820
G01 X32.4452 Y23.4727
G01 X32.5369 Y23.3713
G01 X32.5537 Y23.3537
G01 X32.5713 Y23.3369
G01 X32.6636 Y23.2533
G01 X32.6820 Y23.2374
G01 X32.7012 Y23.2224
G01 X32.8013 Y23.1482
G01 X32.8211 Y23.1342
G01 X32.8417 Y23.1212
G01 X32.9486 Y23.0571
G01 X32.9697 Y23.0452
G01 X32.9914 Y23.0343
G01 X33.1151 Y22.9759
G01 X33.1263 Y22.9711
G01 X33.1489 Y22.9624
G01 X33.2663 Y22.9204
G01 X33.2893 Y22.9128
G01 X33.3127 Y22.9063
G01 X33.4336 Y22.8760
G01 X33.4573 Y22.8707
G01 X33.4813 Y22.8665
G01 X33.6046 Y22.8482
G01 X33.6287 Y22.8453
G01 X33.6529 Y22.8435
G01 X33.7774 Y22.8374
G01 X33.8017 Y22.8368
G01 X33.8259 Y22.8374
G01 X33.9504 Y22.8435
G01 X33.9746 Y22.8453
G01 X33.9987 Y22.8482
G01 X34.1340 Y22.8685
G01 X34.1460 Y22.8707
G01 X34.1697 Y22.8760
G01 X34.2906 Y22.9063
G01 X34.3140 Y22.9128
G01 X34.3370 Y22.9204
G01 X34.4544 Y22.9624
G01 X34.4770 Y22.9711
G01 X34.4992 Y22.9810
G01 X34.6119 Y23.0343
G01 X34.6336 Y23.0452
G01 X34.6547 Y23.0571
G01 X34.7616 Y23.1212
G01 X34.7822 Y23.1342
G01 X34.8020 Y23.1482
G01 X34.9021 Y23.2224
G01 X34.9213 Y23.2374
G01 X34.9397 Y23.2533
G01 X35.0320 Y23.3369
G01 X35.0496 Y23.3537
G01 X35.0664 Y23.3713
G01 X35.1501 Y23.4636
G01 X35.1581 Y23.4727
G01 X35.1735 Y23.4915
G01 X35.2622 Y23.6111
G01 X35.2757 Y23.6313
G01 X35.2886 Y23.6526
G01 X36.9085 Y23.6526
G01 X38.0526 Y22.5085
G01 X38.0526 Y10.0948
G01 X35.7485 Y7.7908
G01 X33.7125 Y7.7908
G01 X33.7124 Y7.8698
G01 X33.7119 Y7.8819
G01 X33.7101 Y7.9062
G01 X33.7030 Y7.9542
G01 X33.6912 Y8.0013
G01 X33.6749 Y8.0470
G01 X33.6541 Y8.0909
G01 X33.6291 Y8.1326
G01 X33.6002 Y8.1716
G01 X33.5676 Y8.2076
G01 X33.5316 Y8.2402
G01 X33.4926 Y8.2691
G01 X33.4509 Y8.2941
G01 X33.4070 Y8.3149
G01 X33.3613 Y8.3312
G01 X33.3142 Y8.3430
G01 X33.2662 Y8.3501
G01 X33.2419 Y8.3519
G01 X33.2177 Y8.3525
G01 X31.1735 Y8.3524
G01 X31.1614 Y8.3519
G01 X31.1371 Y8.3501
G01 X31.0891 Y8.3430
G01 X31.0420 Y8.3312
G01 X30.9963 Y8.3149
G01 X30.9524 Y8.2941
G01 X30.9317 Y8.2817
G01 X30.9109 Y8.2941
G01 X30.8670 Y8.3149
G01 X30.8213 Y8.3312
G01 X30.7742 Y8.3430
G01 X30.7262 Y8.3501
G01 X30.7019 Y8.3519
G01 X30.6777 Y8.3525
G01 X30.6108 Y8.3525
G01 X30.6108 Y11.6526
G01 X32.3147 Y11.6526
G01 X32.3276 Y11.6313
G01 X32.3411 Y11.6111
G01 X32.4224 Y11.5012
G01 X32.4374 Y11.4820
G01 X32.4533 Y11.4636
G01 X32.5369 Y11.3713
G01 X32.5537 Y11.3537
G01 X32.5713 Y11.3369
G01 X32.6636 Y11.2533
G01 X32.6820 Y11.2374
G01 X32.7012 Y11.2224
G01 X32.8013 Y11.1482
G01 X32.8211 Y11.1342
G01 X32.8417 Y11.1212
G01 X32.9486 Y11.0571
G01 X32.9697 Y11.0452
G01 X32.9914 Y11.0343
G01 X33.1041 Y10.9810
G01 X33.1263 Y10.9711
G01 X33.1489 Y10.9624
G01 X33.2663 Y10.9204
G01 X33.2893 Y10.9128
G01 X33.3127 Y10.9063
G01 X33.4336 Y10.8760
G01 X33.4573 Y10.8707
G01 X33.4813 Y10.8665
G01 X33.6046 Y10.8482
G01 X33.6287 Y10.8453
G01 X33.6529 Y10.8435
G01 X33.7774 Y10.8374
G01 X33.8017 Y10.8368
G01 X33.8138 Y10.8369
G01 X33.9504 Y10.8435
G01 X33.9746 Y10.8453
G01 X33.9987 Y10.8482
G01 X34.1220 Y10.8665
G01 X34.1460 Y10.8707
G01 X34.1697 Y10.8760
G01 X34.2906 Y10.9063
G01 X34.3140 Y10.9128
G01 X34.3370 Y10.9204
G01 X34.4544 Y10.9624
G01 X34.4770 Y10.9711
G01 X34.4992 Y10.9810
G01 X34.6119 Y11.0343
G01 X34.6336 Y11.0452
G01 X34.6547 Y11.0571
G01 X34.7616 Y11.1212
G01 X34.7822 Y11.1342
G01 X34.8020 Y11.1482
G01 X34.9021 Y11.2224
G01 X34.9213 Y11.2374
G01 X34.9397 Y11.2533
G01 X35.0320 Y11.3369
G01 X35.0496 Y11.3537
G01 X35.0664 Y11.3713
G01 X35.1501 Y11.4636
G01 X35.1659 Y11.4820
G01 X35.1809 Y11.5012
G01 X35.2551 Y11.6013
G01 X35.2691 Y11.6211
G01 X35.2821 Y11.6417
G01 X35.3523 Y11.7591
G01 X35.3581 Y11.7697
G01 X35.3691 Y11.7914
G01 X35.4223 Y11.9041
G01 X35.4322 Y11.9263
G01 X35.4409 Y11.9489
G01 X35.4829 Y12.0663
G01 X35.4905 Y12.0893
G01 X35.4970 Y12.1127
G01 X35.5273 Y12.2336
G01 X35.5326 Y12.2573
G01 X35.5368 Y12.2813
G01 X35.5551 Y12.4046
G01 X35.5580 Y12.4287
G01 X35.5598 Y12.4529
G01 X35.5659 Y12.5774
G01 X35.5665 Y12.6017
G01 X35.5659 Y12.6259
G01 X35.5598 Y12.7504
G01 X35.5580 Y12.7747
G01 X35.5551 Y12.7987
G01 X35.5368 Y12.9220
G01 X35.5326 Y12.9460
G01 X35.5273 Y12.9697
G01 X35.4970 Y13.0906
G01 X35.4905 Y13.1140
G01 X35.4829 Y13.1370
G01 X35.4409 Y13.2544
G01 X35.4322 Y13.2770
G01 X35.4223 Y13.2992
G01 X35.3691 Y13.4119
G01 X35.3581 Y13.4336
G01 X35.3462 Y13.4547
G01 X35.2821 Y13.5616
G01 X35.2691 Y13.5822
G01 X35.2551 Y13.6020
G01 X35.1809 Y13.7021
G01 X35.1659 Y13.7213
G01 X35.1501 Y13.7397
G01 X35.0664 Y13.8320
G01 X35.0496 Y13.8496
G01 X35.0320 Y13.8664
G01 X34.9397 Y13.9501
G01 X34.9213 Y13.9659
G01 X34.9021 Y13.9809
G01 X34.8020 Y14.0551
G01 X34.7822 Y14.0691
G01 X34.7616 Y14.0821
G01 X34.6547 Y14.1462
G01 X34.6336 Y14.1581
G01 X34.6119 Y14.1691
G01 X34.4992 Y14.2223
G01 X34.4770 Y14.2322
G01 X34.4544 Y14.2409
G01 X34.3370 Y14.2829
G01 X34.3140 Y14.2905
G01 X34.2906 Y14.2970
G01 X34.1697 Y14.3273
G01 X34.1460 Y14.3326
G01 X34.1220 Y14.3368
G01 X33.9987 Y14.3551
G01 X33.9867 Y14.3567
G01 X33.9625 Y14.3591
G01 X33.8259 Y14.3659
G01 X33.8017 Y14.3665
G01 X33.7774 Y14.3659
G01 X33.6529 Y14.3598
G01 X33.6287 Y14.3580
G01 X33.6046 Y14.3551
G01 X33.4813 Y14.3368
G01 X33.4573 Y14.3326
G01 X33.4336 Y14.3273
G01 X33.3127 Y14.2970
G01 X33.2893 Y14.2905
G01 X33.2663 Y14.2829
G01 X33.1489 Y14.2409
G01 X33.1263 Y14.2322
G01 X33.1041 Y14.2223
G01 X32.9805 Y14.1637
G01 X32.9591 Y14.1523
G01 X32.9486 Y14.1462
G01 X32.8417 Y14.0821
G01 X32.8211 Y14.0691
G01 X32.8013 Y14.0551
G01 X32.7012 Y13.9809
G01 X32.6820 Y13.9659
G01 X32.6636 Y13.9501
G01 X32.5713 Y13.8664
G01 X32.5537 Y13.8496
G01 X32.5369 Y13.8320
G01 X32.4533 Y13.7397
G01 X32.4374 Y13.7213
G01 X32.4224 Y13.7021
G01 X32.3411 Y13.5922
G01 X32.3276 Y13.5720
G01 X32.3147 Y13.5508
G01 X30.1895 Y13.5506
G01 X30.1328 Y13.5480
G01 X30.1086 Y13.5462
G01 X30.0845 Y13.5432
G01 X30.0284 Y13.5347
G01 X30.0046 Y13.5300
G01 X29.9496 Y13.5164
G01 X29.9261 Y13.5099
G01 X29.9146 Y13.5062
G01 X29.8611 Y13.4872
G01 X29.8384 Y13.4785
G01 X29.8162 Y13.4687
G01 X29.7759 Y13.4496
G01 X29.7542 Y13.4387
G01 X29.7331 Y13.4267
G01 X29.6949 Y13.4038
G01 X29.6744 Y13.3908
G01 X29.6545 Y13.3768
G01 X29.6187 Y13.3503
G01 X29.5995 Y13.3353
G01 X29.5812 Y13.3195
G01 X29.5437 Y13.2854
G01 X29.5305 Y13.2728
G01 X28.9863 Y12.7284
G01 X28.9439 Y12.6821
G01 X28.9280 Y12.6638
G01 X28.9130 Y12.6446
G01 X28.8865 Y12.6088
G01 X28.8725 Y12.5889
G01 X28.8595 Y12.5684
G01 X28.8366 Y12.5302
G01 X28.8246 Y12.5091
G01 X28.8137 Y12.4874
G01 X28.7946 Y12.4471
G01 X28.7848 Y12.4249
G01 X28.7803 Y12.4136
G01 X28.7610 Y12.3602
G01 X28.7534 Y12.3372
G01 X28.7469 Y12.3138
G01 X28.7333 Y12.2587
G01 X28.7286 Y12.2349
G01 X28.7185 Y12.1668
G01 X28.7161 Y12.1426
G01 X28.7131 Y12.0859
G01 X28.7126 Y12.0617
G01 X28.7126 Y8.3525
G01 X28.6457 Y8.3525
G01 X28.6214 Y8.3519
G01 X28.5971 Y8.3501
G01 X28.5491 Y8.3430
G01 X28.5020 Y8.3312
G01 X28.4563 Y8.3149
G01 X28.4124 Y8.2941
G01 X28.3917 Y8.2817
G01 X28.3709 Y8.2941
G01 X28.3270 Y8.3149
G01 X28.2813 Y8.3312
G01 X28.2342 Y8.3430
G01 X28.1862 Y8.3501
G01 X28.1619 Y8.3519
G01 X28.1377 Y8.3525
G01 X28.0708 Y8.3525
G01 X28.0708 Y17.6526
G01 X34.3147 Y17.6526
G01 X34.3276 Y17.6313
G01 X34.3342 Y17.6211
G01 X34.3482 Y17.6013
G01 X34.4298 Y17.4915
G01 X34.4452 Y17.4727
G01 X34.4533 Y17.4636
G01 X34.5369 Y17.3713
G01 X34.5537 Y17.3537
G01 X34.5713 Y17.3369
G01 X34.6636 Y17.2533
G01 X34.6820 Y17.2374
G01 X34.7012 Y17.2224
G01 X34.8013 Y17.1482
G01 X34.8211 Y17.1342
G01 X34.8417 Y17.1212
G01 X34.9486 Y17.0571
G01 X34.9697 Y17.0452
G01 X34.9805 Y17.0396
G01 X35.1041 Y16.9810
G01 X35.1263 Y16.9711
G01 X35.1489 Y16.9624
G01 X35.2663 Y16.9204
G01 X35.2893 Y16.9128
G01 X35.3127 Y16.9063
G01 X35.4336 Y16.8760
G01 X35.4573 Y16.8707
G01 X35.4813 Y16.8665
G01 X35.6046 Y16.8482
G01 X35.6287 Y16.8453
G01 X35.6529 Y16.8435
G01 X35.7774 Y16.8374
G01 X35.8017 Y16.8368
G01 X35.8259 Y16.8374
G01 X35.9625 Y16.8442
G01 X35.9746 Y16.8453
G01 X35.9987 Y16.8482
G01 X36.1220 Y16.8665
G01 X36.1460 Y16.8707
G01 X36.1697 Y16.8760
G01 X36.2906 Y16.9063
G01 X36.3140 Y16.9128
G01 X36.3255 Y16.9164
G01 X36.4544 Y16.9624
G01 X36.4770 Y16.9711
G01 X36.4992 Y16.9810
G01 X36.6119 Y17.0343
G01 X36.6336 Y17.0452
G01 X36.6547 Y17.0571
G01 X36.7616 Y17.1212
G01 X36.7822 Y17.1342
G01 X36.8020 Y17.1482
G01 X36.9021 Y17.2224
G01 X36.9213 Y17.2374
G01 X36.9306 Y17.2452
G01 X37.0320 Y17.3369
G01 X37.0496 Y17.3537
G01 X37.0664 Y17.3713
G01 X37.1501 Y17.4636
G01 X37.1659 Y17.4820
G01 X37.1809 Y17.5012
G01 X37.2551 Y17.6013
G01 X37.2691 Y17.6211
G01 X37.2821 Y17.6417
G01 X37.3462 Y17.7486
G01 X37.3581 Y17.7697
G01 X37.3691 Y17.7914
G01 X37.4223 Y17.9041
G01 X37.4322 Y17.9263
G01 X37.4409 Y17.9489
G01 X37.4869 Y18.0778
G01 X37.4905 Y18.0893
G01 X37.4970 Y18.1127
G01 X37.5273 Y18.2336
G01 X37.5326 Y18.2573
G01 X37.5368 Y18.2813
G01 X37.5551 Y18.4046
G01 X37.5580 Y18.4287
G01 X37.5598 Y18.4529
G01 X37.5659 Y18.5774
G01 X37.5665 Y18.6017
G01 X37.5659 Y18.6259
G01 X37.5598 Y18.7504
G01 X37.5591 Y18.7625
G01 X37.5567 Y18.7867
G01 X37.5368 Y18.9220
G01 X37.5326 Y18.9460
G01 X37.5273 Y18.9697
G01 X37.4970 Y19.0906
G01 X37.4905 Y19.1140
G01 X37.4829 Y19.1370
G01 X37.4409 Y19.2544
G01 X37.4322 Y19.2770
G01 X37.4223 Y19.2992
G01 X37.3691 Y19.4119
G01 X37.3581 Y19.4336
G01 X37.3462 Y19.4547
G01 X37.2821 Y19.5616
G01 X37.2757 Y19.5720
G01 X37.2622 Y19.5922
G01 X37.1809 Y19.7021
G01 X37.1659 Y19.7213
G01 X37.1501 Y19.7397
G01 X37.0664 Y19.8320
G01 X37.0496 Y19.8496
G01 X37.0320 Y19.8664
G01 X36.9397 Y19.9501
G01 X36.9213 Y19.9659
G01 X36.9021 Y19.9809
G01 X36.8020 Y20.0551
G01 X36.7822 Y20.0691
G01 X36.7616 Y20.0821
G01 X36.6547 Y20.1462
G01 X36.6442 Y20.1523
G01 X36.6228 Y20.1637
G01 X36.4992 Y20.2223
G01 X36.4770 Y20.2322
G01 X36.4544 Y20.2409
G01 X36.3370 Y20.2829
G01 X36.3140 Y20.2905
G01 X36.2906 Y20.2970
G01 X36.1697 Y20.3273
G01 X36.1578 Y20.3301
G01 X36.1340 Y20.3348
G01 X35.9987 Y20.3551
G01 X35.9746 Y20.3580
G01 X35.9504 Y20.3598
G01 X35.8259 Y20.3659
G01 X35.8017 Y20.3665
G01 X35.7774 Y20.3659
G01 X35.6529 Y20.3598
G01 X35.6287 Y20.3580
G01 X35.6046 Y20.3551
G01 X35.4813 Y20.3368
G01 X35.4573 Y20.3326
G01 X35.4336 Y20.3273
G01 X35.3127 Y20.2970
G01 X35.2893 Y20.2905
G01 X35.2663 Y20.2829
G01 X35.1489 Y20.2409
G01 X35.1263 Y20.2322
G01 X35.1151 Y20.2274
G01 X34.9914 Y20.1691
G01 X34.9697 Y20.1581
G01 X34.9486 Y20.1462
G01 X34.8417 Y20.0821
G01 X34.8211 Y20.0691
G01 X34.8013 Y20.0551
G01 X34.7012 Y19.9809
G01 X34.6820 Y19.9659
G01 X34.6727 Y19.9581
G01 X34.5713 Y19.8664
G01 X34.5537 Y19.8496
G01 X34.5369 Y19.8320
G01 X34.4452 Y19.7306
G01 X34.4374 Y19.7213
G01 X34.4224 Y19.7021
G01 X34.3482 Y19.6020
G01 X34.3342 Y19.5822
G01 X34.3276 Y19.5720
G01 X34.3147 Y19.5508
G01 X8.9313 Y19.5508
G01 X8.8931 Y19.6316
G01 X8.8877 Y19.6426
G01 X8.8763 Y19.6640
G01 X8.7869 Y19.8131
G01 X8.7803 Y19.8233
G01 X8.7663 Y19.8431
G01 X8.6772 Y19.9633
G01 X8.6623 Y19.9824
G01 X8.6544 Y19.9917
G01 X8.5460 Y20.1116
G01 X8.5292 Y20.1292
G01 X8.5116 Y20.1460
G01 X8.4008 Y20.2464
G01 X8.3824 Y20.2623
G01 X8.3633 Y20.2772
G01 X8.2431 Y20.3663
G01 X8.2233 Y20.3803
G01 X8.2131 Y20.3869
G01 X8.0745 Y20.4702
G01 X8.0533 Y20.4821
G01 X8.0316 Y20.4931
G01 X7.8964 Y20.5570
G01 X7.8742 Y20.5668
G01 X7.8516 Y20.5756
G01 X7.7108 Y20.6260
G01 X7.6877 Y20.6336
G01 X7.6643 Y20.6401
G01 X7.5192 Y20.6764
G01 X7.4955 Y20.6817
G01 X7.4716 Y20.6859
G01 X7.3236 Y20.7078
G01 X7.2995 Y20.7108
G01 X7.2753 Y20.7126
G01 X7.1259 Y20.7199
G01 X7.1138 Y20.7204
G01 X7.0895 Y20.7204
G01 X6.9280 Y20.7126
G01 X6.9038 Y20.7108
G01 X6.8797 Y20.7078
G01 X6.7317 Y20.6859
G01 X6.7078 Y20.6817
G01 X6.6841 Y20.6764
G01 X6.5390 Y20.6401
G01 X6.5156 Y20.6336
G01 X6.4925 Y20.6260
G01 X6.3517 Y20.5756
G01 X6.3291 Y20.5668
G01 X6.3069 Y20.5570
G01 X6.1717 Y20.4931
G01 X6.1500 Y20.4821
G01 X6.1288 Y20.4702
G01 X6.0005 Y20.3933
G01 X5.9800 Y20.3803
G01 X5.9602 Y20.3663
G01 X5.8400 Y20.2772
G01 X5.8209 Y20.2623
G01 X5.8025 Y20.2464
G01 X5.6917 Y20.1460
G01 X5.6741 Y20.1292
G01 X5.6573 Y20.1116
G01 X5.5569 Y20.0008
G01 X5.5410 Y19.9824
G01 X5.5261 Y19.9633
G01 X5.4370 Y19.8431
G01 X5.4230 Y19.8233
G01 X5.4100 Y19.8028
G01 X5.3331 Y19.6745
G01 X5.3212 Y19.6533
G01 X5.3102 Y19.6316
G01 X5.2463 Y19.4964
G01 X5.2365 Y19.4742
G01 X5.2277 Y19.4516
G01 X5.1773 Y19.3108
G01 X5.1697 Y19.2877
G01 X5.1632 Y19.2643
G01 X5.1269 Y19.1192
G01 X5.1216 Y19.0955
G01 X5.1174 Y19.0716
G01 X5.0955 Y18.9236
G01 X5.0925 Y18.8995
G01 X5.0907 Y18.8753
G01 X5.0834 Y18.7259
G01 X5.0828 Y18.7017
G01 X5.0834 Y18.6774
G01 X5.0907 Y18.5280
G01 X5.0925 Y18.5038
G01 X5.0955 Y18.4797
G01 X5.1174 Y18.3317
G01 X5.1216 Y18.3078
G01 X5.1269 Y18.2841
G01 X5.1632 Y18.1390
G01 X5.1697 Y18.1156
G01 X5.1773 Y18.0925
G01 X5.2277 Y17.9517
G01 X5.2365 Y17.9291
G01 X5.2463 Y17.9069
G01 X5.3102 Y17.7717
G01 X5.3212 Y17.7500
G01 X5.3331 Y17.7288
G01 X5.4100 Y17.6005
G01 X5.4230 Y17.5800
G01 X5.4370 Y17.5602
G01 X5.5261 Y17.4400
G01 X5.5410 Y17.4209
G01 X5.5569 Y17.4025
G01 X5.6573 Y17.2917
G01 X5.6741 Y17.2741
G01 X5.6917 Y17.2573
G01 X5.8025 Y17.1569
G01 X5.8209 Y17.1410
G01 X5.8400 Y17.1261
G01 X5.9602 Y17.0370
G01 X5.9800 Y17.0230
G01 X6.0005 Y17.0100
G01 X6.1288 Y16.9331
G01 X6.1500 Y16.9212
G01 X6.1717 Y16.9102
G01 X6.3069 Y16.8463
G01 X6.3291 Y16.8365
G01 X6.3517 Y16.8277
G01 X6.4925 Y16.7773
G01 X6.5156 Y16.7697
G01 X6.5390 Y16.7632
G01 X6.6841 Y16.7269
G01 X6.7078 Y16.7216
G01 X6.7317 Y16.7174
G01 X6.8797 Y16.6955
G01 X6.9038 Y16.6925
G01 X6.9280 Y16.6907
G01 X7.0774 Y16.6834
G01 X7.1017 Y16.6828
G01 X7.1259 Y16.6834
G01 X7.2753 Y16.6907
G01 X7.2995 Y16.6925
G01 X7.3236 Y16.6955
G01 X7.4716 Y16.7174
G01 X7.4955 Y16.7216
G01 X7.5192 Y16.7269
G01 X7.6643 Y16.7632
G01 X7.6877 Y16.7697
G01 X7.7108 Y16.7773
G01 X7.8516 Y16.8277
G01 X7.8742 Y16.8365
G01 X7.8964 Y16.8463
G01 X8.0426 Y16.9156
G01 X8.0640 Y16.9270
G01 X8.0745 Y16.9331
G01 X8.2028 Y17.0100
G01 X8.2233 Y17.0230
G01 X8.2431 Y17.0370
G01 X8.3633 Y17.1261
G01 X8.3824 Y17.1410
G01 X8.4008 Y17.1569
G01 X8.5205 Y17.2656
G01 X8.5292 Y17.2741
G01 X8.5460 Y17.2917
G01 X8.6464 Y17.4025
G01 X8.6544 Y17.4116
G01 X8.6699 Y17.4304
G01 X8.7734 Y17.5700
G01 X8.7869 Y17.5902
G01 X8.8244 Y17.6526
G01 X26.1726 Y17.6526
G01 X26.1726 Y8.3525
G01 X26.1057 Y8.3525
G01 X26.0814 Y8.3519
G01 X26.0571 Y8.3501
G01 X26.0091 Y8.3430
G01 X25.9620 Y8.3312
G01 X25.9163 Y8.3149
G01 X25.8724 Y8.2941
G01 X25.8517 Y8.2817
G01 X25.8309 Y8.2941
G01 X25.7870 Y8.3149
G01 X25.7413 Y8.3312
G01 X25.6942 Y8.3430
G01 X25.6462 Y8.3501
G01 X25.6219 Y8.3519
G01 X25.5977 Y8.3525
G01 X25.5308 Y8.3525
G01 X25.5308 Y11.9217
G01 X25.5302 Y11.9459
G01 X25.5280 Y11.9905
G01 X25.5262 Y12.0147
G01 X25.5232 Y12.0388
G01 X25.5147 Y12.0949
G01 X25.5100 Y12.1187
G01 X25.4964 Y12.1738
G01 X25.4899 Y12.1972
G01 X25.4823 Y12.2202
G01 X25.4672 Y12.2622
G01 X25.4585 Y12.2849
G01 X25.4487 Y12.3071
G01 X25.4296 Y12.3474
G01 X25.4187 Y12.3691
G01 X25.4067 Y12.3902
G01 X25.3838 Y12.4284
G01 X25.3708 Y12.4489
G01 X25.3568 Y12.4688
G01 X25.3303 Y12.5046
G01 X25.3153 Y12.5238
G01 X25.3075 Y12.5330
G01 X25.2695 Y12.5752
G01 X25.2570 Y12.5884
G01 X24.5641 Y13.2812
G01 X24.5221 Y13.3195
G01 X24.5038 Y13.3353
G01 X24.4846 Y13.3503
G01 X24.4390 Y13.3839
G01 X24.4188 Y13.3974
G01 X24.4084 Y13.4038
G01 X24.3597 Y13.4328
G01 X24.3383 Y13.4443
G01 X24.2760 Y13.4737
G01 X24.2536 Y13.4830
G01 X24.1887 Y13.5062
G01 X24.1655 Y13.5133
G01 X24.0987 Y13.5300
G01 X24.0749 Y13.5347
G01 X24.0068 Y13.5448
G01 X23.9826 Y13.5472
G01 X23.9259 Y13.5502
G01 X23.9017 Y13.5508
G01 X22.7886 Y13.5508
G01 X22.7757 Y13.5720
G01 X22.7622 Y13.5922
G01 X22.6735 Y13.7118
G01 X22.6581 Y13.7306
G01 X22.6501 Y13.7397
G01 X22.5581 Y13.8409
G01 X22.5409 Y13.8581
G01 X22.5320 Y13.8664
G01 X22.4397 Y13.9501
G01 X22.4213 Y13.9659
G01 X22.4021 Y13.9809
G01 X22.2922 Y14.0622
G01 X22.2720 Y14.0757
G01 X22.2616 Y14.0821
G01 X22.1547 Y14.1462
G01 X22.1336 Y14.1581
G01 X22.1119 Y14.1691
G01 X21.9992 Y14.2223
G01 X21.9770 Y14.2322
G01 X21.9544 Y14.2409
G01 X21.8370 Y14.2829
G01 X21.8140 Y14.2905
G01 X21.7906 Y14.2970
G01 X21.6697 Y14.3273
G01 X21.6460 Y14.3326
G01 X21.6220 Y14.3368
G01 X21.4867 Y14.3567
G01 X21.4625 Y14.3591
G01 X21.4504 Y14.3598
G01 X21.3259 Y14.3659
G01 X21.3017 Y14.3665
G01 X21.2774 Y14.3659
G01 X21.1529 Y14.3598
G01 X21.1287 Y14.3580
G01 X21.1046 Y14.3551
G01 X20.9813 Y14.3368
G01 X20.9573 Y14.3326
G01 X20.9336 Y14.3273
G01 X20.8127 Y14.2970
G01 X20.7893 Y14.2905
G01 X20.7663 Y14.2829
G01 X20.6489 Y14.2409
G01 X20.6263 Y14.2322
G01 X20.6041 Y14.2223
G01 X20.4914 Y14.1691
G01 X20.4697 Y14.1581
G01 X20.4486 Y14.1462
G01 X20.3417 Y14.0821
G01 X20.3211 Y14.0691
G01 X20.3013 Y14.0551
G01 X20.2012 Y13.9809
G01 X20.1820 Y13.9659
G01 X20.1636 Y13.9501
G01 X20.0713 Y13.8664
G01 X20.0537 Y13.8496
G01 X20.0369 Y13.8320
G01 X19.9533 Y13.7397
G01 X19.9452 Y13.7306
G01 X19.9298 Y13.7118
G01 X19.8482 Y13.6020
G01 X19.8342 Y13.5822
G01 X19.8276 Y13.5720
G01 X19.8147 Y13.5508
G01 X10.9948 Y13.5508
G01 X10.2728 Y14.2728
G01 X10.2597 Y14.2854
G01 X10.2221 Y14.3195
G01 X10.2038 Y14.3353
G01 X10.1846 Y14.3503
G01 X10.1488 Y14.3768
G01 X10.1289 Y14.3908
G01 X10.1188 Y14.3974
G01 X10.0702 Y14.4267
G01 X10.0491 Y14.4387
G01 X10.0274 Y14.4496
G01 X9.9871 Y14.4687
G01 X9.9649 Y14.4785
G01 X9.9422 Y14.4872
G01 X9.9002 Y14.5023
G01 X9.8772 Y14.5099
G01 X9.8538 Y14.5164
G01 X9.8105 Y14.5272
G01 X9.7868 Y14.5325
G01 X9.7629 Y14.5367
G01 X9.7188 Y14.5432
G01 X9.6947 Y14.5462
G01 X9.6705 Y14.5480
G01 X9.6199 Y14.5504
G01 X9.6017 Y14.5508
G01 X8.8835 Y14.5508
G01 X8.8702 Y14.5745
G01 X8.7933 Y14.7028
G01 X8.7803 Y14.7233
G01 X8.7663 Y14.7431
G01 X8.6772 Y14.8633
G01 X8.6623 Y14.8824
G01 X8.6464 Y14.9008
G01 X8.5460 Y15.0116
G01 X8.5292 Y15.0292
G01 X8.5116 Y15.0460
G01 X8.4008 Y15.1464
G01 X8.3824 Y15.1623
G01 X8.3633 Y15.1772
G01 X8.2431 Y15.2663
G01 X8.2233 Y15.2803
G01 X8.2028 Y15.2933
G01 X8.0745 Y15.3702
G01 X8.0533 Y15.3821
G01 X8.0316 Y15.3931
G01 X7.8964 Y15.4570
G01 X7.8742 Y15.4668
G01 X7.8516 Y15.4756
G01 X7.7108 Y15.5260
G01 X7.6877 Y15.5336
G01 X7.6643 Y15.5401
G01 X7.5192 Y15.5764
G01 X7.4955 Y15.5817
G01 X7.4716 Y15.5859
G01 X7.3236 Y15.6078
G01 X7.2995 Y15.6108
G01 X7.2753 Y15.6126
G01 X7.1138 Y15.6204
G01 X7.1017 Y15.6205
G01 X7.0774 Y15.6199
G01 X6.9280 Y15.6126
G01 X6.9038 Y15.6108
G01 X6.8797 Y15.6078
G01 X6.7317 Y15.5859
G01 X6.7078 Y15.5817
G01 X6.6841 Y15.5764
G01 X6.5390 Y15.5401
G01 X6.5156 Y15.5336
G01 X6.4925 Y15.5260
G01 X6.3517 Y15.4756
G01 X6.3291 Y15.4668
G01 X6.3069 Y15.4570
G01 X6.1717 Y15.3931
G01 X6.1500 Y15.3821
G01 X6.1288 Y15.3702
G01 X6.0005 Y15.2933
G01 X5.9800 Y15.2803
G01 X5.9602 Y15.2663
G01 X5.8400 Y15.1772
G01 X5.8209 Y15.1623
G01 X5.8025 Y15.1464
G01 X5.6917 Y15.0460
G01 X5.6741 Y15.0292
G01 X5.6573 Y15.0116
G01 X5.5569 Y14.9008
G01 X5.5410 Y14.8824
G01 X5.5261 Y14.8633
G01 X5.4370 Y14.7431
G01 X5.4230 Y14.7233
G01 X5.4100 Y14.7028
G01 X5.3331 Y14.5745
G01 X5.3212 Y14.5533
G01 X5.3102 Y14.5316
G01 X5.2463 Y14.3964
G01 X5.2365 Y14.3742
G01 X5.2277 Y14.3516
G01 X5.1773 Y14.2108
G01 X5.1697 Y14.1877
G01 X5.1632 Y14.1643
G01 X5.1269 Y14.0192
G01 X5.1216 Y13.9955
G01 X5.1174 Y13.9716
G01 X5.0955 Y13.8236
G01 X5.0925 Y13.7995
G01 X5.0907 Y13.7753
G01 X5.0834 Y13.6259
G01 X5.0828 Y13.6017
G01 X5.0834 Y13.5774
G01 X5.0907 Y13.4280
G01 X5.0925 Y13.4038
G01 X5.0955 Y13.3797
G01 X5.1174 Y13.2317
G01 X5.1216 Y13.2078
G01 X5.1269 Y13.1841
G01 X5.1632 Y13.0390
G01 X5.1697 Y13.0156
G01 X5.1773 Y12.9925
G01 X5.2277 Y12.8517
G01 X5.2365 Y12.8291
G01 X5.2463 Y12.8069
G01 X5.3102 Y12.6717
G01 X5.3212 Y12.6500
G01 X5.3331 Y12.6288
G01 X5.4100 Y12.5005
G01 X5.4230 Y12.4800
G01 X5.4370 Y12.4602
G01 X5.5261 Y12.3400
G01 X5.5410 Y12.3209
G01 X5.5569 Y12.3025
G01 X5.6573 Y12.1917
G01 X5.6741 Y12.1741
G01 X5.6917 Y12.1573
G01 X5.8025 Y12.0569
G01 X5.8209 Y12.0410
G01 X5.8400 Y12.0261
G01 X5.9602 Y11.9370
G01 X5.9800 Y11.9230
G01 X6.0005 Y11.9100
G01 X6.1288 Y11.8331
G01 X6.1500 Y11.8212
G01 X6.1717 Y11.8102
G01 X6.3069 Y11.7463
G01 X6.3291 Y11.7365
G01 X6.3517 Y11.7277
G01 X6.4925 Y11.6773
G01 X6.5156 Y11.6697
G01 X6.5390 Y11.6632
G01 X6.6841 Y11.6269
G01 X6.7078 Y11.6216
G01 X6.7317 Y11.6174
G01 X6.8797 Y11.5955
G01 X6.9038 Y11.5925
G01 X6.9280 Y11.5907
G01 X7.0774 Y11.5834
G01 X7.1017 Y11.5828
G01 X7.1259 Y11.5834
G01 X7.2753 Y11.5907
G01 X7.2995 Y11.5925
G01 X7.3236 Y11.5955
G01 X7.4716 Y11.6174
G01 X7.4955 Y11.6216
G01 X7.5192 Y11.6269
G01 X7.6643 Y11.6632
G01 X7.6877 Y11.6697
G01 X7.7108 Y11.6773
G01 X7.8516 Y11.7277
G01 X7.8742 Y11.7365
G01 X7.8964 Y11.7463
G01 X8.0316 Y11.8102
G01 X8.0533 Y11.8212
G01 X8.0745 Y11.8331
G01 X8.2028 Y11.9100
G01 X8.2233 Y11.9230
G01 X8.2431 Y11.9370
G01 X8.3633 Y12.0261
G01 X8.3824 Y12.0410
G01 X8.4008 Y12.0569
G01 X8.5116 Y12.1573
G01 X8.5292 Y12.1741
G01 X8.5460 Y12.1917
G01 X8.6464 Y12.3025
G01 X8.6623 Y12.3209
G01 X8.6772 Y12.3400
G01 X8.7663 Y12.4602
G01 X8.7803 Y12.4800
G01 X8.7933 Y12.5005
G01 X8.8702 Y12.6288
G01 X8.8835 Y12.6526
G00 Z0.5000
G00 X8.6259 Y14.1554
G01 F250.00
G01 Z-0.0300
G01 F2500.00
G01 X8.6006 Y14.2252
G01 X8.5346 Y14.3648
G01 X8.5310 Y14.3712
G01 X8.4529 Y14.5016
G01 X8.4487 Y14.5076
G01 X8.3566 Y14.6316
G01 X8.2513 Y14.7479
G01 X8.2461 Y14.7530
G01 X8.1316 Y14.8566
G01 X8.0036 Y14.9515
G01 X7.8670 Y15.0335
G01 X7.7252 Y15.1006
G01 X7.7184 Y15.1033
G01 X7.5729 Y15.1552
G01 X7.4184 Y15.1940
G01 X7.2608 Y15.2173
G01 X7.1017 Y15.2252
G01 X6.9425 Y15.2173
G01 X6.7849 Y15.1940
G01 X6.6304 Y15.1552
G01 X6.4826 Y15.1025
G01 X6.4759 Y15.0996
G01 X6.3363 Y15.0335
G01 X6.1997 Y14.9515
G01 X6.0717 Y14.8566
G01 X5.9537 Y14.7496
G01 X5.8467 Y14.6316
G01 X5.7518 Y14.5036
G01 X5.6699 Y14.3670
G01 X5.6017 Y14.2229
G01 X5.5481 Y14.0729
G01 X5.5093 Y13.9184
G01 X5.4860 Y13.7608
G01 X5.4782 Y13.6017
G01 X5.4860 Y13.4425
G01 X5.5093 Y13.2849
G01 X5.5481 Y13.1304
G01 X5.6008 Y12.9826
G01 X5.6037 Y12.9759
G01 X5.6677 Y12.8407
G01 X5.6723 Y12.8321
G01 X5.7518 Y12.6997
G01 X5.8437 Y12.5756
G01 X5.8499 Y12.5680
G01 X5.9537 Y12.4537
G01 X6.0680 Y12.3499
G01 X6.0756 Y12.3437
G01 X6.1997 Y12.2518
G01 X6.3321 Y12.1723
G01 X6.3407 Y12.1677
G01 X6.4804 Y12.1017
G01 X6.6257 Y12.0496
G01 X6.6351 Y12.0468
G01 X6.7849 Y12.0093
G01 X6.9401 Y11.9862
G01 X6.9474 Y11.9856
G01 X7.1017 Y11.9782
G01 X7.2559 Y11.9856
G01 X7.2656 Y11.9866
G01 X7.4136 Y12.0085
G01 X7.4231 Y12.0104
G01 X7.5729 Y12.0481
G01 X7.7229 Y12.1017
G01 X7.8670 Y12.1699
G01 X8.0016 Y12.2504
G01 X8.0076 Y12.2546
G01 X8.1316 Y12.3467
G01 X8.2461 Y12.4503
G01 X8.2530 Y12.4572
G01 X8.3534 Y12.5680
G01 X8.3582 Y12.5736
G01 X8.4515 Y12.6997
G01 X8.5323 Y12.8342
G01 X8.5356 Y12.8407
G01 X8.6006 Y12.9781
G01 X8.6259 Y13.0479
G01 X9.3723 Y13.0479
G01 X10.2101 Y12.2101
G01 X10.2485 Y12.1752
G01 X10.2900 Y12.1441
G01 X10.2981 Y12.1386
G01 X10.3406 Y12.1133
G01 X10.3853 Y12.0921
G01 X10.3943 Y12.0883
G01 X10.4409 Y12.0718
G01 X10.4889 Y12.0596
G01 X10.4984 Y12.0577
G01 X10.5474 Y12.0506
G01 X10.6017 Y12.0479
G01 X20.0503 Y12.0479
G01 X20.0939 Y11.9561
G01 X20.1603 Y11.8449
G01 X20.1658 Y11.8368
G01 X20.2430 Y11.7328
G01 X20.3299 Y11.6368
G01 X20.3368 Y11.6299
G01 X20.4328 Y11.5430
G01 X20.5388 Y11.4643
G01 X20.5449 Y11.4603
G01 X20.6518 Y11.3963
G01 X20.6604 Y11.3917
G01 X20.7776 Y11.3364
G01 X20.8995 Y11.2927
G01 X20.9088 Y11.2898
G01 X21.0345 Y11.2585
G01 X21.1626 Y11.2393
G01 X21.1723 Y11.2384
G01 X21.3017 Y11.2322
G01 X21.4310 Y11.2384
G01 X21.4407 Y11.2393
G01 X21.5688 Y11.2585
G01 X21.6992 Y11.2911
G01 X21.8212 Y11.3346
G01 X21.8302 Y11.3384
G01 X21.9429 Y11.3917
G01 X21.9515 Y11.3963
G01 X22.0625 Y11.4630
G01 X22.1666 Y11.5400
G01 X22.1742 Y11.5462
G01 X22.2665 Y11.6299
G01 X22.2734 Y11.6368
G01 X22.3603 Y11.7328
G01 X22.4403 Y11.8408
G01 X22.5094 Y11.9561
G01 X22.5530 Y12.0479
G01 X23.6723 Y12.0479
G01 X24.0279 Y11.6923
G01 X24.0279 Y7.9572
G01 X23.5657 Y7.9572
G01 X23.5559 Y7.9567
G01 X23.5462 Y7.9552
G01 X23.5368 Y7.9529
G01 X23.5276 Y7.9496
G01 X23.5187 Y7.9454
G01 X23.5104 Y7.9404
G01 X23.5025 Y7.9346
G01 X23.4953 Y7.9280
G01 X23.4887 Y7.9208
G01 X23.4829 Y7.9129
G01 X23.4779 Y7.9046
G01 X23.4737 Y7.8957
G01 X23.4704 Y7.8865
G01 X23.4681 Y7.8771
G01 X23.4666 Y7.8674
G01 X23.4662 Y7.8577
G01 X23.4663 Y5.8208
G01 X23.4681 Y5.8062
G01 X23.4704 Y5.7968
G01 X23.4737 Y5.7876
G01 X23.4779 Y5.7787
