(G-CODE GENERATED BY FLATCAM v8.991 - www.flatcam.org - Version Date: 2019/12/30)

(Name: Cncjob_drill_1.0mm)
(Type: G-code from Excellon)
(Units: MM)

(Created on Monday, 30 January 2023 at 17:36)

(Feedrate: 480 mm/min)
(Feedrate rapids 1500 mm/min)

(Z_Cut: -2 mm)
(Z_Move: 1 mm)
(Z Toolchange: 15 mm)
(X,Y Toolchange: None mm)
(Z Start: None mm)
(Z End: 0.5 mm)
(Steps per circle: 64)
(Preprocessor Excellon: default)

(X range:   36.6380 ...  106.1620  mm)
(Y range:   11.8920 ...   88.5620  mm)

(Spindle Speed: 0 RPM)
G21
G90
G94




G01 F480.00
G00 Z1.0000

M03
G4 P1.0
G00 X71.4017 Y4.3017
G01 Z-2.0000
G01 Z0
G00 Z1.0000
G00 X68.8617 Y4.3017
G01 Z-2.0000
G01 Z0
G00 Z1.0000
G00 X66.3217 Y4.3017
G01 Z-2.0000
G01 Z0
G00 Z1.0000
G00 X63.7817 Y4.3017
G01 Z-2.0000
G01 Z0
G00 Z1.0000
G00 X61.2417 Y4.3017
G01 Z-2.0000
G01 Z0
G00 Z1.0000
G00 X32.2017 Y4.3017
G01 Z-2.0000
G01 Z0
G00 Z1.0000
G00 X29.6617 Y4.3017
G01 Z-2.0000
G01 Z0
G00 Z1.0000
G00 X27.1217 Y4.3017
G01 Z-2.0000
G01 Z0
G00 Z1.0000
G00 X24.5817 Y4.3017
G01 Z-2.0000
G01 Z0
G00 Z1.0000
G00 X22.0417 Y4.3017
G01 Z-2.0000
G01 Z0
G00 Z1.0000
G00 X22.0417 Y6.8417
G01 Z-2.0000
G01 Z0
G00 Z1.0000
G00 X24.5817 Y6.8417
G01 Z-2.0000
G01 Z0
G00 Z1.0000
G00 X27.1217 Y6.8417
G01 Z-2.0000
G01 Z0
G00 Z1.0000
G00 X29.6617 Y6.8417
G01 Z-2.0000
G01 Z0
G00 Z1.0000
G00 X32.2017 Y6.8417
G01 Z-2.0000
G01 Z0
G00 Z1.0000
G00 X32.3017 Y32.1017
G01 Z-2.0000
G01 Z0
G00 Z1.0000
G00 X29.7617 Y32.1017
G01 Z-2.0000
G01 Z0
G00 Z1.0000
G00 X27.2217 Y32.1017
G01 Z-2.0000
G01 Z0
G00 Z1.0000
G00 X24.6817 Y32.1017
G01 Z-2.0000
G01 Z0
G00 Z1.0000
G00 X22.1417 Y32.1017
G01 Z-2.0000
G01 Z0
G00 Z1.0000
G00 X22.1417 Y34.6417
G01 Z-2.0000
G01 Z0
G00 Z1.0000
G00 X24.6817 Y34.6417
G01 Z-2.0000
G01 Z0
G00 Z1.0000
G00 X27.2217 Y34.6417
G01 Z-2.0000
G01 Z0
G00 Z1.0000
G00 X29.7617 Y34.6417
G01 Z-2.0000
G01 Z0
G00 Z1.0000
G00 X32.3017 Y34.6417
G01 Z-2.0000
G01 Z0
G00 Z1.0000
G00 X32.1017 Y59.4017
G01 Z-2.0000
G01 Z0
G00 Z1.0000
G00 X29.5617 Y59.4017
G01 Z-2.0000
G01 Z0
G00 Z1.0000
G00 X27.0217 Y59.4017
G01 Z-2.0000
G01 Z0
G00 Z1.0000
G00 X24.4817 Y59.4017
G01 Z-2.0000
G01 Z0
G00 Z1.0000
G00 X21.9417 Y59.4017
G01 Z-2.0000
G01 Z0
G00 Z1.0000
G00 X21.9417 Y61.9417
G01 Z-2.0000
G01 Z0
G00 Z1.0000
G00 X24.4817 Y61.9417
G01 Z-2.0000
G01 Z0
G00 Z1.0000
G00 X27.0217 Y61.9417
G01 Z-2.0000
G01 Z0
G00 Z1.0000
G00 X29.5617 Y61.9417
G01 Z-2.0000
G01 Z0
G00 Z1.0000
G00 X32.1017 Y61.9417
G01 Z-2.0000
G01 Z0
G00 Z1.0000
G00 X61.2417 Y61.7417
G01 Z-2.0000
G01 Z0
G00 Z1.0000
G00 X63.7817 Y61.7417
G01 Z-2.0000
G01 Z0
G00 Z1.0000
G00 X66.3217 Y61.7417
G01 Z-2.0000
G01 Z0
G00 Z1.0000
G00 X68.8617 Y61.7417
G01 Z-2.0000
G01 Z0
G00 Z1.0000
G00 X71.4017 Y61.7417
G01 Z-2.0000
G01 Z0
G00 Z1.0000
G00 X71.4017 Y59.2017
G01 Z-2.0000
G01 Z0
G00 Z1.0000
G00 X68.8617 Y59.2017
G01 Z-2.0000
G01 Z0
G00 Z1.0000
G00 X66.3217 Y59.2017
G01 Z-2.0000
G01 Z0
G00 Z1.0000
G00 X63.7817 Y59.2017
G01 Z-2.0000
G01 Z0
G00 Z1.0000
G00 X61.2417 Y59.2017
G01 Z-2.0000
G01 Z0
G00 Z1.0000
G00 X61.2417 Y34.6417
G01 Z-2.0000
G01 Z0
G00 Z1.0000
G00 X61.2417 Y32.1017
G01 Z-2.0000
G01 Z0
G00 Z1.0000
G00 X63.7817 Y32.1017
G01 Z-2.0000
G01 Z0
G00 Z1.0000
G00 X63.7817 Y34.6417
G01 Z-2.0000
G01 Z0
G00 Z1.0000
G00 X66.3217 Y34.6417
G01 Z-2.0000
G01 Z0
G00 Z1.0000
G00 X68.8617 Y34.6417
G01 Z-2.0000
G01 Z0
G00 Z1.0000
G00 X71.4017 Y34.6417
G01 Z-2.0000
G01 Z0
G00 Z1.0000
G00 X71.4017 Y32.1017
G01 Z-2.0000
G01 Z0
G00 Z1.0000
G00 X68.8617 Y32.1017
G01 Z-2.0000
G01 Z0
G00 Z1.0000
G00 X66.3217 Y32.1017
G01 Z-2.0000
G01 Z0
G00 Z1.0000
G00 X61.2417 Y6.8417
G01 Z-2.0000
G01 Z0
G00 Z1.0000
G00 X63.7817 Y6.8417
G01 Z-2.0000
G01 Z0
G00 Z1.0000
G00 X66.3217 Y6.8417
G01 Z-2.0000
G01 Z0
G00 Z1.0000
G00 X68.8617 Y6.8417
G01 Z-2.0000
G01 Z0
G00 Z1.0000
G00 X71.4017 Y6.8417
G01 Z-2.0000
G01 Z0
G00 Z1.0000
M05
G00 Z0.50

