(G-CODE GENERATED BY FLATCAM v8.991 - www.flatcam.org - Version Date: 2019/12/30)

(Name: Cncjob_Milled_Drills)
(Type: G-code from Geometry)
(Units: MM)

(Created on Monday, 30 January 2023 at 17:36)

(TOOL DIAMETER: 1.5 mm)
(Feedrate: 1250.0 mm/min)
(Feedrate_Z: 250.0 mm/min)
(Feedrate rapids 1500.0 mm/min)

(Z_Cut: -1.8 mm)
(Z_Move: 0.5 mm)
(Z Toolchange: 15.0 mm)
(X,Y Toolchange: 0.0000, 0.0000 mm)
(Z Start: 0.5 mm)
(Z End: 15.0 mm)
(Steps per circle: 64)
(Preprocessor Geometry: default)

(X range:    6.9897 ...   75.0137  mm)
(Y range:   12.5897 ...   79.7137  mm)

(Spindle Speed: None RPM)
G21
G90
G94




G01 F1250.00
G00 Z0.5000
G00 Z0.5000
M03
G4 P1.0
G00 X7.1137 Y13.6017
G01 F250.00
G01 Z-0.1000
G01 F1250.00
G01 X7.1127 Y13.5971
G01 X7.1101 Y13.5932
G01 X7.1062 Y13.5906
G01 X7.1017 Y13.5897
G01 X7.0971 Y13.5906
G01 X7.0932 Y13.5932
G01 X7.0906 Y13.5971
G01 X7.0897 Y13.6017
G01 X7.0906 Y13.6062
G01 X7.0932 Y13.6101
G01 X7.0971 Y13.6127
G01 X7.1017 Y13.6137
G01 X7.1062 Y13.6127
G01 X7.1101 Y13.6101
G01 X7.1127 Y13.6062
G01 X7.1137 Y13.6017
G00 X7.1137 Y13.6017
G01 F250.00
G01 Z-0.2000
G01 F1250.00
G01 X7.1127 Y13.5971
G01 X7.1101 Y13.5932
G01 X7.1062 Y13.5906
G01 X7.1017 Y13.5897
G01 X7.0971 Y13.5906
G01 X7.0932 Y13.5932
G01 X7.0906 Y13.5971
G01 X7.0897 Y13.6017
G01 X7.0906 Y13.6062
G01 X7.0932 Y13.6101
G01 X7.0971 Y13.6127
G01 X7.1017 Y13.6137
G01 X7.1062 Y13.6127
G01 X7.1101 Y13.6101
G01 X7.1127 Y13.6062
G01 X7.1137 Y13.6017
G00 X7.1137 Y13.6017
G01 F250.00
G01 Z-0.3000
G01 F1250.00
G01 X7.1127 Y13.5971
G01 X7.1101 Y13.5932
G01 X7.1062 Y13.5906
G01 X7.1017 Y13.5897
G01 X7.0971 Y13.5906
G01 X7.0932 Y13.5932
G01 X7.0906 Y13.5971
G01 X7.0897 Y13.6017
G01 X7.0906 Y13.6062
G01 X7.0932 Y13.6101
G01 X7.0971 Y13.6127
G01 X7.1017 Y13.6137
G01 X7.1062 Y13.6127
G01 X7.1101 Y13.6101
G01 X7.1127 Y13.6062
G01 X7.1137 Y13.6017
G00 X7.1137 Y13.6017
G01 F250.00
G01 Z-0.4000
G01 F1250.00
G01 X7.1127 Y13.5971
G01 X7.1101 Y13.5932
G01 X7.1062 Y13.5906
G01 X7.1017 Y13.5897
G01 X7.0971 Y13.5906
G01 X7.0932 Y13.5932
G01 X7.0906 Y13.5971
G01 X7.0897 Y13.6017
G01 X7.0906 Y13.6062
G01 X7.0932 Y13.6101
G01 X7.0971 Y13.6127
G01 X7.1017 Y13.6137
G01 X7.1062 Y13.6127
G01 X7.1101 Y13.6101
G01 X7.1127 Y13.6062
G01 X7.1137 Y13.6017
G00 X7.1137 Y13.6017
G01 F250.00
G01 Z-0.5000
G01 F1250.00
G01 X7.1127 Y13.5971
G01 X7.1101 Y13.5932
G01 X7.1062 Y13.5906
G01 X7.1017 Y13.5897
G01 X7.0971 Y13.5906
G01 X7.0932 Y13.5932
G01 X7.0906 Y13.5971
G01 X7.0897 Y13.6017
G01 X7.0906 Y13.6062
G01 X7.0932 Y13.6101
G01 X7.0971 Y13.6127
G01 X7.1017 Y13.6137
G01 X7.1062 Y13.6127
G01 X7.1101 Y13.6101
G01 X7.1127 Y13.6062
G01 X7.1137 Y13.6017
G00 X7.1137 Y13.6017
G01 F250.00
G01 Z-0.6000
G01 F1250.00
G01 X7.1127 Y13.5971
G01 X7.1101 Y13.5932
G01 X7.1062 Y13.5906
G01 X7.1017 Y13.5897
G01 X7.0971 Y13.5906
G01 X7.0932 Y13.5932
G01 X7.0906 Y13.5971
G01 X7.0897 Y13.6017
G01 X7.0906 Y13.6062
G01 X7.0932 Y13.6101
G01 X7.0971 Y13.6127
G01 X7.1017 Y13.6137
G01 X7.1062 Y13.6127
G01 X7.1101 Y13.6101
G01 X7.1127 Y13.6062
G01 X7.1137 Y13.6017
G00 X7.1137 Y13.6017
G01 F250.00
G01 Z-0.7000
G01 F1250.00
G01 X7.1127 Y13.5971
G01 X7.1101 Y13.5932
G01 X7.1062 Y13.5906
G01 X7.1017 Y13.5897
G01 X7.0971 Y13.5906
G01 X7.0932 Y13.5932
G01 X7.0906 Y13.5971
G01 X7.0897 Y13.6017
G01 X7.0906 Y13.6062
G01 X7.0932 Y13.6101
G01 X7.0971 Y13.6127
G01 X7.1017 Y13.6137
G01 X7.1062 Y13.6127
G01 X7.1101 Y13.6101
G01 X7.1127 Y13.6062
G01 X7.1137 Y13.6017
G00 X7.1137 Y13.6017
G01 F250.00
G01 Z-0.8000
G01 F1250.00
G01 X7.1127 Y13.5971
G01 X7.1101 Y13.5932
G01 X7.1062 Y13.5906
G01 X7.1017 Y13.5897
G01 X7.0971 Y13.5906
G01 X7.0932 Y13.5932
G01 X7.0906 Y13.5971
G01 X7.0897 Y13.6017
G01 X7.0906 Y13.6062
G01 X7.0932 Y13.6101
G01 X7.0971 Y13.6127
G01 X7.1017 Y13.6137
G01 X7.1062 Y13.6127
G01 X7.1101 Y13.6101
G01 X7.1127 Y13.6062
G01 X7.1137 Y13.6017
G00 X7.1137 Y13.6017
G01 F250.00
G01 Z-0.9000
G01 F1250.00
G01 X7.1127 Y13.5971
G01 X7.1101 Y13.5932
G01 X7.1062 Y13.5906
G01 X7.1017 Y13.5897
G01 X7.0971 Y13.5906
G01 X7.0932 Y13.5932
G01 X7.0906 Y13.5971
G01 X7.0897 Y13.6017
G01 X7.0906 Y13.6062
G01 X7.0932 Y13.6101
G01 X7.0971 Y13.6127
G01 X7.1017 Y13.6137
G01 X7.1062 Y13.6127
G01 X7.1101 Y13.6101
G01 X7.1127 Y13.6062
G01 X7.1137 Y13.6017
G00 X7.1137 Y13.6017
G01 F250.00
G01 Z-1.0000
G01 F1250.00
G01 X7.1127 Y13.5971
G01 X7.1101 Y13.5932
G01 X7.1062 Y13.5906
G01 X7.1017 Y13.5897
G01 X7.0971 Y13.5906
G01 X7.0932 Y13.5932
G01 X7.0906 Y13.5971
G01 X7.0897 Y13.6017
G01 X7.0906 Y13.6062
G01 X7.0932 Y13.6101
G01 X7.0971 Y13.6127
G01 X7.1017 Y13.6137
G01 X7.1062 Y13.6127
G01 X7.1101 Y13.6101
G01 X7.1127 Y13.6062
G01 X7.1137 Y13.6017
G00 X7.1137 Y13.6017
G01 F250.00
G01 Z-1.1000
G01 F1250.00
G01 X7.1127 Y13.5971
G01 X7.1101 Y13.5932
G01 X7.1062 Y13.5906
G01 X7.1017 Y13.5897
G01 X7.0971 Y13.5906
G01 X7.0932 Y13.5932
G01 X7.0906 Y13.5971
G01 X7.0897 Y13.6017
G01 X7.0906 Y13.6062
G01 X7.0932 Y13.6101
G01 X7.0971 Y13.6127
G01 X7.1017 Y13.6137
G01 X7.1062 Y13.6127
G01 X7.1101 Y13.6101
G01 X7.1127 Y13.6062
G01 X7.1137 Y13.6017
G00 X7.1137 Y13.6017
G01 F250.00
G01 Z-1.2000
G01 F1250.00
G01 X7.1127 Y13.5971
G01 X7.1101 Y13.5932
G01 X7.1062 Y13.5906
G01 X7.1017 Y13.5897
G01 X7.0971 Y13.5906
G01 X7.0932 Y13.5932
G01 X7.0906 Y13.5971
G01 X7.0897 Y13.6017
G01 X7.0906 Y13.6062
G01 X7.0932 Y13.6101
G01 X7.0971 Y13.6127
G01 X7.1017 Y13.6137
G01 X7.1062 Y13.6127
G01 X7.1101 Y13.6101
G01 X7.1127 Y13.6062
G01 X7.1137 Y13.6017
G00 X7.1137 Y13.6017
G01 F250.00
G01 Z-1.3000
G01 F1250.00
G01 X7.1127 Y13.5971
G01 X7.1101 Y13.5932
G01 X7.1062 Y13.5906
G01 X7.1017 Y13.5897
G01 X7.0971 Y13.5906
G01 X7.0932 Y13.5932
G01 X7.0906 Y13.5971
G01 X7.0897 Y13.6017
G01 X7.0906 Y13.6062
G01 X7.0932 Y13.6101
G01 X7.0971 Y13.6127
G01 X7.1017 Y13.6137
G01 X7.1062 Y13.6127
G01 X7.1101 Y13.6101
G01 X7.1127 Y13.6062
G01 X7.1137 Y13.6017
G00 X7.1137 Y13.6017
G01 F250.00
G01 Z-1.4000
G01 F1250.00
G01 X7.1127 Y13.5971
G01 X7.1101 Y13.5932
G01 X7.1062 Y13.5906
G01 X7.1017 Y13.5897
G01 X7.0971 Y13.5906
G01 X7.0932 Y13.5932
G01 X7.0906 Y13.5971
G01 X7.0897 Y13.6017
G01 X7.0906 Y13.6062
G01 X7.0932 Y13.6101
G01 X7.0971 Y13.6127
G01 X7.1017 Y13.6137
G01 X7.1062 Y13.6127
G01 X7.1101 Y13.6101
G01 X7.1127 Y13.6062
G01 X7.1137 Y13.6017
G00 X7.1137 Y13.6017
G01 F250.00
G01 Z-1.5000
G01 F1250.00
G01 X7.1127 Y13.5971
G01 X7.1101 Y13.5932
G01 X7.1062 Y13.5906
G01 X7.1017 Y13.5897
G01 X7.0971 Y13.5906
G01 X7.0932 Y13.5932
G01 X7.0906 Y13.5971
G01 X7.0897 Y13.6017
G01 X7.0906 Y13.6062
G01 X7.0932 Y13.6101
G01 X7.0971 Y13.6127
G01 X7.1017 Y13.6137
G01 X7.1062 Y13.6127
G01 X7.1101 Y13.6101
G01 X7.1127 Y13.6062
G01 X7.1137 Y13.6017
G00 X7.1137 Y13.6017
G01 F250.00
G01 Z-1.6000
G01 F1250.00
G01 X7.1127 Y13.5971
G01 X7.1101 Y13.5932
G01 X7.1062 Y13.5906
G01 X7.1017 Y13.5897
G01 X7.0971 Y13.5906
G01 X7.0932 Y13.5932
G01 X7.0906 Y13.5971
G01 X7.0897 Y13.6017
G01 X7.0906 Y13.6062
G01 X7.0932 Y13.6101
G01 X7.0971 Y13.6127
G01 X7.1017 Y13.6137
G01 X7.1062 Y13.6127
G01 X7.1101 Y13.6101
G01 X7.1127 Y13.6062
G01 X7.1137 Y13.6017
G00 X7.1137 Y13.6017
G01 F250.00
G01 Z-1.7000
G01 F1250.00
G01 X7.1127 Y13.5971
G01 X7.1101 Y13.5932
G01 X7.1062 Y13.5906
G01 X7.1017 Y13.5897
G01 X7.0971 Y13.5906
G01 X7.0932 Y13.5932
G01 X7.0906 Y13.5971
G01 X7.0897 Y13.6017
G01 X7.0906 Y13.6062
G01 X7.0932 Y13.6101
G01 X7.0971 Y13.6127
G01 X7.1017 Y13.6137
G01 X7.1062 Y13.6127
G01 X7.1101 Y13.6101
G01 X7.1127 Y13.6062
G01 X7.1137 Y13.6017
G00 X7.1137 Y13.6017
G01 F250.00
G01 Z-1.8000
G01 F1250.00
G01 X7.1127 Y13.5971
G01 X7.1101 Y13.5932
G01 X7.1062 Y13.5906
G01 X7.1017 Y13.5897
G01 X7.0971 Y13.5906
G01 X7.0932 Y13.5932
G01 X7.0906 Y13.5971
G01 X7.0897 Y13.6017
G01 X7.0906 Y13.6062
G01 X7.0932 Y13.6101
G01 X7.0971 Y13.6127
G01 X7.1017 Y13.6137
G01 X7.1062 Y13.6127
G01 X7.1101 Y13.6101
G01 X7.1127 Y13.6062
G01 X7.1137 Y13.6017
G00 Z0.5000
G00 X7.1137 Y18.7017
G01 F250.00
G01 Z-0.1000
G01 F1250.00
G01 X7.1127 Y18.6971
G01 X7.1101 Y18.6932
G01 X7.1062 Y18.6906
G01 X7.1017 Y18.6897
G01 X7.0971 Y18.6906
G01 X7.0932 Y18.6932
G01 X7.0906 Y18.6971
G01 X7.0897 Y18.7017
G01 X7.0906 Y18.7062
G01 X7.0932 Y18.7101
G01 X7.0971 Y18.7127
G01 X7.1017 Y18.7137
G01 X7.1062 Y18.7127
G01 X7.1101 Y18.7101
G01 X7.1127 Y18.7062
G01 X7.1137 Y18.7017
G00 X7.1137 Y18.7017
G01 F250.00
G01 Z-0.2000
G01 F1250.00
G01 X7.1127 Y18.6971
G01 X7.1101 Y18.6932
G01 X7.1062 Y18.6906
G01 X7.1017 Y18.6897
G01 X7.0971 Y18.6906
G01 X7.0932 Y18.6932
G01 X7.0906 Y18.6971
G01 X7.0897 Y18.7017
G01 X7.0906 Y18.7062
G01 X7.0932 Y18.7101
G01 X7.0971 Y18.7127
G01 X7.1017 Y18.7137
G01 X7.1062 Y18.7127
G01 X7.1101 Y18.7101
G01 X7.1127 Y18.7062
G01 X7.1137 Y18.7017
G00 X7.1137 Y18.7017
G01 F250.00
G01 Z-0.3000
G01 F1250.00
G01 X7.1127 Y18.6971
G01 X7.1101 Y18.6932
G01 X7.1062 Y18.6906
G01 X7.1017 Y18.6897
G01 X7.0971 Y18.6906
G01 X7.0932 Y18.6932
G01 X7.0906 Y18.6971
G01 X7.0897 Y18.7017
G01 X7.0906 Y18.7062
G01 X7.0932 Y18.7101
G01 X7.0971 Y18.7127
G01 X7.1017 Y18.7137
G01 X7.1062 Y18.7127
G01 X7.1101 Y18.7101
G01 X7.1127 Y18.7062
G01 X7.1137 Y18.7017
G00 X7.1137 Y18.7017
G01 F250.00
G01 Z-0.4000
G01 F1250.00
G01 X7.1127 Y18.6971
G01 X7.1101 Y18.6932
G01 X7.1062 Y18.6906
G01 X7.1017 Y18.6897
G01 X7.0971 Y18.6906
G01 X7.0932 Y18.6932
G01 X7.0906 Y18.6971
G01 X7.0897 Y18.7017
G01 X7.0906 Y18.7062
G01 X7.0932 Y18.7101
G01 X7.0971 Y18.7127
G01 X7.1017 Y18.7137
G01 X7.1062 Y18.7127
G01 X7.1101 Y18.7101
G01 X7.1127 Y18.7062
G01 X7.1137 Y18.7017
G00 X7.1137 Y18.7017
G01 F250.00
G01 Z-0.5000
G01 F1250.00
G01 X7.1127 Y18.6971
G01 X7.1101 Y18.6932
G01 X7.1062 Y18.6906
G01 X7.1017 Y18.6897
G01 X7.0971 Y18.6906
G01 X7.0932 Y18.6932
G01 X7.0906 Y18.6971
G01 X7.0897 Y18.7017
G01 X7.0906 Y18.7062
G01 X7.0932 Y18.7101
G01 X7.0971 Y18.7127
G01 X7.1017 Y18.7137
G01 X7.1062 Y18.7127
G01 X7.1101 Y18.7101
G01 X7.1127 Y18.7062
G01 X7.1137 Y18.7017
G00 X7.1137 Y18.7017
G01 F250.00
G01 Z-0.6000
G01 F1250.00
G01 X7.1127 Y18.6971
G01 X7.1101 Y18.6932
G01 X7.1062 Y18.6906
G01 X7.1017 Y18.6897
G01 X7.0971 Y18.6906
G01 X7.0932 Y18.6932
G01 X7.0906 Y18.6971
G01 X7.0897 Y18.7017
G01 X7.0906 Y18.7062
G01 X7.0932 Y18.7101
G01 X7.0971 Y18.7127
G01 X7.1017 Y18.7137
G01 X7.1062 Y18.7127
G01 X7.1101 Y18.7101
G01 X7.1127 Y18.7062
G01 X7.1137 Y18.7017
G00 X7.1137 Y18.7017
G01 F250.00
G01 Z-0.7000
G01 F1250.00
G01 X7.1127 Y18.6971
G01 X7.1101 Y18.6932
G01 X7.1062 Y18.6906
G01 X7.1017 Y18.6897
G01 X7.0971 Y18.6906
G01 X7.0932 Y18.6932
G01 X7.0906 Y18.6971
G01 X7.0897 Y18.7017
G01 X7.0906 Y18.7062
G01 X7.0932 Y18.7101
G01 X7.0971 Y18.7127
G01 X7.1017 Y18.7137
G01 X7.1062 Y18.7127
G01 X7.1101 Y18.7101
G01 X7.1127 Y18.7062
G01 X7.1137 Y18.7017
G00 X7.1137 Y18.7017
G01 F250.00
G01 Z-0.8000
G01 F1250.00
G01 X7.1127 Y18.6971
G01 X7.1101 Y18.6932
G01 X7.1062 Y18.6906
G01 X7.1017 Y18.6897
G01 X7.0971 Y18.6906
G01 X7.0932 Y18.6932
G01 X7.0906 Y18.6971
G01 X7.0897 Y18.7017
G01 X7.0906 Y18.7062
G01 X7.0932 Y18.7101
G01 X7.0971 Y18.7127
G01 X7.1017 Y18.7137
G01 X7.1062 Y18.7127
G01 X7.1101 Y18.7101
G01 X7.1127 Y18.7062
G01 X7.1137 Y18.7017
G00 X7.1137 Y18.7017
G01 F250.00
G01 Z-0.9000
G01 F1250.00
G01 X7.1127 Y18.6971
G01 X7.1101 Y18.6932
G01 X7.1062 Y18.6906
G01 X7.1017 Y18.6897
G01 X7.0971 Y18.6906
G01 X7.0932 Y18.6932
G01 X7.0906 Y18.6971
G01 X7.0897 Y18.7017
G01 X7.0906 Y18.7062
G01 X7.0932 Y18.7101
G01 X7.0971 Y18.7127
G01 X7.1017 Y18.7137
G01 X7.1062 Y18.7127
G01 X7.1101 Y18.7101
G01 X7.1127 Y18.7062
G01 X7.1137 Y18.7017
G00 X7.1137 Y18.7017
G01 F250.00
G01 Z-1.0000
G01 F1250.00
G01 X7.1127 Y18.6971
G01 X7.1101 Y18.6932
G01 X7.1062 Y18.6906
G01 X7.1017 Y18.6897
G01 X7.0971 Y18.6906
G01 X7.0932 Y18.6932
G01 X7.0906 Y18.6971
G01 X7.0897 Y18.7017
G01 X7.0906 Y18.7062
G01 X7.0932 Y18.7101
G01 X7.0971 Y18.7127
G01 X7.1017 Y18.7137
G01 X7.1062 Y18.7127
G01 X7.1101 Y18.7101
G01 X7.1127 Y18.7062
G01 X7.1137 Y18.7017
G00 X7.1137 Y18.7017
G01 F250.00
G01 Z-1.1000
G01 F1250.00
G01 X7.1127 Y18.6971
G01 X7.1101 Y18.6932
G01 X7.1062 Y18.6906
G01 X7.1017 Y18.6897
G01 X7.0971 Y18.6906
G01 X7.0932 Y18.6932
G01 X7.0906 Y18.6971
G01 X7.0897 Y18.7017
G01 X7.0906 Y18.7062
G01 X7.0932 Y18.7101
G01 X7.0971 Y18.7127
G01 X7.1017 Y18.7137
G01 X7.1062 Y18.7127
G01 X7.1101 Y18.7101
G01 X7.1127 Y18.7062
G01 X7.1137 Y18.7017
G00 X7.1137 Y18.7017
G01 F250.00
G01 Z-1.2000
G01 F1250.00
G01 X7.1127 Y18.6971
G01 X7.1101 Y18.6932
G01 X7.1062 Y18.6906
G01 X7.1017 Y18.6897
G01 X7.0971 Y18.6906
G01 X7.0932 Y18.6932
G01 X7.0906 Y18.6971
G01 X7.0897 Y18.7017
G01 X7.0906 Y18.7062
G01 X7.0932 Y18.7101
G01 X7.0971 Y18.7127
G01 X7.1017 Y18.7137
G01 X7.1062 Y18.7127
G01 X7.1101 Y18.7101
G01 X7.1127 Y18.7062
G01 X7.1137 Y18.7017
G00 X7.1137 Y18.7017
G01 F250.00
G01 Z-1.3000
G01 F1250.00
G01 X7.1127 Y18.6971
G01 X7.1101 Y18.6932
G01 X7.1062 Y18.6906
G01 X7.1017 Y18.6897
G01 X7.0971 Y18.6906
G01 X7.0932 Y18.6932
G01 X7.0906 Y18.6971
G01 X7.0897 Y18.7017
G01 X7.0906 Y18.7062
G01 X7.0932 Y18.7101
G01 X7.0971 Y18.7127
G01 X7.1017 Y18.7137
G01 X7.1062 Y18.7127
G01 X7.1101 Y18.7101
G01 X7.1127 Y18.7062
G01 X7.1137 Y18.7017
G00 X7.1137 Y18.7017
G01 F250.00
G01 Z-1.4000
G01 F1250.00
G01 X7.1127 Y18.6971
G01 X7.1101 Y18.6932
G01 X7.1062 Y18.6906
G01 X7.1017 Y18.6897
G01 X7.0971 Y18.6906
G01 X7.0932 Y18.6932
G01 X7.0906 Y18.6971
G01 X7.0897 Y18.7017
G01 X7.0906 Y18.7062
G01 X7.0932 Y18.7101
G01 X7.0971 Y18.7127
G01 X7.1017 Y18.7137
G01 X7.1062 Y18.7127
G01 X7.1101 Y18.7101
G01 X7.1127 Y18.7062
G01 X7.1137 Y18.7017
G00 X7.1137 Y18.7017
G01 F250.00
G01 Z-1.5000
G01 F1250.00
G01 X7.1127 Y18.6971
G01 X7.1101 Y18.6932
G01 X7.1062 Y18.6906
G01 X7.1017 Y18.6897
G01 X7.0971 Y18.6906
G01 X7.0932 Y18.6932
G01 X7.0906 Y18.6971
G01 X7.0897 Y18.7017
G01 X7.0906 Y18.7062
G01 X7.0932 Y18.7101
G01 X7.0971 Y18.7127
G01 X7.1017 Y18.7137
G01 X7.1062 Y18.7127
G01 X7.1101 Y18.7101
G01 X7.1127 Y18.7062
G01 X7.1137 Y18.7017
G00 X7.1137 Y18.7017
G01 F250.00
G01 Z-1.6000
G01 F1250.00
G01 X7.1127 Y18.6971
G01 X7.1101 Y18.6932
G01 X7.1062 Y18.6906
G01 X7.1017 Y18.6897
G01 X7.0971 Y18.6906
G01 X7.0932 Y18.6932
G01 X7.0906 Y18.6971
G01 X7.0897 Y18.7017
G01 X7.0906 Y18.7062
G01 X7.0932 Y18.7101
G01 X7.0971 Y18.7127
G01 X7.1017 Y18.7137
G01 X7.1062 Y18.7127
G01 X7.1101 Y18.7101
G01 X7.1127 Y18.7062
G01 X7.1137 Y18.7017
G00 X7.1137 Y18.7017
G01 F250.00
G01 Z-1.7000
G01 F1250.00
G01 X7.1127 Y18.6971
G01 X7.1101 Y18.6932
G01 X7.1062 Y18.6906
G01 X7.1017 Y18.6897
G01 X7.0971 Y18.6906
G01 X7.0932 Y18.6932
G01 X7.0906 Y18.6971
G01 X7.0897 Y18.7017
G01 X7.0906 Y18.7062
G01 X7.0932 Y18.7101
G01 X7.0971 Y18.7127
G01 X7.1017 Y18.7137
G01 X7.1062 Y18.7127
G01 X7.1101 Y18.7101
G01 X7.1127 Y18.7062
G01 X7.1137 Y18.7017
G00 X7.1137 Y18.7017
G01 F250.00
G01 Z-1.8000
G01 F1250.00
G01 X7.1127 Y18.6971
G01 X7.1101 Y18.6932
G01 X7.1062 Y18.6906
G01 X7.1017 Y18.6897
G01 X7.0971 Y18.6906
G01 X7.0932 Y18.6932
G01 X7.0906 Y18.6971
G01 X7.0897 Y18.7017
G01 X7.0906 Y18.7062
G01 X7.0932 Y18.7101
G01 X7.0971 Y18.7127
G01 X7.1017 Y18.7137
G01 X7.1062 Y18.7127
G01 X7.1101 Y18.7101
G01 X7.1127 Y18.7062
G01 X7.1137 Y18.7017
G00 Z0.5000
G00 X7.1137 Y23.8017
G01 F250.00
G01 Z-0.1000
G01 F1250.00
G01 X7.1127 Y23.7971
G01 X7.1101 Y23.7932
G01 X7.1062 Y23.7906
G01 X7.1017 Y23.7897
G01 X7.0971 Y23.7906
G01 X7.0932 Y23.7932
G01 X7.0906 Y23.7971
G01 X7.0897 Y23.8017
G01 X7.0906 Y23.8062
G01 X7.0932 Y23.8101
G01 X7.0971 Y23.8127
G01 X7.1017 Y23.8137
G01 X7.1062 Y23.8127
G01 X7.1101 Y23.8101
G01 X7.1127 Y23.8062
G01 X7.1137 Y23.8017
G00 X7.1137 Y23.8017
G01 F250.00
G01 Z-0.2000
G01 F1250.00
G01 X7.1127 Y23.7971
G01 X7.1101 Y23.7932
G01 X7.1062 Y23.7906
G01 X7.1017 Y23.7897
G01 X7.0971 Y23.7906
G01 X7.0932 Y23.7932
G01 X7.0906 Y23.7971
G01 X7.0897 Y23.8017
G01 X7.0906 Y23.8062
G01 X7.0932 Y23.8101
G01 X7.0971 Y23.8127
G01 X7.1017 Y23.8137
G01 X7.1062 Y23.8127
G01 X7.1101 Y23.8101
G01 X7.1127 Y23.8062
G01 X7.1137 Y23.8017
G00 X7.1137 Y23.8017
G01 F250.00
G01 Z-0.3000
G01 F1250.00
G01 X7.1127 Y23.7971
G01 X7.1101 Y23.7932
G01 X7.1062 Y23.7906
G01 X7.1017 Y23.7897
G01 X7.0971 Y23.7906
G01 X7.0932 Y23.7932
G01 X7.0906 Y23.7971
G01 X7.0897 Y23.8017
G01 X7.0906 Y23.8062
G01 X7.0932 Y23.8101
G01 X7.0971 Y23.8127
G01 X7.1017 Y23.8137
G01 X7.1062 Y23.8127
G01 X7.1101 Y23.8101
G01 X7.1127 Y23.8062
G01 X7.1137 Y23.8017
G00 X7.1137 Y23.8017
G01 F250.00
G01 Z-0.4000
G01 F1250.00
G01 X7.1127 Y23.7971
G01 X7.1101 Y23.7932
G01 X7.1062 Y23.7906
G01 X7.1017 Y23.7897
G01 X7.0971 Y23.7906
G01 X7.0932 Y23.7932
G01 X7.0906 Y23.7971
G01 X7.0897 Y23.8017
G01 X7.0906 Y23.8062
G01 X7.0932 Y23.8101
G01 X7.0971 Y23.8127
G01 X7.1017 Y23.8137
G01 X7.1062 Y23.8127
G01 X7.1101 Y23.8101
G01 X7.1127 Y23.8062
G01 X7.1137 Y23.8017
G00 X7.1137 Y23.8017
G01 F250.00
G01 Z-0.5000
G01 F1250.00
G01 X7.1127 Y23.7971
G01 X7.1101 Y23.7932
G01 X7.1062 Y23.7906
G01 X7.1017 Y23.7897
G01 X7.0971 Y23.7906
G01 X7.0932 Y23.7932
G01 X7.0906 Y23.7971
G01 X7.0897 Y23.8017
G01 X7.0906 Y23.8062
G01 X7.0932 Y23.8101
G01 X7.0971 Y23.8127
G01 X7.1017 Y23.8137
G01 X7.1062 Y23.8127
G01 X7.1101 Y23.8101
G01 X7.1127 Y23.8062
G01 X7.1137 Y23.8017
G00 X7.1137 Y23.8017
G01 F250.00
G01 Z-0.6000
G01 F1250.00
G01 X7.1127 Y23.7971
G01 X7.1101 Y23.7932
G01 X7.1062 Y23.7906
G01 X7.1017 Y23.7897
G01 X7.0971 Y23.7906
G01 X7.0932 Y23.7932
G01 X7.0906 Y23.7971
G01 X7.0897 Y23.8017
G01 X7.0906 Y23.8062
G01 X7.0932 Y23.8101
G01 X7.0971 Y23.8127
G01 X7.1017 Y23.8137
G01 X7.1062 Y23.8127
G01 X7.1101 Y23.8101
G01 X7.1127 Y23.8062
G01 X7.1137 Y23.8017
G00 X7.1137 Y23.8017
G01 F250.00
G01 Z-0.7000
G01 F1250.00
G01 X7.1127 Y23.7971
G01 X7.1101 Y23.7932
G01 X7.1062 Y23.7906
G01 X7.1017 Y23.7897
G01 X7.0971 Y23.7906
G01 X7.0932 Y23.7932
G01 X7.0906 Y23.7971
G01 X7.0897 Y23.8017
G01 X7.0906 Y23.8062
G01 X7.0932 Y23.8101
G01 X7.0971 Y23.8127
G01 X7.1017 Y23.8137
G01 X7.1062 Y23.8127
G01 X7.1101 Y23.8101
G01 X7.1127 Y23.8062
G01 X7.1137 Y23.8017
G00 X7.1137 Y23.8017
G01 F250.00
G01 Z-0.8000
G01 F1250.00
G01 X7.1127 Y23.7971
G01 X7.1101 Y23.7932
G01 X7.1062 Y23.7906
G01 X7.1017 Y23.7897
G01 X7.0971 Y23.7906
G01 X7.0932 Y23.7932
G01 X7.0906 Y23.7971
G01 X7.0897 Y23.8017
G01 X7.0906 Y23.8062
G01 X7.0932 Y23.8101
G01 X7.0971 Y23.8127
G01 X7.1017 Y23.8137
G01 X7.1062 Y23.8127
G01 X7.1101 Y23.8101
G01 X7.1127 Y23.8062
G01 X7.1137 Y23.8017
G00 X7.1137 Y23.8017
G01 F250.00
G01 Z-0.9000
G01 F1250.00
G01 X7.1127 Y23.7971
G01 X7.1101 Y23.7932
G01 X7.1062 Y23.7906
G01 X7.1017 Y23.7897
G01 X7.0971 Y23.7906
G01 X7.0932 Y23.7932
G01 X7.0906 Y23.7971
G01 X7.0897 Y23.8017
G01 X7.0906 Y23.8062
G01 X7.0932 Y23.8101
G01 X7.0971 Y23.8127
G01 X7.1017 Y23.8137
G01 X7.1062 Y23.8127
G01 X7.1101 Y23.8101
G01 X7.1127 Y23.8062
G01 X7.1137 Y23.8017
G00 X7.1137 Y23.8017
G01 F250.00
G01 Z-1.0000
G01 F1250.00
G01 X7.1127 Y23.7971
G01 X7.1101 Y23.7932
G01 X7.1062 Y23.7906
G01 X7.1017 Y23.7897
G01 X7.0971 Y23.7906
G01 X7.0932 Y23.7932
G01 X7.0906 Y23.7971
G01 X7.0897 Y23.8017
G01 X7.0906 Y23.8062
G01 X7.0932 Y23.8101
G01 X7.0971 Y23.8127
G01 X7.1017 Y23.8137
G01 X7.1062 Y23.8127
G01 X7.1101 Y23.8101
G01 X7.1127 Y23.8062
G01 X7.1137 Y23.8017
G00 X7.1137 Y23.8017
G01 F250.00
G01 Z-1.1000
G01 F1250.00
G01 X7.1127 Y23.7971
G01 X7.1101 Y23.7932
G01 X7.1062 Y23.7906
G01 X7.1017 Y23.7897
G01 X7.0971 Y23.7906
G01 X7.0932 Y23.7932
G01 X7.0906 Y23.7971
G01 X7.0897 Y23.8017
G01 X7.0906 Y23.8062
G01 X7.0932 Y23.8101
G01 X7.0971 Y23.8127
G01 X7.1017 Y23.8137
G01 X7.1062 Y23.8127
G01 X7.1101 Y23.8101
G01 X7.1127 Y23.8062
G01 X7.1137 Y23.8017
G00 X7.1137 Y23.8017
G01 F250.00
G01 Z-1.2000
G01 F1250.00
G01 X7.1127 Y23.7971
G01 X7.1101 Y23.7932
G01 X7.1062 Y23.7906
G01 X7.1017 Y23.7897
G01 X7.0971 Y23.7906
G01 X7.0932 Y23.7932
G01 X7.0906 Y23.7971
G01 X7.0897 Y23.8017
G01 X7.0906 Y23.8062
G01 X7.0932 Y23.8101
G01 X7.0971 Y23.8127
G01 X7.1017 Y23.8137
G01 X7.1062 Y23.8127
G01 X7.1101 Y23.8101
G01 X7.1127 Y23.8062
G01 X7.1137 Y23.8017
G00 X7.1137 Y23.8017
G01 F250.00
G01 Z-1.3000
G01 F1250.00
G01 X7.1127 Y23.7971
G01 X7.1101 Y23.7932
G01 X7.1062 Y23.7906
G01 X7.1017 Y23.7897
G01 X7.0971 Y23.7906
G01 X7.0932 Y23.7932
G01 X7.0906 Y23.7971
G01 X7.0897 Y23.8017
G01 X7.0906 Y23.8062
G01 X7.0932 Y23.8101
G01 X7.0971 Y23.8127
G01 X7.1017 Y23.8137
G01 X7.1062 Y23.8127
G01 X7.1101 Y23.8101
G01 X7.1127 Y23.8062
G01 X7.1137 Y23.8017
G00 X7.1137 Y23.8017
G01 F250.00
G01 Z-1.4000
G01 F1250.00
G01 X7.1127 Y23.7971
G01 X7.1101 Y23.7932
G01 X7.1062 Y23.7906
G01 X7.1017 Y23.7897
G01 X7.0971 Y23.7906
G01 X7.0932 Y23.7932
G01 X7.0906 Y23.7971
G01 X7.0897 Y23.8017
G01 X7.0906 Y23.8062
G01 X7.0932 Y23.8101
G01 X7.0971 Y23.8127
G01 X7.1017 Y23.8137
G01 X7.1062 Y23.8127
G01 X7.1101 Y23.8101
G01 X7.1127 Y23.8062
G01 X7.1137 Y23.8017
G00 X7.1137 Y23.8017
G01 F250.00
G01 Z-1.5000
G01 F1250.00
G01 X7.1127 Y23.7971
G01 X7.1101 Y23.7932
G01 X7.1062 Y23.7906
G01 X7.1017 Y23.7897
G01 X7.0971 Y23.7906
G01 X7.0932 Y23.7932
G01 X7.0906 Y23.7971
G01 X7.0897 Y23.8017
G01 X7.0906 Y23.8062
G01 X7.0932 Y23.8101
G01 X7.0971 Y23.8127
G01 X7.1017 Y23.8137
G01 X7.1062 Y23.8127
G01 X7.1101 Y23.8101
G01 X7.1127 Y23.8062
G01 X7.1137 Y23.8017
G00 X7.1137 Y23.8017
G01 F250.00
G01 Z-1.6000
G01 F1250.00
G01 X7.1127 Y23.7971
G01 X7.1101 Y23.7932
G01 X7.1062 Y23.7906
G01 X7.1017 Y23.7897
G01 X7.0971 Y23.7906
G01 X7.0932 Y23.7932
G01 X7.0906 Y23.7971
G01 X7.0897 Y23.8017
G01 X7.0906 Y23.8062
G01 X7.0932 Y23.8101
G01 X7.0971 Y23.8127
G01 X7.1017 Y23.8137
G01 X7.1062 Y23.8127
G01 X7.1101 Y23.8101
G01 X7.1127 Y23.8062
G01 X7.1137 Y23.8017
G00 X7.1137 Y23.8017
G01 F250.00
G01 Z-1.7000
G01 F1250.00
G01 X7.1127 Y23.7971
G01 X7.1101 Y23.7932
G01 X7.1062 Y23.7906
G01 X7.1017 Y23.7897
G01 X7.0971 Y23.7906
G01 X7.0932 Y23.7932
G01 X7.0906 Y23.7971
G01 X7.0897 Y23.8017
G01 X7.0906 Y23.8062
G01 X7.0932 Y23.8101
G01 X7.0971 Y23.8127
G01 X7.1017 Y23.8137
G01 X7.1062 Y23.8127
G01 X7.1101 Y23.8101
G01 X7.1127 Y23.8062
G01 X7.1137 Y23.8017
G00 X7.1137 Y23.8017
G01 F250.00
G01 Z-1.8000
G01 F1250.00
G01 X7.1127 Y23.7971
G01 X7.1101 Y23.7932
G01 X7.1062 Y23.7906
G01 X7.1017 Y23.7897
G01 X7.0971 Y23.7906
G01 X7.0932 Y23.7932
G01 X7.0906 Y23.7971
G01 X7.0897 Y23.8017
G01 X7.0906 Y23.8062
G01 X7.0932 Y23.8101
G01 X7.0971 Y23.8127
G01 X7.1017 Y23.8137
G01 X7.1062 Y23.8127
G01 X7.1101 Y23.8101
G01 X7.1127 Y23.8062
G01 X7.1137 Y23.8017
G00 Z0.5000
G00 X21.3137 Y24.6017
G01 F250.00
G01 Z-0.1000
G01 F1250.00
G01 X21.3127 Y24.5971
G01 X21.3101 Y24.5932
G01 X21.3062 Y24.5906
G01 X21.3017 Y24.5897
G01 X21.2971 Y24.5906
G01 X21.2932 Y24.5932
G01 X21.2906 Y24.5971
G01 X21.2897 Y24.6017
G01 X21.2906 Y24.6062
G01 X21.2932 Y24.6101
G01 X21.2971 Y24.6127
G01 X21.3017 Y24.6137
G01 X21.3062 Y24.6127
G01 X21.3101 Y24.6101
G01 X21.3127 Y24.6062
G01 X21.3137 Y24.6017
G00 X21.3137 Y24.6017
G01 F250.00
G01 Z-0.2000
G01 F1250.00
G01 X21.3127 Y24.5971
G01 X21.3101 Y24.5932
G01 X21.3062 Y24.5906
G01 X21.3017 Y24.5897
G01 X21.2971 Y24.5906
G01 X21.2932 Y24.5932
G01 X21.2906 Y24.5971
G01 X21.2897 Y24.6017
G01 X21.2906 Y24.6062
G01 X21.2932 Y24.6101
G01 X21.2971 Y24.6127
G01 X21.3017 Y24.6137
G01 X21.3062 Y24.6127
G01 X21.3101 Y24.6101
G01 X21.3127 Y24.6062
G01 X21.3137 Y24.6017
G00 X21.3137 Y24.6017
G01 F250.00
G01 Z-0.3000
G01 F1250.00
G01 X21.3127 Y24.5971
G01 X21.3101 Y24.5932
G01 X21.3062 Y24.5906
G01 X21.3017 Y24.5897
G01 X21.2971 Y24.5906
G01 X21.2932 Y24.5932
G01 X21.2906 Y24.5971
G01 X21.2897 Y24.6017
G01 X21.2906 Y24.6062
G01 X21.2932 Y24.6101
G01 X21.2971 Y24.6127
G01 X21.3017 Y24.6137
G01 X21.3062 Y24.6127
G01 X21.3101 Y24.6101
G01 X21.3127 Y24.6062
G01 X21.3137 Y24.6017
G00 X21.3137 Y24.6017
G01 F250.00
G01 Z-0.4000
G01 F1250.00
G01 X21.3127 Y24.5971
G01 X21.3101 Y24.5932
G01 X21.3062 Y24.5906
G01 X21.3017 Y24.5897
G01 X21.2971 Y24.5906
G01 X21.2932 Y24.5932
G01 X21.2906 Y24.5971
G01 X21.2897 Y24.6017
G01 X21.2906 Y24.6062
G01 X21.2932 Y24.6101
G01 X21.2971 Y24.6127
G01 X21.3017 Y24.6137
G01 X21.3062 Y24.6127
G01 X21.3101 Y24.6101
G01 X21.3127 Y24.6062
G01 X21.3137 Y24.6017
G00 X21.3137 Y24.6017
G01 F250.00
G01 Z-0.5000
G01 F1250.00
G01 X21.3127 Y24.5971
G01 X21.3101 Y24.5932
G01 X21.3062 Y24.5906
G01 X21.3017 Y24.5897
G01 X21.2971 Y24.5906
G01 X21.2932 Y24.5932
G01 X21.2906 Y24.5971
G01 X21.2897 Y24.6017
G01 X21.2906 Y24.6062
G01 X21.2932 Y24.6101
G01 X21.2971 Y24.6127
G01 X21.3017 Y24.6137
G01 X21.3062 Y24.6127
G01 X21.3101 Y24.6101
G01 X21.3127 Y24.6062
G01 X21.3137 Y24.6017
G00 X21.3137 Y24.6017
G01 F250.00
G01 Z-0.6000
G01 F1250.00
G01 X21.3127 Y24.5971
G01 X21.3101 Y24.5932
G01 X21.3062 Y24.5906
G01 X21.3017 Y24.5897
G01 X21.2971 Y24.5906
G01 X21.2932 Y24.5932
G01 X21.2906 Y24.5971
G01 X21.2897 Y24.6017
G01 X21.2906 Y24.6062
G01 X21.2932 Y24.6101
G01 X21.2971 Y24.6127
G01 X21.3017 Y24.6137
G01 X21.3062 Y24.6127
G01 X21.3101 Y24.6101
G01 X21.3127 Y24.6062
G01 X21.3137 Y24.6017
G00 X21.3137 Y24.6017
G01 F250.00
G01 Z-0.7000
G01 F1250.00
G01 X21.3127 Y24.5971
G01 X21.3101 Y24.5932
G01 X21.3062 Y24.5906
G01 X21.3017 Y24.5897
G01 X21.2971 Y24.5906
G01 X21.2932 Y24.5932
G01 X21.2906 Y24.5971
G01 X21.2897 Y24.6017
G01 X21.2906 Y24.6062
G01 X21.2932 Y24.6101
G01 X21.2971 Y24.6127
G01 X21.3017 Y24.6137
G01 X21.3062 Y24.6127
G01 X21.3101 Y24.6101
G01 X21.3127 Y24.6062
G01 X21.3137 Y24.6017
G00 X21.3137 Y24.6017
G01 F250.00
G01 Z-0.8000
G01 F1250.00
G01 X21.3127 Y24.5971
G01 X21.3101 Y24.5932
G01 X21.3062 Y24.5906
G01 X21.3017 Y24.5897
G01 X21.2971 Y24.5906
G01 X21.2932 Y24.5932
G01 X21.2906 Y24.5971
G01 X21.2897 Y24.6017
G01 X21.2906 Y24.6062
G01 X21.2932 Y24.6101
G01 X21.2971 Y24.6127
G01 X21.3017 Y24.6137
G01 X21.3062 Y24.6127
G01 X21.3101 Y24.6101
G01 X21.3127 Y24.6062
G01 X21.3137 Y24.6017
G00 X21.3137 Y24.6017
G01 F250.00
G01 Z-0.9000
G01 F1250.00
G01 X21.3127 Y24.5971
G01 X21.3101 Y24.5932
G01 X21.3062 Y24.5906
G01 X21.3017 Y24.5897
G01 X21.2971 Y24.5906
G01 X21.2932 Y24.5932
G01 X21.2906 Y24.5971
G01 X21.2897 Y24.6017
G01 X21.2906 Y24.6062
G01 X21.2932 Y24.6101
G01 X21.2971 Y24.6127
G01 X21.3017 Y24.6137
G01 X21.3062 Y24.6127
G01 X21.3101 Y24.6101
G01 X21.3127 Y24.6062
G01 X21.3137 Y24.6017
G00 X21.3137 Y24.6017
G01 F250.00
G01 Z-1.0000
G01 F1250.00
G01 X21.3127 Y24.5971
G01 X21.3101 Y24.5932
G01 X21.3062 Y24.5906
G01 X21.3017 Y24.5897
G01 X21.2971 Y24.5906
G01 X21.2932 Y24.5932
G01 X21.2906 Y24.5971
G01 X21.2897 Y24.6017
G01 X21.2906 Y24.6062
G01 X21.2932 Y24.6101
G01 X21.2971 Y24.6127
G01 X21.3017 Y24.6137
G01 X21.3062 Y24.6127
G01 X21.3101 Y24.6101
G01 X21.3127 Y24.6062
G01 X21.3137 Y24.6017
G00 X21.3137 Y24.6017
G01 F250.00
G01 Z-1.1000
G01 F1250.00
G01 X21.3127 Y24.5971
G01 X21.3101 Y24.5932
G01 X21.3062 Y24.5906
G01 X21.3017 Y24.5897
G01 X21.2971 Y24.5906
G01 X21.2932 Y24.5932
G01 X21.2906 Y24.5971
G01 X21.2897 Y24.6017
G01 X21.2906 Y24.6062
G01 X21.2932 Y24.6101
G01 X21.2971 Y24.6127
G01 X21.3017 Y24.6137
G01 X21.3062 Y24.6127
G01 X21.3101 Y24.6101
G01 X21.3127 Y24.6062
G01 X21.3137 Y24.6017
G00 X21.3137 Y24.6017
G01 F250.00
G01 Z-1.2000
G01 F1250.00
G01 X21.3127 Y24.5971
G01 X21.3101 Y24.5932
G01 X21.3062 Y24.5906
G01 X21.3017 Y24.5897
G01 X21.2971 Y24.5906
G01 X21.2932 Y24.5932
G01 X21.2906 Y24.5971
G01 X21.2897 Y24.6017
G01 X21.2906 Y24.6062
G01 X21.2932 Y24.6101
G01 X21.2971 Y24.6127
G01 X21.3017 Y24.6137
G01 X21.3062 Y24.6127
G01 X21.3101 Y24.6101
G01 X21.3127 Y24.6062
G01 X21.3137 Y24.6017
G00 X21.3137 Y24.6017
G01 F250.00
G01 Z-1.3000
G01 F1250.00
G01 X21.3127 Y24.5971
G01 X21.3101 Y24.5932
G01 X21.3062 Y24.5906
G01 X21.3017 Y24.5897
G01 X21.2971 Y24.5906
G01 X21.2932 Y24.5932
G01 X21.2906 Y24.5971
G01 X21.2897 Y24.6017
G01 X21.2906 Y24.6062
G01 X21.2932 Y24.6101
G01 X21.2971 Y24.6127
G01 X21.3017 Y24.6137
G01 X21.3062 Y24.6127
G01 X21.3101 Y24.6101
G01 X21.3127 Y24.6062
G01 X21.3137 Y24.6017
G00 X21.3137 Y24.6017
G01 F250.00
G01 Z-1.4000
G01 F1250.00
G01 X21.3127 Y24.5971
G01 X21.3101 Y24.5932
G01 X21.3062 Y24.5906
G01 X21.3017 Y24.5897
G01 X21.2971 Y24.5906
G01 X21.2932 Y24.5932
G01 X21.2906 Y24.5971
G01 X21.2897 Y24.6017
G01 X21.2906 Y24.6062
G01 X21.2932 Y24.6101
G01 X21.2971 Y24.6127
G01 X21.3017 Y24.6137
G01 X21.3062 Y24.6127
G01 X21.3101 Y24.6101
G01 X21.3127 Y24.6062
G01 X21.3137 Y24.6017
G00 X21.3137 Y24.6017
G01 F250.00
G01 Z-1.5000
G01 F1250.00
G01 X21.3127 Y24.5971
G01 X21.3101 Y24.5932
G01 X21.3062 Y24.5906
G01 X21.3017 Y24.5897
G01 X21.2971 Y24.5906
G01 X21.2932 Y24.5932
G01 X21.2906 Y24.5971
G01 X21.2897 Y24.6017
G01 X21.2906 Y24.6062
G01 X21.2932 Y24.6101
G01 X21.2971 Y24.6127
G01 X21.3017 Y24.6137
G01 X21.3062 Y24.6127
G01 X21.3101 Y24.6101
G01 X21.3127 Y24.6062
G01 X21.3137 Y24.6017
G00 X21.3137 Y24.6017
G01 F250.00
G01 Z-1.6000
G01 F1250.00
G01 X21.3127 Y24.5971
G01 X21.3101 Y24.5932
G01 X21.3062 Y24.5906
G01 X21.3017 Y24.5897
G01 X21.2971 Y24.5906
G01 X21.2932 Y24.5932
G01 X21.2906 Y24.5971
G01 X21.2897 Y24.6017
G01 X21.2906 Y24.6062
G01 X21.2932 Y24.6101
G01 X21.2971 Y24.6127
G01 X21.3017 Y24.6137
G01 X21.3062 Y24.6127
G01 X21.3101 Y24.6101
G01 X21.3127 Y24.6062
G01 X21.3137 Y24.6017
G00 X21.3137 Y24.6017
G01 F250.00
G01 Z-1.7000
G01 F1250.00
G01 X21.3127 Y24.5971
G01 X21.3101 Y24.5932
G01 X21.3062 Y24.5906
G01 X21.3017 Y24.5897
G01 X21.2971 Y24.5906
G01 X21.2932 Y24.5932
G01 X21.2906 Y24.5971
G01 X21.2897 Y24.6017
G01 X21.2906 Y24.6062
G01 X21.2932 Y24.6101
G01 X21.2971 Y24.6127
G01 X21.3017 Y24.6137
G01 X21.3062 Y24.6127
G01 X21.3101 Y24.6101
G01 X21.3127 Y24.6062
G01 X21.3137 Y24.6017
G00 X21.3137 Y24.6017
G01 F250.00
G01 Z-1.8000
G01 F1250.00
G01 X21.3127 Y24.5971
G01 X21.3101 Y24.5932
G01 X21.3062 Y24.5906
G01 X21.3017 Y24.5897
G01 X21.2971 Y24.5906
G01 X21.2932 Y24.5932
G01 X21.2906 Y24.5971
G01 X21.2897 Y24.6017
G01 X21.2906 Y24.6062
G01 X21.2932 Y24.6101
G01 X21.2971 Y24.6127
G01 X21.3017 Y24.6137
G01 X21.3062 Y24.6127
G01 X21.3101 Y24.6101
G01 X21.3127 Y24.6062
G01 X21.3137 Y24.6017
G00 Z0.5000
G00 X21.3137 Y12.6017
G01 F250.00
G01 Z-0.1000
G01 F1250.00
G01 X21.3127 Y12.5971
G01 X21.3101 Y12.5932
G01 X21.3062 Y12.5906
G01 X21.3017 Y12.5897
G01 X21.2971 Y12.5906
G01 X21.2932 Y12.5932
G01 X21.2906 Y12.5971
G01 X21.2897 Y12.6017
G01 X21.2906 Y12.6062
G01 X21.2932 Y12.6101
G01 X21.2971 Y12.6127
G01 X21.3017 Y12.6137
G01 X21.3062 Y12.6127
G01 X21.3101 Y12.6101
G01 X21.3127 Y12.6062
G01 X21.3137 Y12.6017
G00 X21.3137 Y12.6017
G01 F250.00
G01 Z-0.2000
G01 F1250.00
G01 X21.3127 Y12.5971
G01 X21.3101 Y12.5932
G01 X21.3062 Y12.5906
G01 X21.3017 Y12.5897
G01 X21.2971 Y12.5906
G01 X21.2932 Y12.5932
G01 X21.2906 Y12.5971
G01 X21.2897 Y12.6017
G01 X21.2906 Y12.6062
G01 X21.2932 Y12.6101
G01 X21.2971 Y12.6127
G01 X21.3017 Y12.6137
G01 X21.3062 Y12.6127
G01 X21.3101 Y12.6101
G01 X21.3127 Y12.6062
G01 X21.3137 Y12.6017
G00 X21.3137 Y12.6017
G01 F250.00
G01 Z-0.3000
G01 F1250.00
G01 X21.3127 Y12.5971
G01 X21.3101 Y12.5932
G01 X21.3062 Y12.5906
G01 X21.3017 Y12.5897
G01 X21.2971 Y12.5906
G01 X21.2932 Y12.5932
G01 X21.2906 Y12.5971
G01 X21.2897 Y12.6017
G01 X21.2906 Y12.6062
G01 X21.2932 Y12.6101
G01 X21.2971 Y12.6127
G01 X21.3017 Y12.6137
G01 X21.3062 Y12.6127
G01 X21.3101 Y12.6101
G01 X21.3127 Y12.6062
G01 X21.3137 Y12.6017
G00 X21.3137 Y12.6017
G01 F250.00
G01 Z-0.4000
G01 F1250.00
G01 X21.3127 Y12.5971
G01 X21.3101 Y12.5932
G01 X21.3062 Y12.5906
G01 X21.3017 Y12.5897
G01 X21.2971 Y12.5906
G01 X21.2932 Y12.5932
G01 X21.2906 Y12.5971
G01 X21.2897 Y12.6017
G01 X21.2906 Y12.6062
G01 X21.2932 Y12.6101
G01 X21.2971 Y12.6127
G01 X21.3017 Y12.6137
G01 X21.3062 Y12.6127
G01 X21.3101 Y12.6101
G01 X21.3127 Y12.6062
G01 X21.3137 Y12.6017
G00 X21.3137 Y12.6017
G01 F250.00
G01 Z-0.5000
G01 F1250.00
G01 X21.3127 Y12.5971
G01 X21.3101 Y12.5932
G01 X21.3062 Y12.5906
G01 X21.3017 Y12.5897
G01 X21.2971 Y12.5906
G01 X21.2932 Y12.5932
G01 X21.2906 Y12.5971
G01 X21.2897 Y12.6017
G01 X21.2906 Y12.6062
G01 X21.2932 Y12.6101
G01 X21.2971 Y12.6127
G01 X21.3017 Y12.6137
G01 X21.3062 Y12.6127
G01 X21.3101 Y12.6101
G01 X21.3127 Y12.6062
G01 X21.3137 Y12.6017
G00 X21.3137 Y12.6017
G01 F250.00
G01 Z-0.6000
G01 F1250.00
G01 X21.3127 Y12.5971
G01 X21.3101 Y12.5932
G01 X21.3062 Y12.5906
G01 X21.3017 Y12.5897
G01 X21.2971 Y12.5906
G01 X21.2932 Y12.5932
G01 X21.2906 Y12.5971
G01 X21.2897 Y12.6017
G01 X21.2906 Y12.6062
G01 X21.2932 Y12.6101
G01 X21.2971 Y12.6127
G01 X21.3017 Y12.6137
G01 X21.3062 Y12.6127
G01 X21.3101 Y12.6101
G01 X21.3127 Y12.6062
G01 X21.3137 Y12.6017
G00 X21.3137 Y12.6017
G01 F250.00
G01 Z-0.7000
G01 F1250.00
G01 X21.3127 Y12.5971
G01 X21.3101 Y12.5932
G01 X21.3062 Y12.5906
G01 X21.3017 Y12.5897
G01 X21.2971 Y12.5906
G01 X21.2932 Y12.5932
G01 X21.2906 Y12.5971
G01 X21.2897 Y12.6017
G01 X21.2906 Y12.6062
G01 X21.2932 Y12.6101
G01 X21.2971 Y12.6127
G01 X21.3017 Y12.6137
G01 X21.3062 Y12.6127
G01 X21.3101 Y12.6101
G01 X21.3127 Y12.6062
G01 X21.3137 Y12.6017
G00 X21.3137 Y12.6017
G01 F250.00
G01 Z-0.8000
G01 F1250.00
G01 X21.3127 Y12.5971
G01 X21.3101 Y12.5932
G01 X21.3062 Y12.5906
G01 X21.3017 Y12.5897
G01 X21.2971 Y12.5906
G01 X21.2932 Y12.5932
G01 X21.2906 Y12.5971
G01 X21.2897 Y12.6017
G01 X21.2906 Y12.6062
G01 X21.2932 Y12.6101
G01 X21.2971 Y12.6127
G01 X21.3017 Y12.6137
G01 X21.3062 Y12.6127
G01 X21.3101 Y12.6101
G01 X21.3127 Y12.6062
G01 X21.3137 Y12.6017
G00 X21.3137 Y12.6017
G01 F250.00
G01 Z-0.9000
G01 F1250.00
G01 X21.3127 Y12.5971
G01 X21.3101 Y12.5932
G01 X21.3062 Y12.5906
G01 X21.3017 Y12.5897
G01 X21.2971 Y12.5906
G01 X21.2932 Y12.5932
G01 X21.2906 Y12.5971
G01 X21.2897 Y12.6017
G01 X21.2906 Y12.6062
G01 X21.2932 Y12.6101
G01 X21.2971 Y12.6127
G01 X21.3017 Y12.6137
G01 X21.3062 Y12.6127
G01 X21.3101 Y12.6101
G01 X21.3127 Y12.6062
G01 X21.3137 Y12.6017
G00 X21.3137 Y12.6017
G01 F250.00
G01 Z-1.0000
G01 F1250.00
G01 X21.3127 Y12.5971
G01 X21.3101 Y12.5932
G01 X21.3062 Y12.5906
G01 X21.3017 Y12.5897
G01 X21.2971 Y12.5906
G01 X21.2932 Y12.5932
G01 X21.2906 Y12.5971
G01 X21.2897 Y12.6017
G01 X21.2906 Y12.6062
G01 X21.2932 Y12.6101
G01 X21.2971 Y12.6127
G01 X21.3017 Y12.6137
G01 X21.3062 Y12.6127
G01 X21.3101 Y12.6101
G01 X21.3127 Y12.6062
G01 X21.3137 Y12.6017
G00 X21.3137 Y12.6017
G01 F250.00
G01 Z-1.1000
G01 F1250.00
G01 X21.3127 Y12.5971
G01 X21.3101 Y12.5932
G01 X21.3062 Y12.5906
G01 X21.3017 Y12.5897
G01 X21.2971 Y12.5906
G01 X21.2932 Y12.5932
G01 X21.2906 Y12.5971
G01 X21.2897 Y12.6017
G01 X21.2906 Y12.6062
G01 X21.2932 Y12.6101
G01 X21.2971 Y12.6127
G01 X21.3017 Y12.6137
G01 X21.3062 Y12.6127
G01 X21.3101 Y12.6101
G01 X21.3127 Y12.6062
G01 X21.3137 Y12.6017
G00 X21.3137 Y12.6017
G01 F250.00
G01 Z-1.2000
G01 F1250.00
G01 X21.3127 Y12.5971
G01 X21.3101 Y12.5932
G01 X21.3062 Y12.5906
G01 X21.3017 Y12.5897
G01 X21.2971 Y12.5906
G01 X21.2932 Y12.5932
G01 X21.2906 Y12.5971
G01 X21.2897 Y12.6017
G01 X21.2906 Y12.6062
G01 X21.2932 Y12.6101
G01 X21.2971 Y12.6127
G01 X21.3017 Y12.6137
G01 X21.3062 Y12.6127
G01 X21.3101 Y12.6101
G01 X21.3127 Y12.6062
G01 X21.3137 Y12.6017
G00 X21.3137 Y12.6017
G01 F250.00
G01 Z-1.3000
G01 F1250.00
G01 X21.3127 Y12.5971
G01 X21.3101 Y12.5932
G01 X21.3062 Y12.5906
G01 X21.3017 Y12.5897
G01 X21.2971 Y12.5906
G01 X21.2932 Y12.5932
G01 X21.2906 Y12.5971
G01 X21.2897 Y12.6017
G01 X21.2906 Y12.6062
G01 X21.2932 Y12.6101
G01 X21.2971 Y12.6127
G01 X21.3017 Y12.6137
G01 X21.3062 Y12.6127
G01 X21.3101 Y12.6101
G01 X21.3127 Y12.6062
G01 X21.3137 Y12.6017
G00 X21.3137 Y12.6017
G01 F250.00
G01 Z-1.4000
G01 F1250.00
G01 X21.3127 Y12.5971
G01 X21.3101 Y12.5932
G01 X21.3062 Y12.5906
G01 X21.3017 Y12.5897
G01 X21.2971 Y12.5906
G01 X21.2932 Y12.5932
G01 X21.2906 Y12.5971
G01 X21.2897 Y12.6017
G01 X21.2906 Y12.6062
G01 X21.2932 Y12.6101
G01 X21.2971 Y12.6127
G01 X21.3017 Y12.6137
G01 X21.3062 Y12.6127
G01 X21.3101 Y12.6101
G01 X21.3127 Y12.6062
G01 X21.3137 Y12.6017
G00 X21.3137 Y12.6017
G01 F250.00
G01 Z-1.5000
G01 F1250.00
G01 X21.3127 Y12.5971
G01 X21.3101 Y12.5932
G01 X21.3062 Y12.5906
G01 X21.3017 Y12.5897
G01 X21.2971 Y12.5906
G01 X21.2932 Y12.5932
G01 X21.2906 Y12.5971
G01 X21.2897 Y12.6017
G01 X21.2906 Y12.6062
G01 X21.2932 Y12.6101
G01 X21.2971 Y12.6127
G01 X21.3017 Y12.6137
G01 X21.3062 Y12.6127
G01 X21.3101 Y12.6101
G01 X21.3127 Y12.6062
G01 X21.3137 Y12.6017
G00 X21.3137 Y12.6017
G01 F250.00
G01 Z-1.6000
G01 F1250.00
G01 X21.3127 Y12.5971
G01 X21.3101 Y12.5932
G01 X21.3062 Y12.5906
G01 X21.3017 Y12.5897
G01 X21.2971 Y12.5906
G01 X21.2932 Y12.5932
G01 X21.2906 Y12.5971
G01 X21.2897 Y12.6017
G01 X21.2906 Y12.6062
G01 X21.2932 Y12.6101
G01 X21.2971 Y12.6127
G01 X21.3017 Y12.6137
G01 X21.3062 Y12.6127
G01 X21.3101 Y12.6101
G01 X21.3127 Y12.6062
G01 X21.3137 Y12.6017
G00 X21.3137 Y12.6017
G01 F250.00
G01 Z-1.7000
G01 F1250.00
G01 X21.3127 Y12.5971
G01 X21.3101 Y12.5932
G01 X21.3062 Y12.5906
G01 X21.3017 Y12.5897
G01 X21.2971 Y12.5906
G01 X21.2932 Y12.5932
G01 X21.2906 Y12.5971
G01 X21.2897 Y12.6017
G01 X21.2906 Y12.6062
G01 X21.2932 Y12.6101
G01 X21.2971 Y12.6127
G01 X21.3017 Y12.6137
G01 X21.3062 Y12.6127
G01 X21.3101 Y12.6101
G01 X21.3127 Y12.6062
G01 X21.3137 Y12.6017
G00 X21.3137 Y12.6017
G01 F250.00
G01 Z-1.8000
G01 F1250.00
G01 X21.3127 Y12.5971
G01 X21.3101 Y12.5932
G01 X21.3062 Y12.5906
G01 X21.3017 Y12.5897
G01 X21.2971 Y12.5906
G01 X21.2932 Y12.5932
G01 X21.2906 Y12.5971
G01 X21.2897 Y12.6017
G01 X21.2906 Y12.6062
G01 X21.2932 Y12.6101
G01 X21.2971 Y12.6127
G01 X21.3017 Y12.6137
G01 X21.3062 Y12.6127
G01 X21.3101 Y12.6101
G01 X21.3127 Y12.6062
G01 X21.3137 Y12.6017
G00 Z0.5000
G00 X33.8137 Y12.6017
G01 F250.00
G01 Z-0.1000
G01 F1250.00
G01 X33.8127 Y12.5971
G01 X33.8101 Y12.5932
G01 X33.8062 Y12.5906
G01 X33.8017 Y12.5897
G01 X33.7971 Y12.5906
G01 X33.7932 Y12.5932
G01 X33.7906 Y12.5971
G01 X33.7897 Y12.6017
G01 X33.7906 Y12.6062
G01 X33.7932 Y12.6101
G01 X33.7971 Y12.6127
G01 X33.8017 Y12.6137
G01 X33.8062 Y12.6127
G01 X33.8101 Y12.6101
G01 X33.8127 Y12.6062
G01 X33.8137 Y12.6017
G00 X33.8137 Y12.6017
G01 F250.00
G01 Z-0.2000
G01 F1250.00
G01 X33.8127 Y12.5971
G01 X33.8101 Y12.5932
G01 X33.8062 Y12.5906
G01 X33.8017 Y12.5897
G01 X33.7971 Y12.5906
G01 X33.7932 Y12.5932
G01 X33.7906 Y12.5971
G01 X33.7897 Y12.6017
G01 X33.7906 Y12.6062
G01 X33.7932 Y12.6101
G01 X33.7971 Y12.6127
G01 X33.8017 Y12.6137
G01 X33.8062 Y12.6127
G01 X33.8101 Y12.6101
G01 X33.8127 Y12.6062
G01 X33.8137 Y12.6017
G00 X33.8137 Y12.6017
G01 F250.00
G01 Z-0.3000
G01 F1250.00
G01 X33.8127 Y12.5971
G01 X33.8101 Y12.5932
G01 X33.8062 Y12.5906
G01 X33.8017 Y12.5897
G01 X33.7971 Y12.5906
G01 X33.7932 Y12.5932
G01 X33.7906 Y12.5971
G01 X33.7897 Y12.6017
G01 X33.7906 Y12.6062
G01 X33.7932 Y12.6101
G01 X33.7971 Y12.6127
G01 X33.8017 Y12.6137
G01 X33.8062 Y12.6127
G01 X33.8101 Y12.6101
G01 X33.8127 Y12.6062
G01 X33.8137 Y12.6017
G00 X33.8137 Y12.6017
G01 F250.00
G01 Z-0.4000
G01 F1250.00
G01 X33.8127 Y12.5971
G01 X33.8101 Y12.5932
G01 X33.8062 Y12.5906
G01 X33.8017 Y12.5897
G01 X33.7971 Y12.5906
G01 X33.7932 Y12.5932
G01 X33.7906 Y12.5971
G01 X33.7897 Y12.6017
G01 X33.7906 Y12.6062
G01 X33.7932 Y12.6101
G01 X33.7971 Y12.6127
G01 X33.8017 Y12.6137
G01 X33.8062 Y12.6127
G01 X33.8101 Y12.6101
G01 X33.8127 Y12.6062
G01 X33.8137 Y12.6017
G00 X33.8137 Y12.6017
G01 F250.00
G01 Z-0.5000
G01 F1250.00
G01 X33.8127 Y12.5971
G01 X33.8101 Y12.5932
G01 X33.8062 Y12.5906
G01 X33.8017 Y12.5897
G01 X33.7971 Y12.5906
G01 X33.7932 Y12.5932
G01 X33.7906 Y12.5971
G01 X33.7897 Y12.6017
G01 X33.7906 Y12.6062
G01 X33.7932 Y12.6101
G01 X33.7971 Y12.6127
G01 X33.8017 Y12.6137
G01 X33.8062 Y12.6127
G01 X33.8101 Y12.6101
G01 X33.8127 Y12.6062
G01 X33.8137 Y12.6017
G00 X33.8137 Y12.6017
G01 F250.00
G01 Z-0.6000
G01 F1250.00
G01 X33.8127 Y12.5971
G01 X33.8101 Y12.5932
G01 X33.8062 Y12.5906
G01 X33.8017 Y12.5897
G01 X33.7971 Y12.5906
G01 X33.7932 Y12.5932
G01 X33.7906 Y12.5971
G01 X33.7897 Y12.6017
G01 X33.7906 Y12.6062
G01 X33.7932 Y12.6101
G01 X33.7971 Y12.6127
G01 X33.8017 Y12.6137
G01 X33.8062 Y12.6127
G01 X33.8101 Y12.6101
G01 X33.8127 Y12.6062
G01 X33.8137 Y12.6017
G00 X33.8137 Y12.6017
G01 F250.00
G01 Z-0.7000
G01 F1250.00
G01 X33.8127 Y12.5971
G01 X33.8101 Y12.5932
G01 X33.8062 Y12.5906
G01 X33.8017 Y12.5897
G01 X33.7971 Y12.5906
G01 X33.7932 Y12.5932
G01 X33.7906 Y12.5971
G01 X33.7897 Y12.6017
G01 X33.7906 Y12.6062
G01 X33.7932 Y12.6101
G01 X33.7971 Y12.6127
G01 X33.8017 Y12.6137
G01 X33.8062 Y12.6127
G01 X33.8101 Y12.6101
G01 X33.8127 Y12.6062
G01 X33.8137 Y12.6017
G00 X33.8137 Y12.6017
G01 F250.00
G01 Z-0.8000
G01 F1250.00
G01 X33.8127 Y12.5971
G01 X33.8101 Y12.5932
G01 X33.8062 Y12.5906
G01 X33.8017 Y12.5897
G01 X33.7971 Y12.5906
G01 X33.7932 Y12.5932
G01 X33.7906 Y12.5971
G01 X33.7897 Y12.6017
G01 X33.7906 Y12.6062
G01 X33.7932 Y12.6101
G01 X33.7971 Y12.6127
G01 X33.8017 Y12.6137
G01 X33.8062 Y12.6127
G01 X33.8101 Y12.6101
G01 X33.8127 Y12.6062
G01 X33.8137 Y12.6017
G00 X33.8137 Y12.6017
G01 F250.00
G01 Z-0.9000
G01 F1250.00
G01 X33.8127 Y12.5971
G01 X33.8101 Y12.5932
G01 X33.8062 Y12.5906
G01 X33.8017 Y12.5897
G01 X33.7971 Y12.5906
G01 X33.7932 Y12.5932
G01 X33.7906 Y12.5971
G01 X33.7897 Y12.6017
G01 X33.7906 Y12.6062
G01 X33.7932 Y12.6101
G01 X33.7971 Y12.6127
G01 X33.8017 Y12.6137
G01 X33.8062 Y12.6127
G01 X33.8101 Y12.6101
G01 X33.8127 Y12.6062
G01 X33.8137 Y12.6017
G00 X33.8137 Y12.6017
G01 F250.00
G01 Z-1.0000
G01 F1250.00
G01 X33.8127 Y12.5971
G01 X33.8101 Y12.5932
G01 X33.8062 Y12.5906
G01 X33.8017 Y12.5897
G01 X33.7971 Y12.5906
G01 X33.7932 Y12.5932
G01 X33.7906 Y12.5971
G01 X33.7897 Y12.6017
G01 X33.7906 Y12.6062
G01 X33.7932 Y12.6101
G01 X33.7971 Y12.6127
G01 X33.8017 Y12.6137
G01 X33.8062 Y12.6127
G01 X33.8101 Y12.6101
G01 X33.8127 Y12.6062
G01 X33.8137 Y12.6017
G00 X33.8137 Y12.6017
G01 F250.00
G01 Z-1.1000
G01 F1250.00
G01 X33.8127 Y12.5971
G01 X33.8101 Y12.5932
G01 X33.8062 Y12.5906
G01 X33.8017 Y12.5897
G01 X33.7971 Y12.5906
G01 X33.7932 Y12.5932
G01 X33.7906 Y12.5971
G01 X33.7897 Y12.6017
G01 X33.7906 Y12.6062
G01 X33.7932 Y12.6101
G01 X33.7971 Y12.6127
G01 X33.8017 Y12.6137
G01 X33.8062 Y12.6127
G01 X33.8101 Y12.6101
G01 X33.8127 Y12.6062
G01 X33.8137 Y12.6017
G00 X33.8137 Y12.6017
G01 F250.00
G01 Z-1.2000
G01 F1250.00
G01 X33.8127 Y12.5971
G01 X33.8101 Y12.5932
G01 X33.8062 Y12.5906
G01 X33.8017 Y12.5897
G01 X33.7971 Y12.5906
G01 X33.7932 Y12.5932
G01 X33.7906 Y12.5971
G01 X33.7897 Y12.6017
G01 X33.7906 Y12.6062
G01 X33.7932 Y12.6101
G01 X33.7971 Y12.6127
G01 X33.8017 Y12.6137
G01 X33.8062 Y12.6127
G01 X33.8101 Y12.6101
G01 X33.8127 Y12.6062
G01 X33.8137 Y12.6017
G00 X33.8137 Y12.6017
G01 F250.00
G01 Z-1.3000
G01 F1250.00
G01 X33.8127 Y12.5971
G01 X33.8101 Y12.5932
G01 X33.8062 Y12.5906
G01 X33.8017 Y12.5897
G01 X33.7971 Y12.5906
G01 X33.7932 Y12.5932
G01 X33.7906 Y12.5971
G01 X33.7897 Y12.6017
G01 X33.7906 Y12.6062
G01 X33.7932 Y12.6101
G01 X33.7971 Y12.6127
G01 X33.8017 Y12.6137
G01 X33.8062 Y12.6127
G01 X33.8101 Y12.6101
G01 X33.8127 Y12.6062
G01 X33.8137 Y12.6017
G00 X33.8137 Y12.6017
G01 F250.00
G01 Z-1.4000
G01 F1250.00
G01 X33.8127 Y12.5971
G01 X33.8101 Y12.5932
G01 X33.8062 Y12.5906
G01 X33.8017 Y12.5897
G01 X33.7971 Y12.5906
G01 X33.7932 Y12.5932
G01 X33.7906 Y12.5971
G01 X33.7897 Y12.6017
G01 X33.7906 Y12.6062
G01 X33.7932 Y12.6101
G01 X33.7971 Y12.6127
G01 X33.8017 Y12.6137
G01 X33.8062 Y12.6127
G01 X33.8101 Y12.6101
G01 X33.8127 Y12.6062
G01 X33.8137 Y12.6017
G00 X33.8137 Y12.6017
G01 F250.00
G01 Z-1.5000
G01 F1250.00
G01 X33.8127 Y12.5971
G01 X33.8101 Y12.5932
G01 X33.8062 Y12.5906
G01 X33.8017 Y12.5897
G01 X33.7971 Y12.5906
G01 X33.7932 Y12.5932
G01 X33.7906 Y12.5971
G01 X33.7897 Y12.6017
G01 X33.7906 Y12.6062
G01 X33.7932 Y12.6101
G01 X33.7971 Y12.6127
G01 X33.8017 Y12.6137
G01 X33.8062 Y12.6127
G01 X33.8101 Y12.6101
G01 X33.8127 Y12.6062
G01 X33.8137 Y12.6017
G00 X33.8137 Y12.6017
G01 F250.00
G01 Z-1.6000
G01 F1250.00
G01 X33.8127 Y12.5971
G01 X33.8101 Y12.5932
G01 X33.8062 Y12.5906
G01 X33.8017 Y12.5897
G01 X33.7971 Y12.5906
G01 X33.7932 Y12.5932
G01 X33.7906 Y12.5971
G01 X33.7897 Y12.6017
G01 X33.7906 Y12.6062
G01 X33.7932 Y12.6101
G01 X33.7971 Y12.6127
G01 X33.8017 Y12.6137
G01 X33.8062 Y12.6127
G01 X33.8101 Y12.6101
G01 X33.8127 Y12.6062
G01 X33.8137 Y12.6017
G00 X33.8137 Y12.6017
G01 F250.00
G01 Z-1.7000
G01 F1250.00
G01 X33.8127 Y12.5971
G01 X33.8101 Y12.5932
G01 X33.8062 Y12.5906
G01 X33.8017 Y12.5897
G01 X33.7971 Y12.5906
G01 X33.7932 Y12.5932
G01 X33.7906 Y12.5971
G01 X33.7897 Y12.6017
G01 X33.7906 Y12.6062
G01 X33.7932 Y12.6101
G01 X33.7971 Y12.6127
G01 X33.8017 Y12.6137
G01 X33.8062 Y12.6127
G01 X33.8101 Y12.6101
G01 X33.8127 Y12.6062
G01 X33.8137 Y12.6017
G00 X33.8137 Y12.6017
G01 F250.00
G01 Z-1.8000
G01 F1250.00
G01 X33.8127 Y12.5971
G01 X33.8101 Y12.5932
G01 X33.8062 Y12.5906
G01 X33.8017 Y12.5897
G01 X33.7971 Y12.5906
G01 X33.7932 Y12.5932
G01 X33.7906 Y12.5971
G01 X33.7897 Y12.6017
G01 X33.7906 Y12.6062
G01 X33.7932 Y12.6101
G01 X33.7971 Y12.6127
G01 X33.8017 Y12.6137
G01 X33.8062 Y12.6127
G01 X33.8101 Y12.6101
G01 X33.8127 Y12.6062
G01 X33.8137 Y12.6017
G00 Z0.5000
G00 X35.8137 Y18.6017
G01 F250.00
G01 Z-0.1000
G01 F1250.00
G01 X35.8127 Y18.5971
G01 X35.8101 Y18.5932
G01 X35.8062 Y18.5906
G01 X35.8017 Y18.5897
G01 X35.7971 Y18.5906
G01 X35.7932 Y18.5932
G01 X35.7906 Y18.5971
G01 X35.7897 Y18.6017
G01 X35.7906 Y18.6062
G01 X35.7932 Y18.6101
G01 X35.7971 Y18.6127
G01 X35.8017 Y18.6137
G01 X35.8062 Y18.6127
G01 X35.8101 Y18.6101
G01 X35.8127 Y18.6062
G01 X35.8137 Y18.6017
G00 X35.8137 Y18.6017
G01 F250.00
G01 Z-0.2000
G01 F1250.00
G01 X35.8127 Y18.5971
G01 X35.8101 Y18.5932
G01 X35.8062 Y18.5906
G01 X35.8017 Y18.5897
G01 X35.7971 Y18.5906
G01 X35.7932 Y18.5932
G01 X35.7906 Y18.5971
G01 X35.7897 Y18.6017
G01 X35.7906 Y18.6062
G01 X35.7932 Y18.6101
G01 X35.7971 Y18.6127
G01 X35.8017 Y18.6137
G01 X35.8062 Y18.6127
G01 X35.8101 Y18.6101
G01 X35.8127 Y18.6062
G01 X35.8137 Y18.6017
G00 X35.8137 Y18.6017
G01 F250.00
G01 Z-0.3000
G01 F1250.00
G01 X35.8127 Y18.5971
G01 X35.8101 Y18.5932
G01 X35.8062 Y18.5906
G01 X35.8017 Y18.5897
G01 X35.7971 Y18.5906
G01 X35.7932 Y18.5932
G01 X35.7906 Y18.5971
G01 X35.7897 Y18.6017
G01 X35.7906 Y18.6062
G01 X35.7932 Y18.6101
G01 X35.7971 Y18.6127
G01 X35.8017 Y18.6137
G01 X35.8062 Y18.6127
G01 X35.8101 Y18.6101
G01 X35.8127 Y18.6062
G01 X35.8137 Y18.6017
G00 X35.8137 Y18.6017
G01 F250.00
G01 Z-0.4000
G01 F1250.00
G01 X35.8127 Y18.5971
G01 X35.8101 Y18.5932
G01 X35.8062 Y18.5906
G01 X35.8017 Y18.5897
G01 X35.7971 Y18.5906
G01 X35.7932 Y18.5932
G01 X35.7906 Y18.5971
G01 X35.7897 Y18.6017
G01 X35.7906 Y18.6062
G01 X35.7932 Y18.6101
G01 X35.7971 Y18.6127
G01 X35.8017 Y18.6137
G01 X35.8062 Y18.6127
G01 X35.8101 Y18.6101
G01 X35.8127 Y18.6062
G01 X35.8137 Y18.6017
G00 X35.8137 Y18.6017
G01 F250.00
G01 Z-0.5000
G01 F1250.00
G01 X35.8127 Y18.5971
G01 X35.8101 Y18.5932
G01 X35.8062 Y18.5906
G01 X35.8017 Y18.5897
G01 X35.7971 Y18.5906
G01 X35.7932 Y18.5932
G01 X35.7906 Y18.5971
G01 X35.7897 Y18.6017
G01 X35.7906 Y18.6062
G01 X35.7932 Y18.6101
G01 X35.7971 Y18.6127
G01 X35.8017 Y18.6137
G01 X35.8062 Y18.6127
G01 X35.8101 Y18.6101
G01 X35.8127 Y18.6062
G01 X35.8137 Y18.6017
G00 X35.8137 Y18.6017
G01 F250.00
G01 Z-0.6000
G01 F1250.00
G01 X35.8127 Y18.5971
G01 X35.8101 Y18.5932
G01 X35.8062 Y18.5906
G01 X35.8017 Y18.5897
G01 X35.7971 Y18.5906
G01 X35.7932 Y18.5932
G01 X35.7906 Y18.5971
G01 X35.7897 Y18.6017
G01 X35.7906 Y18.6062
G01 X35.7932 Y18.6101
G01 X35.7971 Y18.6127
G01 X35.8017 Y18.6137
G01 X35.8062 Y18.6127
G01 X35.8101 Y18.6101
G01 X35.8127 Y18.6062
G01 X35.8137 Y18.6017
G00 X35.8137 Y18.6017
G01 F250.00
G01 Z-0.7000
G01 F1250.00
G01 X35.8127 Y18.5971
G01 X35.8101 Y18.5932
G01 X35.8062 Y18.5906
G01 X35.8017 Y18.5897
G01 X35.7971 Y18.5906
G01 X35.7932 Y18.5932
G01 X35.7906 Y18.5971
G01 X35.7897 Y18.6017
G01 X35.7906 Y18.6062
G01 X35.7932 Y18.6101
G01 X35.7971 Y18.6127
G01 X35.8017 Y18.6137
G01 X35.8062 Y18.6127
G01 X35.8101 Y18.6101
G01 X35.8127 Y18.6062
G01 X35.8137 Y18.6017
G00 X35.8137 Y18.6017
G01 F250.00
G01 Z-0.8000
G01 F1250.00
G01 X35.8127 Y18.5971
G01 X35.8101 Y18.5932
G01 X35.8062 Y18.5906
G01 X35.8017 Y18.5897
G01 X35.7971 Y18.5906
G01 X35.7932 Y18.5932
G01 X35.7906 Y18.5971
G01 X35.7897 Y18.6017
G01 X35.7906 Y18.6062
G01 X35.7932 Y18.6101
G01 X35.7971 Y18.6127
G01 X35.8017 Y18.6137
G01 X35.8062 Y18.6127
G01 X35.8101 Y18.6101
G01 X35.8127 Y18.6062
G01 X35.8137 Y18.6017
G00 X35.8137 Y18.6017
G01 F250.00
G01 Z-0.9000
G01 F1250.00
G01 X35.8127 Y18.5971
G01 X35.8101 Y18.5932
G01 X35.8062 Y18.5906
G01 X35.8017 Y18.5897
G01 X35.7971 Y18.5906
G01 X35.7932 Y18.5932
G01 X35.7906 Y18.5971
G01 X35.7897 Y18.6017
G01 X35.7906 Y18.6062
G01 X35.7932 Y18.6101
G01 X35.7971 Y18.6127
G01 X35.8017 Y18.6137
G01 X35.8062 Y18.6127
G01 X35.8101 Y18.6101
G01 X35.8127 Y18.6062
G01 X35.8137 Y18.6017
G00 X35.8137 Y18.6017
G01 F250.00
G01 Z-1.0000
G01 F1250.00
G01 X35.8127 Y18.5971
G01 X35.8101 Y18.5932
G01 X35.8062 Y18.5906
G01 X35.8017 Y18.5897
G01 X35.7971 Y18.5906
G01 X35.7932 Y18.5932
G01 X35.7906 Y18.5971
G01 X35.7897 Y18.6017
G01 X35.7906 Y18.6062
G01 X35.7932 Y18.6101
G01 X35.7971 Y18.6127
G01 X35.8017 Y18.6137
G01 X35.8062 Y18.6127
G01 X35.8101 Y18.6101
G01 X35.8127 Y18.6062
G01 X35.8137 Y18.6017
G00 X35.8137 Y18.6017
G01 F250.00
G01 Z-1.1000
G01 F1250.00
G01 X35.8127 Y18.5971
G01 X35.8101 Y18.5932
G01 X35.8062 Y18.5906
G01 X35.8017 Y18.5897
G01 X35.7971 Y18.5906
G01 X35.7932 Y18.5932
G01 X35.7906 Y18.5971
G01 X35.7897 Y18.6017
G01 X35.7906 Y18.6062
G01 X35.7932 Y18.6101
G01 X35.7971 Y18.6127
G01 X35.8017 Y18.6137
G01 X35.8062 Y18.6127
G01 X35.8101 Y18.6101
G01 X35.8127 Y18.6062
G01 X35.8137 Y18.6017
G00 X35.8137 Y18.6017
G01 F250.00
G01 Z-1.2000
G01 F1250.00
G01 X35.8127 Y18.5971
G01 X35.8101 Y18.5932
G01 X35.8062 Y18.5906
G01 X35.8017 Y18.5897
G01 X35.7971 Y18.5906
G01 X35.7932 Y18.5932
G01 X35.7906 Y18.5971
G01 X35.7897 Y18.6017
G01 X35.7906 Y18.6062
G01 X35.7932 Y18.6101
G01 X35.7971 Y18.6127
G01 X35.8017 Y18.6137
G01 X35.8062 Y18.6127
G01 X35.8101 Y18.6101
G01 X35.8127 Y18.6062
G01 X35.8137 Y18.6017
G00 X35.8137 Y18.6017
G01 F250.00
G01 Z-1.3000
G01 F1250.00
G01 X35.8127 Y18.5971
G01 X35.8101 Y18.5932
G01 X35.8062 Y18.5906
G01 X35.8017 Y18.5897
G01 X35.7971 Y18.5906
G01 X35.7932 Y18.5932
G01 X35.7906 Y18.5971
G01 X35.7897 Y18.6017
G01 X35.7906 Y18.6062
G01 X35.7932 Y18.6101
G01 X35.7971 Y18.6127
G01 X35.8017 Y18.6137
G01 X35.8062 Y18.6127
G01 X35.8101 Y18.6101
G01 X35.8127 Y18.6062
G01 X35.8137 Y18.6017
G00 X35.8137 Y18.6017
G01 F250.00
G01 Z-1.4000
G01 F1250.00
G01 X35.8127 Y18.5971
G01 X35.8101 Y18.5932
G01 X35.8062 Y18.5906
G01 X35.8017 Y18.5897
G01 X35.7971 Y18.5906
G01 X35.7932 Y18.5932
G01 X35.7906 Y18.5971
G01 X35.7897 Y18.6017
G01 X35.7906 Y18.6062
G01 X35.7932 Y18.6101
G01 X35.7971 Y18.6127
G01 X35.8017 Y18.6137
G01 X35.8062 Y18.6127
G01 X35.8101 Y18.6101
G01 X35.8127 Y18.6062
G01 X35.8137 Y18.6017
G00 X35.8137 Y18.6017
G01 F250.00
G01 Z-1.5000
G01 F1250.00
G01 X35.8127 Y18.5971
G01 X35.8101 Y18.5932
G01 X35.8062 Y18.5906
G01 X35.8017 Y18.5897
G01 X35.7971 Y18.5906
G01 X35.7932 Y18.5932
G01 X35.7906 Y18.5971
G01 X35.7897 Y18.6017
G01 X35.7906 Y18.6062
G01 X35.7932 Y18.6101
G01 X35.7971 Y18.6127
G01 X35.8017 Y18.6137
G01 X35.8062 Y18.6127
G01 X35.8101 Y18.6101
G01 X35.8127 Y18.6062
G01 X35.8137 Y18.6017
G00 X35.8137 Y18.6017
G01 F250.00
G01 Z-1.6000
G01 F1250.00
G01 X35.8127 Y18.5971
G01 X35.8101 Y18.5932
G01 X35.8062 Y18.5906
G01 X35.8017 Y18.5897
G01 X35.7971 Y18.5906
G01 X35.7932 Y18.5932
G01 X35.7906 Y18.5971
G01 X35.7897 Y18.6017
G01 X35.7906 Y18.6062
G01 X35.7932 Y18.6101
G01 X35.7971 Y18.6127
G01 X35.8017 Y18.6137
G01 X35.8062 Y18.6127
G01 X35.8101 Y18.6101
G01 X35.8127 Y18.6062
G01 X35.8137 Y18.6017
G00 X35.8137 Y18.6017
G01 F250.00
G01 Z-1.7000
G01 F1250.00
G01 X35.8127 Y18.5971
G01 X35.8101 Y18.5932
G01 X35.8062 Y18.5906
G01 X35.8017 Y18.5897
G01 X35.7971 Y18.5906
G01 X35.7932 Y18.5932
G01 X35.7906 Y18.5971
G01 X35.7897 Y18.6017
G01 X35.7906 Y18.6062
G01 X35.7932 Y18.6101
G01 X35.7971 Y18.6127
G01 X35.8017 Y18.6137
G01 X35.8062 Y18.6127
G01 X35.8101 Y18.6101
G01 X35.8127 Y18.6062
G01 X35.8137 Y18.6017
G00 X35.8137 Y18.6017
G01 F250.00
G01 Z-1.8000
G01 F1250.00
G01 X35.8127 Y18.5971
G01 X35.8101 Y18.5932
G01 X35.8062 Y18.5906
G01 X35.8017 Y18.5897
G01 X35.7971 Y18.5906
G01 X35.7932 Y18.5932
G01 X35.7906 Y18.5971
G01 X35.7897 Y18.6017
G01 X35.7906 Y18.6062
G01 X35.7932 Y18.6101
G01 X35.7971 Y18.6127
G01 X35.8017 Y18.6137
G01 X35.8062 Y18.6127
G01 X35.8101 Y18.6101
G01 X35.8127 Y18.6062
G01 X35.8137 Y18.6017
G00 Z0.5000
G00 X33.8137 Y24.6017
G01 F250.00
G01 Z-0.1000
G01 F1250.00
G01 X33.8127 Y24.5971
G01 X33.8101 Y24.5932
G01 X33.8062 Y24.5906
G01 X33.8017 Y24.5897
G01 X33.7971 Y24.5906
G01 X33.7932 Y24.5932
G01 X33.7906 Y24.5971
G01 X33.7897 Y24.6017
G01 X33.7906 Y24.6062
G01 X33.7932 Y24.6101
G01 X33.7971 Y24.6127
G01 X33.8017 Y24.6137
G01 X33.8062 Y24.6127
G01 X33.8101 Y24.6101
G01 X33.8127 Y24.6062
G01 X33.8137 Y24.6017
G00 X33.8137 Y24.6017
G01 F250.00
G01 Z-0.2000
G01 F1250.00
G01 X33.8127 Y24.5971
G01 X33.8101 Y24.5932
G01 X33.8062 Y24.5906
G01 X33.8017 Y24.5897
G01 X33.7971 Y24.5906
G01 X33.7932 Y24.5932
G01 X33.7906 Y24.5971
G01 X33.7897 Y24.6017
G01 X33.7906 Y24.6062
G01 X33.7932 Y24.6101
G01 X33.7971 Y24.6127
G01 X33.8017 Y24.6137
G01 X33.8062 Y24.6127
G01 X33.8101 Y24.6101
G01 X33.8127 Y24.6062
G01 X33.8137 Y24.6017
G00 X33.8137 Y24.6017
G01 F250.00
G01 Z-0.3000
G01 F1250.00
G01 X33.8127 Y24.5971
G01 X33.8101 Y24.5932
G01 X33.8062 Y24.5906
G01 X33.8017 Y24.5897
G01 X33.7971 Y24.5906
G01 X33.7932 Y24.5932
G01 X33.7906 Y24.5971
G01 X33.7897 Y24.6017
G01 X33.7906 Y24.6062
G01 X33.7932 Y24.6101
G01 X33.7971 Y24.6127
G01 X33.8017 Y24.6137
G01 X33.8062 Y24.6127
G01 X33.8101 Y24.6101
G01 X33.8127 Y24.6062
G01 X33.8137 Y24.6017
G00 X33.8137 Y24.6017
G01 F250.00
G01 Z-0.4000
G01 F1250.00
G01 X33.8127 Y24.5971
G01 X33.8101 Y24.5932
G01 X33.8062 Y24.5906
G01 X33.8017 Y24.5897
G01 X33.7971 Y24.5906
G01 X33.7932 Y24.5932
G01 X33.7906 Y24.5971
G01 X33.7897 Y24.6017
G01 X33.7906 Y24.6062
G01 X33.7932 Y24.6101
G01 X33.7971 Y24.6127
G01 X33.8017 Y24.6137
G01 X33.8062 Y24.6127
G01 X33.8101 Y24.6101
G01 X33.8127 Y24.6062
G01 X33.8137 Y24.6017
G00 X33.8137 Y24.6017
G01 F250.00
G01 Z-0.5000
G01 F1250.00
G01 X33.8127 Y24.5971
G01 X33.8101 Y24.5932
G01 X33.8062 Y24.5906
G01 X33.8017 Y24.5897
G01 X33.7971 Y24.5906
G01 X33.7932 Y24.5932
G01 X33.7906 Y24.5971
G01 X33.7897 Y24.6017
G01 X33.7906 Y24.6062
G01 X33.7932 Y24.6101
G01 X33.7971 Y24.6127
G01 X33.8017 Y24.6137
G01 X33.8062 Y24.6127
G01 X33.8101 Y24.6101
G01 X33.8127 Y24.6062
G01 X33.8137 Y24.6017
G00 X33.8137 Y24.6017
G01 F250.00
G01 Z-0.6000
G01 F1250.00
G01 X33.8127 Y24.5971
G01 X33.8101 Y24.5932
G01 X33.8062 Y24.5906
G01 X33.8017 Y24.5897
G01 X33.7971 Y24.5906
G01 X33.7932 Y24.5932
G01 X33.7906 Y24.5971
G01 X33.7897 Y24.6017
G01 X33.7906 Y24.6062
G01 X33.7932 Y24.6101
G01 X33.7971 Y24.6127
G01 X33.8017 Y24.6137
G01 X33.8062 Y24.6127
G01 X33.8101 Y24.6101
G01 X33.8127 Y24.6062
G01 X33.8137 Y24.6017
G00 X33.8137 Y24.6017
G01 F250.00
G01 Z-0.7000
G01 F1250.00
G01 X33.8127 Y24.5971
G01 X33.8101 Y24.5932
G01 X33.8062 Y24.5906
G01 X33.8017 Y24.5897
G01 X33.7971 Y24.5906
G01 X33.7932 Y24.5932
G01 X33.7906 Y24.5971
G01 X33.7897 Y24.6017
G01 X33.7906 Y24.6062
G01 X33.7932 Y24.6101
G01 X33.7971 Y24.6127
G01 X33.8017 Y24.6137
G01 X33.8062 Y24.6127
G01 X33.8101 Y24.6101
G01 X33.8127 Y24.6062
G01 X33.8137 Y24.6017
G00 X33.8137 Y24.6017
G01 F250.00
G01 Z-0.8000
G01 F1250.00
G01 X33.8127 Y24.5971
G01 X33.8101 Y24.5932
G01 X33.8062 Y24.5906
G01 X33.8017 Y24.5897
G01 X33.7971 Y24.5906
G01 X33.7932 Y24.5932
G01 X33.7906 Y24.5971
G01 X33.7897 Y24.6017
G01 X33.7906 Y24.6062
G01 X33.7932 Y24.6101
G01 X33.7971 Y24.6127
G01 X33.8017 Y24.6137
G01 X33.8062 Y24.6127
G01 X33.8101 Y24.6101
G01 X33.8127 Y24.6062
G01 X33.8137 Y24.6017
G00 X33.8137 Y24.6017
G01 F250.00
G01 Z-0.9000
G01 F1250.00
G01 X33.8127 Y24.5971
G01 X33.8101 Y24.5932
G01 X33.8062 Y24.5906
G01 X33.8017 Y24.5897
G01 X33.7971 Y24.5906
G01 X33.7932 Y24.5932
G01 X33.7906 Y24.5971
G01 X33.7897 Y24.6017
G01 X33.7906 Y24.6062
G01 X33.7932 Y24.6101
G01 X33.7971 Y24.6127
G01 X33.8017 Y24.6137
G01 X33.8062 Y24.6127
G01 X33.8101 Y24.6101
G01 X33.8127 Y24.6062
G01 X33.8137 Y24.6017
G00 X33.8137 Y24.6017
G01 F250.00
G01 Z-1.0000
G01 F1250.00
G01 X33.8127 Y24.5971
G01 X33.8101 Y24.5932
G01 X33.8062 Y24.5906
G01 X33.8017 Y24.5897
G01 X33.7971 Y24.5906
G01 X33.7932 Y24.5932
G01 X33.7906 Y24.5971
G01 X33.7897 Y24.6017
G01 X33.7906 Y24.6062
G01 X33.7932 Y24.6101
G01 X33.7971 Y24.6127
G01 X33.8017 Y24.6137
G01 X33.8062 Y24.6127
G01 X33.8101 Y24.6101
G01 X33.8127 Y24.6062
G01 X33.8137 Y24.6017
G00 X33.8137 Y24.6017
G01 F250.00
G01 Z-1.1000
G01 F1250.00
G01 X33.8127 Y24.5971
G01 X33.8101 Y24.5932
G01 X33.8062 Y24.5906
G01 X33.8017 Y24.5897
G01 X33.7971 Y24.5906
G01 X33.7932 Y24.5932
G01 X33.7906 Y24.5971
G01 X33.7897 Y24.6017
G01 X33.7906 Y24.6062
G01 X33.7932 Y24.6101
G01 X33.7971 Y24.6127
G01 X33.8017 Y24.6137
G01 X33.8062 Y24.6127
G01 X33.8101 Y24.6101
G01 X33.8127 Y24.6062
G01 X33.8137 Y24.6017
G00 X33.8137 Y24.6017
G01 F250.00
G01 Z-1.2000
G01 F1250.00
G01 X33.8127 Y24.5971
G01 X33.8101 Y24.5932
G01 X33.8062 Y24.5906
G01 X33.8017 Y24.5897
G01 X33.7971 Y24.5906
G01 X33.7932 Y24.5932
G01 X33.7906 Y24.5971
G01 X33.7897 Y24.6017
G01 X33.7906 Y24.6062
G01 X33.7932 Y24.6101
G01 X33.7971 Y24.6127
G01 X33.8017 Y24.6137
G01 X33.8062 Y24.6127
G01 X33.8101 Y24.6101
G01 X33.8127 Y24.6062
G01 X33.8137 Y24.6017
G00 X33.8137 Y24.6017
G01 F250.00
G01 Z-1.3000
G01 F1250.00
G01 X33.8127 Y24.5971
G01 X33.8101 Y24.5932
G01 X33.8062 Y24.5906
G01 X33.8017 Y24.5897
G01 X33.7971 Y24.5906
G01 X33.7932 Y24.5932
G01 X33.7906 Y24.5971
G01 X33.7897 Y24.6017
G01 X33.7906 Y24.6062
G01 X33.7932 Y24.6101
G01 X33.7971 Y24.6127
G01 X33.8017 Y24.6137
G01 X33.8062 Y24.6127
G01 X33.8101 Y24.6101
G01 X33.8127 Y24.6062
G01 X33.8137 Y24.6017
G00 X33.8137 Y24.6017
G01 F250.00
G01 Z-1.4000
G01 F1250.00
G01 X33.8127 Y24.5971
G01 X33.8101 Y24.5932
G01 X33.8062 Y24.5906
G01 X33.8017 Y24.5897
G01 X33.7971 Y24.5906
G01 X33.7932 Y24.5932
G01 X33.7906 Y24.5971
G01 X33.7897 Y24.6017
G01 X33.7906 Y24.6062
G01 X33.7932 Y24.6101
G01 X33.7971 Y24.6127
G01 X33.8017 Y24.6137
G01 X33.8062 Y24.6127
G01 X33.8101 Y24.6101
G01 X33.8127 Y24.6062
G01 X33.8137 Y24.6017
G00 X33.8137 Y24.6017
G01 F250.00
G01 Z-1.5000
G01 F1250.00
G01 X33.8127 Y24.5971
G01 X33.8101 Y24.5932
G01 X33.8062 Y24.5906
G01 X33.8017 Y24.5897
G01 X33.7971 Y24.5906
G01 X33.7932 Y24.5932
G01 X33.7906 Y24.5971
G01 X33.7897 Y24.6017
G01 X33.7906 Y24.6062
G01 X33.7932 Y24.6101
G01 X33.7971 Y24.6127
G01 X33.8017 Y24.6137
G01 X33.8062 Y24.6127
G01 X33.8101 Y24.6101
G01 X33.8127 Y24.6062
G01 X33.8137 Y24.6017
G00 X33.8137 Y24.6017
G01 F250.00
G01 Z-1.6000
G01 F1250.00
G01 X33.8127 Y24.5971
G01 X33.8101 Y24.5932
G01 X33.8062 Y24.5906
G01 X33.8017 Y24.5897
G01 X33.7971 Y24.5906
G01 X33.7932 Y24.5932
G01 X33.7906 Y24.5971
G01 X33.7897 Y24.6017
G01 X33.7906 Y24.6062
G01 X33.7932 Y24.6101
G01 X33.7971 Y24.6127
G01 X33.8017 Y24.6137
G01 X33.8062 Y24.6127
G01 X33.8101 Y24.6101
G01 X33.8127 Y24.6062
G01 X33.8137 Y24.6017
G00 X33.8137 Y24.6017
G01 F250.00
G01 Z-1.7000
G01 F1250.00
G01 X33.8127 Y24.5971
G01 X33.8101 Y24.5932
G01 X33.8062 Y24.5906
G01 X33.8017 Y24.5897
G01 X33.7971 Y24.5906
G01 X33.7932 Y24.5932
G01 X33.7906 Y24.5971
G01 X33.7897 Y24.6017
G01 X33.7906 Y24.6062
G01 X33.7932 Y24.6101
G01 X33.7971 Y24.6127
G01 X33.8017 Y24.6137
G01 X33.8062 Y24.6127
G01 X33.8101 Y24.6101
G01 X33.8127 Y24.6062
G01 X33.8137 Y24.6017
G00 X33.8137 Y24.6017
G01 F250.00
G01 Z-1.8000
G01 F1250.00
G01 X33.8127 Y24.5971
G01 X33.8101 Y24.5932
G01 X33.8062 Y24.5906
G01 X33.8017 Y24.5897
G01 X33.7971 Y24.5906
G01 X33.7932 Y24.5932
G01 X33.7906 Y24.5971
G01 X33.7897 Y24.6017
G01 X33.7906 Y24.6062
G01 X33.7932 Y24.6101
G01 X33.7971 Y24.6127
G01 X33.8017 Y24.6137
G01 X33.8062 Y24.6127
G01 X33.8101 Y24.6101
G01 X33.8127 Y24.6062
G01 X33.8137 Y24.6017
G00 Z0.5000
G00 X46.3137 Y23.8017
G01 F250.00
G01 Z-0.1000
G01 F1250.00
G01 X46.3127 Y23.7971
G01 X46.3101 Y23.7932
G01 X46.3062 Y23.7906
G01 X46.3017 Y23.7897
G01 X46.2971 Y23.7906
G01 X46.2932 Y23.7932
G01 X46.2906 Y23.7971
G01 X46.2897 Y23.8017
G01 X46.2906 Y23.8062
G01 X46.2932 Y23.8101
G01 X46.2971 Y23.8127
G01 X46.3017 Y23.8137
G01 X46.3062 Y23.8127
G01 X46.3101 Y23.8101
G01 X46.3127 Y23.8062
G01 X46.3137 Y23.8017
G00 X46.3137 Y23.8017
G01 F250.00
G01 Z-0.2000
G01 F1250.00
G01 X46.3127 Y23.7971
G01 X46.3101 Y23.7932
G01 X46.3062 Y23.7906
G01 X46.3017 Y23.7897
G01 X46.2971 Y23.7906
G01 X46.2932 Y23.7932
G01 X46.2906 Y23.7971
G01 X46.2897 Y23.8017
G01 X46.2906 Y23.8062
G01 X46.2932 Y23.8101
G01 X46.2971 Y23.8127
G01 X46.3017 Y23.8137
G01 X46.3062 Y23.8127
G01 X46.3101 Y23.8101
G01 X46.3127 Y23.8062
G01 X46.3137 Y23.8017
G00 X46.3137 Y23.8017
G01 F250.00
G01 Z-0.3000
G01 F1250.00
G01 X46.3127 Y23.7971
G01 X46.3101 Y23.7932
G01 X46.3062 Y23.7906
G01 X46.3017 Y23.7897
G01 X46.2971 Y23.7906
G01 X46.2932 Y23.7932
G01 X46.2906 Y23.7971
G01 X46.2897 Y23.8017
G01 X46.2906 Y23.8062
G01 X46.2932 Y23.8101
G01 X46.2971 Y23.8127
G01 X46.3017 Y23.8137
G01 X46.3062 Y23.8127
G01 X46.3101 Y23.8101
G01 X46.3127 Y23.8062
G01 X46.3137 Y23.8017
G00 X46.3137 Y23.8017
G01 F250.00
G01 Z-0.4000
G01 F1250.00
G01 X46.3127 Y23.7971
G01 X46.3101 Y23.7932
G01 X46.3062 Y23.7906
G01 X46.3017 Y23.7897
G01 X46.2971 Y23.7906
G01 X46.2932 Y23.7932
G01 X46.2906 Y23.7971
G01 X46.2897 Y23.8017
G01 X46.2906 Y23.8062
G01 X46.2932 Y23.8101
G01 X46.2971 Y23.8127
G01 X46.3017 Y23.8137
G01 X46.3062 Y23.8127
G01 X46.3101 Y23.8101
G01 X46.3127 Y23.8062
G01 X46.3137 Y23.8017
G00 X46.3137 Y23.8017
G01 F250.00
G01 Z-0.5000
G01 F1250.00
G01 X46.3127 Y23.7971
G01 X46.3101 Y23.7932
G01 X46.3062 Y23.7906
G01 X46.3017 Y23.7897
G01 X46.2971 Y23.7906
G01 X46.2932 Y23.7932
G01 X46.2906 Y23.7971
G01 X46.2897 Y23.8017
G01 X46.2906 Y23.8062
G01 X46.2932 Y23.8101
G01 X46.2971 Y23.8127
G01 X46.3017 Y23.8137
G01 X46.3062 Y23.8127
G01 X46.3101 Y23.8101
G01 X46.3127 Y23.8062
G01 X46.3137 Y23.8017
G00 X46.3137 Y23.8017
G01 F250.00
G01 Z-0.6000
G01 F1250.00
G01 X46.3127 Y23.7971
G01 X46.3101 Y23.7932
G01 X46.3062 Y23.7906
G01 X46.3017 Y23.7897
G01 X46.2971 Y23.7906
G01 X46.2932 Y23.7932
G01 X46.2906 Y23.7971
G01 X46.2897 Y23.8017
G01 X46.2906 Y23.8062
G01 X46.2932 Y23.8101
G01 X46.2971 Y23.8127
G01 X46.3017 Y23.8137
G01 X46.3062 Y23.8127
G01 X46.3101 Y23.8101
G01 X46.3127 Y23.8062
G01 X46.3137 Y23.8017
G00 X46.3137 Y23.8017
G01 F250.00
G01 Z-0.7000
G01 F1250.00
G01 X46.3127 Y23.7971
G01 X46.3101 Y23.7932
G01 X46.3062 Y23.7906
G01 X46.3017 Y23.7897
G01 X46.2971 Y23.7906
G01 X46.2932 Y23.7932
G01 X46.2906 Y23.7971
G01 X46.2897 Y23.8017
G01 X46.2906 Y23.8062
G01 X46.2932 Y23.8101
G01 X46.2971 Y23.8127
G01 X46.3017 Y23.8137
G01 X46.3062 Y23.8127
G01 X46.3101 Y23.8101
G01 X46.3127 Y23.8062
G01 X46.3137 Y23.8017
G00 X46.3137 Y23.8017
G01 F250.00
G01 Z-0.8000
G01 F1250.00
G01 X46.3127 Y23.7971
G01 X46.3101 Y23.7932
G01 X46.3062 Y23.7906
G01 X46.3017 Y23.7897
G01 X46.2971 Y23.7906
G01 X46.2932 Y23.7932
G01 X46.2906 Y23.7971
G01 X46.2897 Y23.8017
G01 X46.2906 Y23.8062
G01 X46.2932 Y23.8101
G01 X46.2971 Y23.8127
G01 X46.3017 Y23.8137
G01 X46.3062 Y23.8127
G01 X46.3101 Y23.8101
G01 X46.3127 Y23.8062
G01 X46.3137 Y23.8017
G00 X46.3137 Y23.8017
G01 F250.00
G01 Z-0.9000
G01 F1250.00
G01 X46.3127 Y23.7971
G01 X46.3101 Y23.7932
G01 X46.3062 Y23.7906
G01 X46.3017 Y23.7897
G01 X46.2971 Y23.7906
G01 X46.2932 Y23.7932
G01 X46.2906 Y23.7971
G01 X46.2897 Y23.8017
G01 X46.2906 Y23.8062
G01 X46.2932 Y23.8101
G01 X46.2971 Y23.8127
G01 X46.3017 Y23.8137
G01 X46.3062 Y23.8127
G01 X46.3101 Y23.8101
G01 X46.3127 Y23.8062
G01 X46.3137 Y23.8017
G00 X46.3137 Y23.8017
G01 F250.00
G01 Z-1.0000
G01 F1250.00
G01 X46.3127 Y23.7971
G01 X46.3101 Y23.7932
G01 X46.3062 Y23.7906
G01 X46.3017 Y23.7897
G01 X46.2971 Y23.7906
G01 X46.2932 Y23.7932
G01 X46.2906 Y23.7971
G01 X46.2897 Y23.8017
G01 X46.2906 Y23.8062
G01 X46.2932 Y23.8101
G01 X46.2971 Y23.8127
G01 X46.3017 Y23.8137
G01 X46.3062 Y23.8127
G01 X46.3101 Y23.8101
G01 X46.3127 Y23.8062
G01 X46.3137 Y23.8017
G00 X46.3137 Y23.8017
G01 F250.00
G01 Z-1.1000
G01 F1250.00
G01 X46.3127 Y23.7971
G01 X46.3101 Y23.7932
G01 X46.3062 Y23.7906
G01 X46.3017 Y23.7897
G01 X46.2971 Y23.7906
G01 X46.2932 Y23.7932
G01 X46.2906 Y23.7971
G01 X46.2897 Y23.8017
G01 X46.2906 Y23.8062
G01 X46.2932 Y23.8101
G01 X46.2971 Y23.8127
G01 X46.3017 Y23.8137
G01 X46.3062 Y23.8127
G01 X46.3101 Y23.8101
G01 X46.3127 Y23.8062
G01 X46.3137 Y23.8017
G00 X46.3137 Y23.8017
G01 F250.00
G01 Z-1.2000
G01 F1250.00
G01 X46.3127 Y23.7971
G01 X46.3101 Y23.7932
G01 X46.3062 Y23.7906
G01 X46.3017 Y23.7897
G01 X46.2971 Y23.7906
G01 X46.2932 Y23.7932
G01 X46.2906 Y23.7971
G01 X46.2897 Y23.8017
G01 X46.2906 Y23.8062
G01 X46.2932 Y23.8101
G01 X46.2971 Y23.8127
G01 X46.3017 Y23.8137
G01 X46.3062 Y23.8127
G01 X46.3101 Y23.8101
G01 X46.3127 Y23.8062
G01 X46.3137 Y23.8017
G00 X46.3137 Y23.8017
G01 F250.00
G01 Z-1.3000
G01 F1250.00
G01 X46.3127 Y23.7971
G01 X46.3101 Y23.7932
G01 X46.3062 Y23.7906
G01 X46.3017 Y23.7897
G01 X46.2971 Y23.7906
G01 X46.2932 Y23.7932
G01 X46.2906 Y23.7971
G01 X46.2897 Y23.8017
G01 X46.2906 Y23.8062
G01 X46.2932 Y23.8101
G01 X46.2971 Y23.8127
G01 X46.3017 Y23.8137
G01 X46.3062 Y23.8127
G01 X46.3101 Y23.8101
G01 X46.3127 Y23.8062
G01 X46.3137 Y23.8017
G00 X46.3137 Y23.8017
G01 F250.00
G01 Z-1.4000
G01 F1250.00
G01 X46.3127 Y23.7971
G01 X46.3101 Y23.7932
G01 X46.3062 Y23.7906
G01 X46.3017 Y23.7897
G01 X46.2971 Y23.7906
G01 X46.2932 Y23.7932
G01 X46.2906 Y23.7971
G01 X46.2897 Y23.8017
G01 X46.2906 Y23.8062
G01 X46.2932 Y23.8101
G01 X46.2971 Y23.8127
G01 X46.3017 Y23.8137
G01 X46.3062 Y23.8127
G01 X46.3101 Y23.8101
G01 X46.3127 Y23.8062
G01 X46.3137 Y23.8017
G00 X46.3137 Y23.8017
G01 F250.00
G01 Z-1.5000
G01 F1250.00
G01 X46.3127 Y23.7971
G01 X46.3101 Y23.7932
G01 X46.3062 Y23.7906
G01 X46.3017 Y23.7897
G01 X46.2971 Y23.7906
G01 X46.2932 Y23.7932
G01 X46.2906 Y23.7971
G01 X46.2897 Y23.8017
G01 X46.2906 Y23.8062
G01 X46.2932 Y23.8101
G01 X46.2971 Y23.8127
G01 X46.3017 Y23.8137
G01 X46.3062 Y23.8127
G01 X46.3101 Y23.8101
G01 X46.3127 Y23.8062
G01 X46.3137 Y23.8017
G00 X46.3137 Y23.8017
G01 F250.00
G01 Z-1.6000
G01 F1250.00
G01 X46.3127 Y23.7971
G01 X46.3101 Y23.7932
G01 X46.3062 Y23.7906
G01 X46.3017 Y23.7897
G01 X46.2971 Y23.7906
G01 X46.2932 Y23.7932
G01 X46.2906 Y23.7971
G01 X46.2897 Y23.8017
G01 X46.2906 Y23.8062
G01 X46.2932 Y23.8101
G01 X46.2971 Y23.8127
G01 X46.3017 Y23.8137
G01 X46.3062 Y23.8127
G01 X46.3101 Y23.8101
G01 X46.3127 Y23.8062
G01 X46.3137 Y23.8017
G00 X46.3137 Y23.8017
G01 F250.00
G01 Z-1.7000
G01 F1250.00
G01 X46.3127 Y23.7971
G01 X46.3101 Y23.7932
G01 X46.3062 Y23.7906
G01 X46.3017 Y23.7897
G01 X46.2971 Y23.7906
G01 X46.2932 Y23.7932
G01 X46.2906 Y23.7971
G01 X46.2897 Y23.8017
G01 X46.2906 Y23.8062
G01 X46.2932 Y23.8101
G01 X46.2971 Y23.8127
G01 X46.3017 Y23.8137
G01 X46.3062 Y23.8127
G01 X46.3101 Y23.8101
G01 X46.3127 Y23.8062
G01 X46.3137 Y23.8017
G00 X46.3137 Y23.8017
G01 F250.00
G01 Z-1.8000
G01 F1250.00
G01 X46.3127 Y23.7971
G01 X46.3101 Y23.7932
G01 X46.3062 Y23.7906
G01 X46.3017 Y23.7897
G01 X46.2971 Y23.7906
G01 X46.2932 Y23.7932
G01 X46.2906 Y23.7971
G01 X46.2897 Y23.8017
G01 X46.2906 Y23.8062
G01 X46.2932 Y23.8101
G01 X46.2971 Y23.8127
G01 X46.3017 Y23.8137
G01 X46.3062 Y23.8127
G01 X46.3101 Y23.8101
G01 X46.3127 Y23.8062
G01 X46.3137 Y23.8017
G00 Z0.5000
G00 X46.3137 Y18.7017
G01 F250.00
G01 Z-0.1000
G01 F1250.00
G01 X46.3127 Y18.6971
G01 X46.3101 Y18.6932
G01 X46.3062 Y18.6906
G01 X46.3017 Y18.6897
G01 X46.2971 Y18.6906
G01 X46.2932 Y18.6932
G01 X46.2906 Y18.6971
G01 X46.2897 Y18.7017
G01 X46.2906 Y18.7062
G01 X46.2932 Y18.7101
G01 X46.2971 Y18.7127
G01 X46.3017 Y18.7137
G01 X46.3062 Y18.7127
G01 X46.3101 Y18.7101
G01 X46.3127 Y18.7062
G01 X46.3137 Y18.7017
G00 X46.3137 Y18.7017
G01 F250.00
G01 Z-0.2000
G01 F1250.00
G01 X46.3127 Y18.6971
G01 X46.3101 Y18.6932
G01 X46.3062 Y18.6906
G01 X46.3017 Y18.6897
G01 X46.2971 Y18.6906
G01 X46.2932 Y18.6932
G01 X46.2906 Y18.6971
G01 X46.2897 Y18.7017
G01 X46.2906 Y18.7062
G01 X46.2932 Y18.7101
G01 X46.2971 Y18.7127
G01 X46.3017 Y18.7137
G01 X46.3062 Y18.7127
G01 X46.3101 Y18.7101
G01 X46.3127 Y18.7062
G01 X46.3137 Y18.7017
G00 X46.3137 Y18.7017
G01 F250.00
G01 Z-0.3000
G01 F1250.00
G01 X46.3127 Y18.6971
G01 X46.3101 Y18.6932
G01 X46.3062 Y18.6906
G01 X46.3017 Y18.6897
G01 X46.2971 Y18.6906
G01 X46.2932 Y18.6932
G01 X46.2906 Y18.6971
G01 X46.2897 Y18.7017
G01 X46.2906 Y18.7062
G01 X46.2932 Y18.7101
G01 X46.2971 Y18.7127
G01 X46.3017 Y18.7137
G01 X46.3062 Y18.7127
G01 X46.3101 Y18.7101
G01 X46.3127 Y18.7062
G01 X46.3137 Y18.7017
G00 X46.3137 Y18.7017
G01 F250.00
G01 Z-0.4000
G01 F1250.00
G01 X46.3127 Y18.6971
G01 X46.3101 Y18.6932
G01 X46.3062 Y18.6906
G01 X46.3017 Y18.6897
G01 X46.2971 Y18.6906
G01 X46.2932 Y18.6932
G01 X46.2906 Y18.6971
G01 X46.2897 Y18.7017
G01 X46.2906 Y18.7062
G01 X46.2932 Y18.7101
G01 X46.2971 Y18.7127
G01 X46.3017 Y18.7137
G01 X46.3062 Y18.7127
G01 X46.3101 Y18.7101
G01 X46.3127 Y18.7062
G01 X46.3137 Y18.7017
G00 X46.3137 Y18.7017
G01 F250.00
G01 Z-0.5000
G01 F1250.00
G01 X46.3127 Y18.6971
G01 X46.3101 Y18.6932
G01 X46.3062 Y18.6906
G01 X46.3017 Y18.6897
G01 X46.2971 Y18.6906
G01 X46.2932 Y18.6932
G01 X46.2906 Y18.6971
G01 X46.2897 Y18.7017
G01 X46.2906 Y18.7062
G01 X46.2932 Y18.7101
G01 X46.2971 Y18.7127
G01 X46.3017 Y18.7137
G01 X46.3062 Y18.7127
G01 X46.3101 Y18.7101
G01 X46.3127 Y18.7062
G01 X46.3137 Y18.7017
G00 X46.3137 Y18.7017
G01 F250.00
G01 Z-0.6000
G01 F1250.00
G01 X46.3127 Y18.6971
G01 X46.3101 Y18.6932
G01 X46.3062 Y18.6906
G01 X46.3017 Y18.6897
G01 X46.2971 Y18.6906
G01 X46.2932 Y18.6932
G01 X46.2906 Y18.6971
G01 X46.2897 Y18.7017
G01 X46.2906 Y18.7062
G01 X46.2932 Y18.7101
G01 X46.2971 Y18.7127
G01 X46.3017 Y18.7137
G01 X46.3062 Y18.7127
G01 X46.3101 Y18.7101
G01 X46.3127 Y18.7062
G01 X46.3137 Y18.7017
G00 X46.3137 Y18.7017
G01 F250.00
G01 Z-0.7000
G01 F1250.00
G01 X46.3127 Y18.6971
G01 X46.3101 Y18.6932
G01 X46.3062 Y18.6906
G01 X46.3017 Y18.6897
G01 X46.2971 Y18.6906
G01 X46.2932 Y18.6932
G01 X46.2906 Y18.6971
G01 X46.2897 Y18.7017
G01 X46.2906 Y18.7062
G01 X46.2932 Y18.7101
G01 X46.2971 Y18.7127
G01 X46.3017 Y18.7137
G01 X46.3062 Y18.7127
G01 X46.3101 Y18.7101
G01 X46.3127 Y18.7062
G01 X46.3137 Y18.7017
G00 X46.3137 Y18.7017
G01 F250.00
G01 Z-0.8000
G01 F1250.00
G01 X46.3127 Y18.6971
G01 X46.3101 Y18.6932
G01 X46.3062 Y18.6906
G01 X46.3017 Y18.6897
G01 X46.2971 Y18.6906
G01 X46.2932 Y18.6932
G01 X46.2906 Y18.6971
G01 X46.2897 Y18.7017
G01 X46.2906 Y18.7062
G01 X46.2932 Y18.7101
G01 X46.2971 Y18.7127
G01 X46.3017 Y18.7137
G01 X46.3062 Y18.7127
G01 X46.3101 Y18.7101
G01 X46.3127 Y18.7062
G01 X46.3137 Y18.7017
G00 X46.3137 Y18.7017
G01 F250.00
G01 Z-0.9000
G01 F1250.00
G01 X46.3127 Y18.6971
G01 X46.3101 Y18.6932
G01 X46.3062 Y18.6906
G01 X46.3017 Y18.6897
G01 X46.2971 Y18.6906
G01 X46.2932 Y18.6932
G01 X46.2906 Y18.6971
G01 X46.2897 Y18.7017
G01 X46.2906 Y18.7062
G01 X46.2932 Y18.7101
G01 X46.2971 Y18.7127
G01 X46.3017 Y18.7137
G01 X46.3062 Y18.7127
G01 X46.3101 Y18.7101
G01 X46.3127 Y18.7062
G01 X46.3137 Y18.7017
G00 X46.3137 Y18.7017
G01 F250.00
G01 Z-1.0000
G01 F1250.00
G01 X46.3127 Y18.6971
G01 X46.3101 Y18.6932
G01 X46.3062 Y18.6906
G01 X46.3017 Y18.6897
G01 X46.2971 Y18.6906
G01 X46.2932 Y18.6932
G01 X46.2906 Y18.6971
G01 X46.2897 Y18.7017
G01 X46.2906 Y18.7062
G01 X46.2932 Y18.7101
G01 X46.2971 Y18.7127
G01 X46.3017 Y18.7137
G01 X46.3062 Y18.7127
G01 X46.3101 Y18.7101
G01 X46.3127 Y18.7062
G01 X46.3137 Y18.7017
G00 X46.3137 Y18.7017
G01 F250.00
G01 Z-1.1000
G01 F1250.00
G01 X46.3127 Y18.6971
G01 X46.3101 Y18.6932
G01 X46.3062 Y18.6906
G01 X46.3017 Y18.6897
G01 X46.2971 Y18.6906
G01 X46.2932 Y18.6932
G01 X46.2906 Y18.6971
G01 X46.2897 Y18.7017
G01 X46.2906 Y18.7062
G01 X46.2932 Y18.7101
G01 X46.2971 Y18.7127
G01 X46.3017 Y18.7137
G01 X46.3062 Y18.7127
G01 X46.3101 Y18.7101
G01 X46.3127 Y18.7062
G01 X46.3137 Y18.7017
G00 X46.3137 Y18.7017
G01 F250.00
G01 Z-1.2000
G01 F1250.00
G01 X46.3127 Y18.6971
G01 X46.3101 Y18.6932
G01 X46.3062 Y18.6906
G01 X46.3017 Y18.6897
G01 X46.2971 Y18.6906
G01 X46.2932 Y18.6932
G01 X46.2906 Y18.6971
G01 X46.2897 Y18.7017
G01 X46.2906 Y18.7062
G01 X46.2932 Y18.7101
G01 X46.2971 Y18.7127
G01 X46.3017 Y18.7137
G01 X46.3062 Y18.7127
G01 X46.3101 Y18.7101
G01 X46.3127 Y18.7062
G01 X46.3137 Y18.7017
G00 X46.3137 Y18.7017
G01 F250.00
G01 Z-1.3000
G01 F1250.00
G01 X46.3127 Y18.6971
G01 X46.3101 Y18.6932
G01 X46.3062 Y18.6906
G01 X46.3017 Y18.6897
G01 X46.2971 Y18.6906
G01 X46.2932 Y18.6932
G01 X46.2906 Y18.6971
G01 X46.2897 Y18.7017
G01 X46.2906 Y18.7062
G01 X46.2932 Y18.7101
G01 X46.2971 Y18.7127
G01 X46.3017 Y18.7137
G01 X46.3062 Y18.7127
G01 X46.3101 Y18.7101
G01 X46.3127 Y18.7062
G01 X46.3137 Y18.7017
G00 X46.3137 Y18.7017
G01 F250.00
G01 Z-1.4000
G01 F1250.00
G01 X46.3127 Y18.6971
G01 X46.3101 Y18.6932
G01 X46.3062 Y18.6906
G01 X46.3017 Y18.6897
G01 X46.2971 Y18.6906
G01 X46.2932 Y18.6932
G01 X46.2906 Y18.6971
G01 X46.2897 Y18.7017
G01 X46.2906 Y18.7062
G01 X46.2932 Y18.7101
G01 X46.2971 Y18.7127
G01 X46.3017 Y18.7137
G01 X46.3062 Y18.7127
G01 X46.3101 Y18.7101
G01 X46.3127 Y18.7062
G01 X46.3137 Y18.7017
G00 X46.3137 Y18.7017
G01 F250.00
G01 Z-1.5000
G01 F1250.00
G01 X46.3127 Y18.6971
G01 X46.3101 Y18.6932
G01 X46.3062 Y18.6906
G01 X46.3017 Y18.6897
G01 X46.2971 Y18.6906
G01 X46.2932 Y18.6932
G01 X46.2906 Y18.6971
G01 X46.2897 Y18.7017
G01 X46.2906 Y18.7062
G01 X46.2932 Y18.7101
G01 X46.2971 Y18.7127
G01 X46.3017 Y18.7137
G01 X46.3062 Y18.7127
G01 X46.3101 Y18.7101
G01 X46.3127 Y18.7062
G01 X46.3137 Y18.7017
G00 X46.3137 Y18.7017
G01 F250.00
G01 Z-1.6000
G01 F1250.00
G01 X46.3127 Y18.6971
G01 X46.3101 Y18.6932
G01 X46.3062 Y18.6906
G01 X46.3017 Y18.6897
G01 X46.2971 Y18.6906
G01 X46.2932 Y18.6932
G01 X46.2906 Y18.6971
G01 X46.2897 Y18.7017
G01 X46.2906 Y18.7062
G01 X46.2932 Y18.7101
G01 X46.2971 Y18.7127
G01 X46.3017 Y18.7137
G01 X46.3062 Y18.7127
G01 X46.3101 Y18.7101
G01 X46.3127 Y18.7062
G01 X46.3137 Y18.7017
G00 X46.3137 Y18.7017
G01 F250.00
G01 Z-1.7000
G01 F1250.00
G01 X46.3127 Y18.6971
G01 X46.3101 Y18.6932
G01 X46.3062 Y18.6906
G01 X46.3017 Y18.6897
G01 X46.2971 Y18.6906
G01 X46.2932 Y18.6932
G01 X46.2906 Y18.6971
G01 X46.2897 Y18.7017
G01 X46.2906 Y18.7062
G01 X46.2932 Y18.7101
G01 X46.2971 Y18.7127
G01 X46.3017 Y18.7137
G01 X46.3062 Y18.7127
G01 X46.3101 Y18.7101
G01 X46.3127 Y18.7062
G01 X46.3137 Y18.7017
G00 X46.3137 Y18.7017
G01 F250.00
G01 Z-1.8000
G01 F1250.00
G01 X46.3127 Y18.6971
G01 X46.3101 Y18.6932
G01 X46.3062 Y18.6906
G01 X46.3017 Y18.6897
G01 X46.2971 Y18.6906
G01 X46.2932 Y18.6932
G01 X46.2906 Y18.6971
G01 X46.2897 Y18.7017
G01 X46.2906 Y18.7062
G01 X46.2932 Y18.7101
G01 X46.2971 Y18.7127
G01 X46.3017 Y18.7137
G01 X46.3062 Y18.7127
G01 X46.3101 Y18.7101
G01 X46.3127 Y18.7062
G01 X46.3137 Y18.7017
G00 Z0.5000
G00 X46.3137 Y13.6017
G01 F250.00
G01 Z-0.1000
G01 F1250.00
G01 X46.3127 Y13.5971
G01 X46.3101 Y13.5932
G01 X46.3062 Y13.5906
G01 X46.3017 Y13.5897
G01 X46.2971 Y13.5906
G01 X46.2932 Y13.5932
G01 X46.2906 Y13.5971
G01 X46.2897 Y13.6017
G01 X46.2906 Y13.6062
G01 X46.2932 Y13.6101
G01 X46.2971 Y13.6127
G01 X46.3017 Y13.6137
G01 X46.3062 Y13.6127
G01 X46.3101 Y13.6101
G01 X46.3127 Y13.6062
G01 X46.3137 Y13.6017
G00 X46.3137 Y13.6017
G01 F250.00
G01 Z-0.2000
G01 F1250.00
G01 X46.3127 Y13.5971
G01 X46.3101 Y13.5932
G01 X46.3062 Y13.5906
G01 X46.3017 Y13.5897
G01 X46.2971 Y13.5906
G01 X46.2932 Y13.5932
G01 X46.2906 Y13.5971
G01 X46.2897 Y13.6017
G01 X46.2906 Y13.6062
G01 X46.2932 Y13.6101
G01 X46.2971 Y13.6127
G01 X46.3017 Y13.6137
G01 X46.3062 Y13.6127
G01 X46.3101 Y13.6101
G01 X46.3127 Y13.6062
G01 X46.3137 Y13.6017
G00 X46.3137 Y13.6017
G01 F250.00
G01 Z-0.3000
G01 F1250.00
G01 X46.3127 Y13.5971
G01 X46.3101 Y13.5932
G01 X46.3062 Y13.5906
G01 X46.3017 Y13.5897
G01 X46.2971 Y13.5906
G01 X46.2932 Y13.5932
G01 X46.2906 Y13.5971
G01 X46.2897 Y13.6017
G01 X46.2906 Y13.6062
G01 X46.2932 Y13.6101
G01 X46.2971 Y13.6127
G01 X46.3017 Y13.6137
G01 X46.3062 Y13.6127
G01 X46.3101 Y13.6101
G01 X46.3127 Y13.6062
G01 X46.3137 Y13.6017
G00 X46.3137 Y13.6017
G01 F250.00
G01 Z-0.4000
G01 F1250.00
G01 X46.3127 Y13.5971
G01 X46.3101 Y13.5932
G01 X46.3062 Y13.5906
G01 X46.3017 Y13.5897
G01 X46.2971 Y13.5906
G01 X46.2932 Y13.5932
G01 X46.2906 Y13.5971
G01 X46.2897 Y13.6017
G01 X46.2906 Y13.6062
G01 X46.2932 Y13.6101
G01 X46.2971 Y13.6127
G01 X46.3017 Y13.6137
G01 X46.3062 Y13.6127
G01 X46.3101 Y13.6101
G01 X46.3127 Y13.6062
G01 X46.3137 Y13.6017
G00 X46.3137 Y13.6017
G01 F250.00
G01 Z-0.5000
G01 F1250.00
G01 X46.3127 Y13.5971
G01 X46.3101 Y13.5932
G01 X46.3062 Y13.5906
G01 X46.3017 Y13.5897
G01 X46.2971 Y13.5906
G01 X46.2932 Y13.5932
G01 X46.2906 Y13.5971
G01 X46.2897 Y13.6017
G01 X46.2906 Y13.6062
G01 X46.2932 Y13.6101
G01 X46.2971 Y13.6127
G01 X46.3017 Y13.6137
G01 X46.3062 Y13.6127
G01 X46.3101 Y13.6101
G01 X46.3127 Y13.6062
G01 X46.3137 Y13.6017
G00 X46.3137 Y13.6017
G01 F250.00
G01 Z-0.6000
G01 F1250.00
G01 X46.3127 Y13.5971
G01 X46.3101 Y13.5932
G01 X46.3062 Y13.5906
G01 X46.3017 Y13.5897
G01 X46.2971 Y13.5906
G01 X46.2932 Y13.5932
G01 X46.2906 Y13.5971
G01 X46.2897 Y13.6017
G01 X46.2906 Y13.6062
G01 X46.2932 Y13.6101
G01 X46.2971 Y13.6127
G01 X46.3017 Y13.6137
G01 X46.3062 Y13.6127
G01 X46.3101 Y13.6101
G01 X46.3127 Y13.6062
G01 X46.3137 Y13.6017
G00 X46.3137 Y13.6017
G01 F250.00
G01 Z-0.7000
G01 F1250.00
G01 X46.3127 Y13.5971
G01 X46.3101 Y13.5932
G01 X46.3062 Y13.5906
G01 X46.3017 Y13.5897
G01 X46.2971 Y13.5906
G01 X46.2932 Y13.5932
G01 X46.2906 Y13.5971
G01 X46.2897 Y13.6017
G01 X46.2906 Y13.6062
G01 X46.2932 Y13.6101
G01 X46.2971 Y13.6127
G01 X46.3017 Y13.6137
G01 X46.3062 Y13.6127
G01 X46.3101 Y13.6101
G01 X46.3127 Y13.6062
G01 X46.3137 Y13.6017
G00 X46.3137 Y13.6017
G01 F250.00
G01 Z-0.8000
G01 F1250.00
G01 X46.3127 Y13.5971
G01 X46.3101 Y13.5932
G01 X46.3062 Y13.5906
G01 X46.3017 Y13.5897
G01 X46.2971 Y13.5906
G01 X46.2932 Y13.5932
G01 X46.2906 Y13.5971
G01 X46.2897 Y13.6017
G01 X46.2906 Y13.6062
G01 X46.2932 Y13.6101
G01 X46.2971 Y13.6127
G01 X46.3017 Y13.6137
G01 X46.3062 Y13.6127
G01 X46.3101 Y13.6101
G01 X46.3127 Y13.6062
G01 X46.3137 Y13.6017
G00 X46.3137 Y13.6017
G01 F250.00
G01 Z-0.9000
G01 F1250.00
G01 X46.3127 Y13.5971
G01 X46.3101 Y13.5932
G01 X46.3062 Y13.5906
G01 X46.3017 Y13.5897
G01 X46.2971 Y13.5906
G01 X46.2932 Y13.5932
G01 X46.2906 Y13.5971
G01 X46.2897 Y13.6017
G01 X46.2906 Y13.6062
G01 X46.2932 Y13.6101
G01 X46.2971 Y13.6127
G01 X46.3017 Y13.6137
G01 X46.3062 Y13.6127
G01 X46.3101 Y13.6101
G01 X46.3127 Y13.6062
G01 X46.3137 Y13.6017
G00 X46.3137 Y13.6017
G01 F250.00
G01 Z-1.0000
G01 F1250.00
G01 X46.3127 Y13.5971
G01 X46.3101 Y13.5932
G01 X46.3062 Y13.5906
G01 X46.3017 Y13.5897
G01 X46.2971 Y13.5906
G01 X46.2932 Y13.5932
G01 X46.2906 Y13.5971
G01 X46.2897 Y13.6017
G01 X46.2906 Y13.6062
G01 X46.2932 Y13.6101
G01 X46.2971 Y13.6127
G01 X46.3017 Y13.6137
G01 X46.3062 Y13.6127
G01 X46.3101 Y13.6101
G01 X46.3127 Y13.6062
G01 X46.3137 Y13.6017
G00 X46.3137 Y13.6017
G01 F250.00
G01 Z-1.1000
G01 F1250.00
G01 X46.3127 Y13.5971
G01 X46.3101 Y13.5932
G01 X46.3062 Y13.5906
G01 X46.3017 Y13.5897
G01 X46.2971 Y13.5906
G01 X46.2932 Y13.5932
G01 X46.2906 Y13.5971
G01 X46.2897 Y13.6017
G01 X46.2906 Y13.6062
G01 X46.2932 Y13.6101
G01 X46.2971 Y13.6127
G01 X46.3017 Y13.6137
G01 X46.3062 Y13.6127
G01 X46.3101 Y13.6101
G01 X46.3127 Y13.6062
G01 X46.3137 Y13.6017
G00 X46.3137 Y13.6017
G01 F250.00
G01 Z-1.2000
G01 F1250.00
G01 X46.3127 Y13.5971
G01 X46.3101 Y13.5932
G01 X46.3062 Y13.5906
G01 X46.3017 Y13.5897
G01 X46.2971 Y13.5906
G01 X46.2932 Y13.5932
G01 X46.2906 Y13.5971
G01 X46.2897 Y13.6017
G01 X46.2906 Y13.6062
G01 X46.2932 Y13.6101
G01 X46.2971 Y13.6127
G01 X46.3017 Y13.6137
G01 X46.3062 Y13.6127
G01 X46.3101 Y13.6101
G01 X46.3127 Y13.6062
G01 X46.3137 Y13.6017
G00 X46.3137 Y13.6017
G01 F250.00
G01 Z-1.3000
G01 F1250.00
G01 X46.3127 Y13.5971
G01 X46.3101 Y13.5932
G01 X46.3062 Y13.5906
G01 X46.3017 Y13.5897
G01 X46.2971 Y13.5906
G01 X46.2932 Y13.5932
G01 X46.2906 Y13.5971
G01 X46.2897 Y13.6017
G01 X46.2906 Y13.6062
G01 X46.2932 Y13.6101
G01 X46.2971 Y13.6127
G01 X46.3017 Y13.6137
G01 X46.3062 Y13.6127
G01 X46.3101 Y13.6101
G01 X46.3127 Y13.6062
G01 X46.3137 Y13.6017
G00 X46.3137 Y13.6017
G01 F250.00
G01 Z-1.4000
G01 F1250.00
G01 X46.3127 Y13.5971
G01 X46.3101 Y13.5932
G01 X46.3062 Y13.5906
G01 X46.3017 Y13.5897
G01 X46.2971 Y13.5906
G01 X46.2932 Y13.5932
G01 X46.2906 Y13.5971
G01 X46.2897 Y13.6017
G01 X46.2906 Y13.6062
G01 X46.2932 Y13.6101
G01 X46.2971 Y13.6127
G01 X46.3017 Y13.6137
G01 X46.3062 Y13.6127
G01 X46.3101 Y13.6101
G01 X46.3127 Y13.6062
G01 X46.3137 Y13.6017
G00 X46.3137 Y13.6017
G01 F250.00
G01 Z-1.5000
G01 F1250.00
G01 X46.3127 Y13.5971
G01 X46.3101 Y13.5932
G01 X46.3062 Y13.5906
G01 X46.3017 Y13.5897
G01 X46.2971 Y13.5906
G01 X46.2932 Y13.5932
G01 X46.2906 Y13.5971
G01 X46.2897 Y13.6017
G01 X46.2906 Y13.6062
G01 X46.2932 Y13.6101
G01 X46.2971 Y13.6127
G01 X46.3017 Y13.6137
G01 X46.3062 Y13.6127
G01 X46.3101 Y13.6101
G01 X46.3127 Y13.6062
G01 X46.3137 Y13.6017
G00 X46.3137 Y13.6017
G01 F250.00
G01 Z-1.6000
G01 F1250.00
G01 X46.3127 Y13.5971
G01 X46.3101 Y13.5932
G01 X46.3062 Y13.5906
G01 X46.3017 Y13.5897
G01 X46.2971 Y13.5906
G01 X46.2932 Y13.5932
G01 X46.2906 Y13.5971
G01 X46.2897 Y13.6017
G01 X46.2906 Y13.6062
G01 X46.2932 Y13.6101
G01 X46.2971 Y13.6127
G01 X46.3017 Y13.6137
G01 X46.3062 Y13.6127
G01 X46.3101 Y13.6101
G01 X46.3127 Y13.6062
G01 X46.3137 Y13.6017
G00 X46.3137 Y13.6017
G01 F250.00
G01 Z-1.7000
G01 F1250.00
G01 X46.3127 Y13.5971
G01 X46.3101 Y13.5932
G01 X46.3062 Y13.5906
G01 X46.3017 Y13.5897
G01 X46.2971 Y13.5906
G01 X46.2932 Y13.5932
G01 X46.2906 Y13.5971
G01 X46.2897 Y13.6017
G01 X46.2906 Y13.6062
G01 X46.2932 Y13.6101
G01 X46.2971 Y13.6127
G01 X46.3017 Y13.6137
G01 X46.3062 Y13.6127
G01 X46.3101 Y13.6101
G01 X46.3127 Y13.6062
G01 X46.3137 Y13.6017
G00 X46.3137 Y13.6017
G01 F250.00
G01 Z-1.8000
G01 F1250.00
G01 X46.3127 Y13.5971
G01 X46.3101 Y13.5932
G01 X46.3062 Y13.5906
G01 X46.3017 Y13.5897
G01 X46.2971 Y13.5906
G01 X46.2932 Y13.5932
G01 X46.2906 Y13.5971
G01 X46.2897 Y13.6017
G01 X46.2906 Y13.6062
G01 X46.2932 Y13.6101
G01 X46.2971 Y13.6127
G01 X46.3017 Y13.6137
G01 X46.3062 Y13.6127
G01 X46.3101 Y13.6101
G01 X46.3127 Y13.6062
G01 X46.3137 Y13.6017
G00 Z0.5000
G00 X60.5137 Y12.6017
G01 F250.00
G01 Z-0.1000
G01 F1250.00
G01 X60.5127 Y12.5971
G01 X60.5101 Y12.5932
G01 X60.5062 Y12.5906
G01 X60.5017 Y12.5897
G01 X60.4971 Y12.5906
G01 X60.4932 Y12.5932
G01 X60.4906 Y12.5971
G01 X60.4897 Y12.6017
G01 X60.4906 Y12.6062
G01 X60.4932 Y12.6101
G01 X60.4971 Y12.6127
G01 X60.5017 Y12.6137
G01 X60.5062 Y12.6127
G01 X60.5101 Y12.6101
G01 X60.5127 Y12.6062
G01 X60.5137 Y12.6017
G00 X60.5137 Y12.6017
G01 F250.00
G01 Z-0.2000
G01 F1250.00
G01 X60.5127 Y12.5971
G01 X60.5101 Y12.5932
G01 X60.5062 Y12.5906
G01 X60.5017 Y12.5897
G01 X60.4971 Y12.5906
G01 X60.4932 Y12.5932
G01 X60.4906 Y12.5971
G01 X60.4897 Y12.6017
G01 X60.4906 Y12.6062
G01 X60.4932 Y12.6101
G01 X60.4971 Y12.6127
G01 X60.5017 Y12.6137
G01 X60.5062 Y12.6127
G01 X60.5101 Y12.6101
G01 X60.5127 Y12.6062
G01 X60.5137 Y12.6017
G00 X60.5137 Y12.6017
G01 F250.00
G01 Z-0.3000
G01 F1250.00
G01 X60.5127 Y12.5971
G01 X60.5101 Y12.5932
G01 X60.5062 Y12.5906
G01 X60.5017 Y12.5897
G01 X60.4971 Y12.5906
G01 X60.4932 Y12.5932
G01 X60.4906 Y12.5971
G01 X60.4897 Y12.6017
G01 X60.4906 Y12.6062
G01 X60.4932 Y12.6101
G01 X60.4971 Y12.6127
G01 X60.5017 Y12.6137
G01 X60.5062 Y12.6127
G01 X60.5101 Y12.6101
G01 X60.5127 Y12.6062
G01 X60.5137 Y12.6017
G00 X60.5137 Y12.6017
G01 F250.00
G01 Z-0.4000
G01 F1250.00
G01 X60.5127 Y12.5971
G01 X60.5101 Y12.5932
G01 X60.5062 Y12.5906
G01 X60.5017 Y12.5897
G01 X60.4971 Y12.5906
G01 X60.4932 Y12.5932
G01 X60.4906 Y12.5971
G01 X60.4897 Y12.6017
G01 X60.4906 Y12.6062
G01 X60.4932 Y12.6101
G01 X60.4971 Y12.6127
G01 X60.5017 Y12.6137
G01 X60.5062 Y12.6127
G01 X60.5101 Y12.6101
G01 X60.5127 Y12.6062
G01 X60.5137 Y12.6017
G00 X60.5137 Y12.6017
G01 F250.00
G01 Z-0.5000
G01 F1250.00
G01 X60.5127 Y12.5971
G01 X60.5101 Y12.5932
G01 X60.5062 Y12.5906
G01 X60.5017 Y12.5897
G01 X60.4971 Y12.5906
G01 X60.4932 Y12.5932
G01 X60.4906 Y12.5971
G01 X60.4897 Y12.6017
G01 X60.4906 Y12.6062
G01 X60.4932 Y12.6101
G01 X60.4971 Y12.6127
G01 X60.5017 Y12.6137
G01 X60.5062 Y12.6127
G01 X60.5101 Y12.6101
G01 X60.5127 Y12.6062
G01 X60.5137 Y12.6017
G00 X60.5137 Y12.6017
G01 F250.00
G01 Z-0.6000
G01 F1250.00
G01 X60.5127 Y12.5971
G01 X60.5101 Y12.5932
G01 X60.5062 Y12.5906
G01 X60.5017 Y12.5897
G01 X60.4971 Y12.5906
G01 X60.4932 Y12.5932
G01 X60.4906 Y12.5971
G01 X60.4897 Y12.6017
G01 X60.4906 Y12.6062
G01 X60.4932 Y12.6101
G01 X60.4971 Y12.6127
G01 X60.5017 Y12.6137
G01 X60.5062 Y12.6127
G01 X60.5101 Y12.6101
G01 X60.5127 Y12.6062
G01 X60.5137 Y12.6017
G00 X60.5137 Y12.6017
G01 F250.00
G01 Z-0.7000
G01 F1250.00
G01 X60.5127 Y12.5971
G01 X60.5101 Y12.5932
G01 X60.5062 Y12.5906
G01 X60.5017 Y12.5897
G01 X60.4971 Y12.5906
G01 X60.4932 Y12.5932
G01 X60.4906 Y12.5971
G01 X60.4897 Y12.6017
G01 X60.4906 Y12.6062
G01 X60.4932 Y12.6101
G01 X60.4971 Y12.6127
G01 X60.5017 Y12.6137
G01 X60.5062 Y12.6127
G01 X60.5101 Y12.6101
G01 X60.5127 Y12.6062
G01 X60.5137 Y12.6017
G00 X60.5137 Y12.6017
G01 F250.00
G01 Z-0.8000
G01 F1250.00
G01 X60.5127 Y12.5971
G01 X60.5101 Y12.5932
G01 X60.5062 Y12.5906
G01 X60.5017 Y12.5897
G01 X60.4971 Y12.5906
G01 X60.4932 Y12.5932
G01 X60.4906 Y12.5971
G01 X60.4897 Y12.6017
G01 X60.4906 Y12.6062
G01 X60.4932 Y12.6101
G01 X60.4971 Y12.6127
G01 X60.5017 Y12.6137
G01 X60.5062 Y12.6127
G01 X60.5101 Y12.6101
G01 X60.5127 Y12.6062
G01 X60.5137 Y12.6017
G00 X60.5137 Y12.6017
G01 F250.00
G01 Z-0.9000
G01 F1250.00
G01 X60.5127 Y12.5971
G01 X60.5101 Y12.5932
G01 X60.5062 Y12.5906
G01 X60.5017 Y12.5897
G01 X60.4971 Y12.5906
G01 X60.4932 Y12.5932
G01 X60.4906 Y12.5971
G01 X60.4897 Y12.6017
G01 X60.4906 Y12.6062
G01 X60.4932 Y12.6101
G01 X60.4971 Y12.6127
G01 X60.5017 Y12.6137
G01 X60.5062 Y12.6127
G01 X60.5101 Y12.6101
G01 X60.5127 Y12.6062
G01 X60.5137 Y12.6017
G00 X60.5137 Y12.6017
G01 F250.00
G01 Z-1.0000
G01 F1250.00
G01 X60.5127 Y12.5971
G01 X60.5101 Y12.5932
G01 X60.5062 Y12.5906
G01 X60.5017 Y12.5897
G01 X60.4971 Y12.5906
G01 X60.4932 Y12.5932
G01 X60.4906 Y12.5971
G01 X60.4897 Y12.6017
G01 X60.4906 Y12.6062
G01 X60.4932 Y12.6101
G01 X60.4971 Y12.6127
G01 X60.5017 Y12.6137
G01 X60.5062 Y12.6127
G01 X60.5101 Y12.6101
G01 X60.5127 Y12.6062
G01 X60.5137 Y12.6017
G00 X60.5137 Y12.6017
G01 F250.00
G01 Z-1.1000
G01 F1250.00
G01 X60.5127 Y12.5971
G01 X60.5101 Y12.5932
G01 X60.5062 Y12.5906
G01 X60.5017 Y12.5897
G01 X60.4971 Y12.5906
G01 X60.4932 Y12.5932
G01 X60.4906 Y12.5971
G01 X60.4897 Y12.6017
G01 X60.4906 Y12.6062
G01 X60.4932 Y12.6101
G01 X60.4971 Y12.6127
G01 X60.5017 Y12.6137
G01 X60.5062 Y12.6127
G01 X60.5101 Y12.6101
G01 X60.5127 Y12.6062
G01 X60.5137 Y12.6017
G00 X60.5137 Y12.6017
G01 F250.00
G01 Z-1.2000
G01 F1250.00
G01 X60.5127 Y12.5971
G01 X60.5101 Y12.5932
G01 X60.5062 Y12.5906
G01 X60.5017 Y12.5897
G01 X60.4971 Y12.5906
G01 X60.4932 Y12.5932
G01 X60.4906 Y12.5971
G01 X60.4897 Y12.6017
G01 X60.4906 Y12.6062
G01 X60.4932 Y12.6101
G01 X60.4971 Y12.6127
G01 X60.5017 Y12.6137
G01 X60.5062 Y12.6127
G01 X60.5101 Y12.6101
G01 X60.5127 Y12.6062
G01 X60.5137 Y12.6017
G00 X60.5137 Y12.6017
G01 F250.00
G01 Z-1.3000
G01 F1250.00
G01 X60.5127 Y12.5971
G01 X60.5101 Y12.5932
G01 X60.5062 Y12.5906
G01 X60.5017 Y12.5897
G01 X60.4971 Y12.5906
G01 X60.4932 Y12.5932
G01 X60.4906 Y12.5971
G01 X60.4897 Y12.6017
G01 X60.4906 Y12.6062
G01 X60.4932 Y12.6101
G01 X60.4971 Y12.6127
G01 X60.5017 Y12.6137
G01 X60.5062 Y12.6127
G01 X60.5101 Y12.6101
G01 X60.5127 Y12.6062
G01 X60.5137 Y12.6017
G00 X60.5137 Y12.6017
G01 F250.00
G01 Z-1.4000
G01 F1250.00
G01 X60.5127 Y12.5971
G01 X60.5101 Y12.5932
G01 X60.5062 Y12.5906
G01 X60.5017 Y12.5897
G01 X60.4971 Y12.5906
G01 X60.4932 Y12.5932
G01 X60.4906 Y12.5971
G01 X60.4897 Y12.6017
G01 X60.4906 Y12.6062
G01 X60.4932 Y12.6101
G01 X60.4971 Y12.6127
G01 X60.5017 Y12.6137
G01 X60.5062 Y12.6127
G01 X60.5101 Y12.6101
G01 X60.5127 Y12.6062
G01 X60.5137 Y12.6017
G00 X60.5137 Y12.6017
G01 F250.00
G01 Z-1.5000
G01 F1250.00
G01 X60.5127 Y12.5971
G01 X60.5101 Y12.5932
G01 X60.5062 Y12.5906
G01 X60.5017 Y12.5897
G01 X60.4971 Y12.5906
G01 X60.4932 Y12.5932
G01 X60.4906 Y12.5971
G01 X60.4897 Y12.6017
G01 X60.4906 Y12.6062
G01 X60.4932 Y12.6101
G01 X60.4971 Y12.6127
G01 X60.5017 Y12.6137
G01 X60.5062 Y12.6127
G01 X60.5101 Y12.6101
G01 X60.5127 Y12.6062
G01 X60.5137 Y12.6017
G00 X60.5137 Y12.6017
G01 F250.00
G01 Z-1.6000
G01 F1250.00
G01 X60.5127 Y12.5971
G01 X60.5101 Y12.5932
G01 X60.5062 Y12.5906
G01 X60.5017 Y12.5897
G01 X60.4971 Y12.5906
G01 X60.4932 Y12.5932
G01 X60.4906 Y12.5971
G01 X60.4897 Y12.6017
G01 X60.4906 Y12.6062
G01 X60.4932 Y12.6101
G01 X60.4971 Y12.6127
G01 X60.5017 Y12.6137
G01 X60.5062 Y12.6127
G01 X60.5101 Y12.6101
G01 X60.5127 Y12.6062
G01 X60.5137 Y12.6017
G00 X60.5137 Y12.6017
G01 F250.00
G01 Z-1.7000
G01 F1250.00
G01 X60.5127 Y12.5971
G01 X60.5101 Y12.5932
G01 X60.5062 Y12.5906
G01 X60.5017 Y12.5897
G01 X60.4971 Y12.5906
G01 X60.4932 Y12.5932
G01 X60.4906 Y12.5971
G01 X60.4897 Y12.6017
G01 X60.4906 Y12.6062
G01 X60.4932 Y12.6101
G01 X60.4971 Y12.6127
G01 X60.5017 Y12.6137
G01 X60.5062 Y12.6127
G01 X60.5101 Y12.6101
G01 X60.5127 Y12.6062
G01 X60.5137 Y12.6017
G00 X60.5137 Y12.6017
G01 F250.00
G01 Z-1.8000
G01 F1250.00
G01 X60.5127 Y12.5971
G01 X60.5101 Y12.5932
G01 X60.5062 Y12.5906
G01 X60.5017 Y12.5897
G01 X60.4971 Y12.5906
G01 X60.4932 Y12.5932
G01 X60.4906 Y12.5971
G01 X60.4897 Y12.6017
G01 X60.4906 Y12.6062
G01 X60.4932 Y12.6101
G01 X60.4971 Y12.6127
G01 X60.5017 Y12.6137
G01 X60.5062 Y12.6127
G01 X60.5101 Y12.6101
G01 X60.5127 Y12.6062
G01 X60.5137 Y12.6017
G00 Z0.5000
G00 X60.5137 Y24.6017
G01 F250.00
G01 Z-0.1000
G01 F1250.00
G01 X60.5127 Y24.5971
G01 X60.5101 Y24.5932
G01 X60.5062 Y24.5906
G01 X60.5017 Y24.5897
G01 X60.4971 Y24.5906
G01 X60.4932 Y24.5932
G01 X60.4906 Y24.5971
G01 X60.4897 Y24.6017
G01 X60.4906 Y24.6062
G01 X60.4932 Y24.6101
G01 X60.4971 Y24.6127
G01 X60.5017 Y24.6137
G01 X60.5062 Y24.6127
G01 X60.5101 Y24.6101
G01 X60.5127 Y24.6062
G01 X60.5137 Y24.6017
G00 X60.5137 Y24.6017
G01 F250.00
G01 Z-0.2000
G01 F1250.00
G01 X60.5127 Y24.5971
G01 X60.5101 Y24.5932
G01 X60.5062 Y24.5906
G01 X60.5017 Y24.5897
G01 X60.4971 Y24.5906
G01 X60.4932 Y24.5932
G01 X60.4906 Y24.5971
G01 X60.4897 Y24.6017
G01 X60.4906 Y24.6062
G01 X60.4932 Y24.6101
G01 X60.4971 Y24.6127
G01 X60.5017 Y24.6137
G01 X60.5062 Y24.6127
G01 X60.5101 Y24.6101
G01 X60.5127 Y24.6062
G01 X60.5137 Y24.6017
G00 X60.5137 Y24.6017
G01 F250.00
G01 Z-0.3000
G01 F1250.00
G01 X60.5127 Y24.5971
G01 X60.5101 Y24.5932
G01 X60.5062 Y24.5906
G01 X60.5017 Y24.5897
G01 X60.4971 Y24.5906
G01 X60.4932 Y24.5932
G01 X60.4906 Y24.5971
G01 X60.4897 Y24.6017
G01 X60.4906 Y24.6062
G01 X60.4932 Y24.6101
G01 X60.4971 Y24.6127
G01 X60.5017 Y24.6137
G01 X60.5062 Y24.6127
G01 X60.5101 Y24.6101
G01 X60.5127 Y24.6062
G01 X60.5137 Y24.6017
G00 X60.5137 Y24.6017
G01 F250.00
G01 Z-0.4000
G01 F1250.00
G01 X60.5127 Y24.5971
G01 X60.5101 Y24.5932
G01 X60.5062 Y24.5906
G01 X60.5017 Y24.5897
G01 X60.4971 Y24.5906
G01 X60.4932 Y24.5932
G01 X60.4906 Y24.5971
G01 X60.4897 Y24.6017
G01 X60.4906 Y24.6062
G01 X60.4932 Y24.6101
G01 X60.4971 Y24.6127
G01 X60.5017 Y24.6137
G01 X60.5062 Y24.6127
G01 X60.5101 Y24.6101
G01 X60.5127 Y24.6062
G01 X60.5137 Y24.6017
G00 X60.5137 Y24.6017
G01 F250.00
G01 Z-0.5000
G01 F1250.00
G01 X60.5127 Y24.5971
G01 X60.5101 Y24.5932
G01 X60.5062 Y24.5906
G01 X60.5017 Y24.5897
G01 X60.4971 Y24.5906
G01 X60.4932 Y24.5932
G01 X60.4906 Y24.5971
G01 X60.4897 Y24.6017
G01 X60.4906 Y24.6062
G01 X60.4932 Y24.6101
G01 X60.4971 Y24.6127
G01 X60.5017 Y24.6137
G01 X60.5062 Y24.6127
G01 X60.5101 Y24.6101
G01 X60.5127 Y24.6062
G01 X60.5137 Y24.6017
G00 X60.5137 Y24.6017
G01 F250.00
G01 Z-0.6000
G01 F1250.00
G01 X60.5127 Y24.5971
G01 X60.5101 Y24.5932
G01 X60.5062 Y24.5906
G01 X60.5017 Y24.5897
G01 X60.4971 Y24.5906
G01 X60.4932 Y24.5932
G01 X60.4906 Y24.5971
G01 X60.4897 Y24.6017
G01 X60.4906 Y24.6062
G01 X60.4932 Y24.6101
G01 X60.4971 Y24.6127
G01 X60.5017 Y24.6137
G01 X60.5062 Y24.6127
G01 X60.5101 Y24.6101
G01 X60.5127 Y24.6062
G01 X60.5137 Y24.6017
G00 X60.5137 Y24.6017
G01 F250.00
G01 Z-0.7000
G01 F1250.00
G01 X60.5127 Y24.5971
G01 X60.5101 Y24.5932
G01 X60.5062 Y24.5906
G01 X60.5017 Y24.5897
G01 X60.4971 Y24.5906
G01 X60.4932 Y24.5932
G01 X60.4906 Y24.5971
G01 X60.4897 Y24.6017
G01 X60.4906 Y24.6062
G01 X60.4932 Y24.6101
G01 X60.4971 Y24.6127
G01 X60.5017 Y24.6137
G01 X60.5062 Y24.6127
G01 X60.5101 Y24.6101
G01 X60.5127 Y24.6062
G01 X60.5137 Y24.6017
G00 X60.5137 Y24.6017
G01 F250.00
G01 Z-0.8000
G01 F1250.00
G01 X60.5127 Y24.5971
G01 X60.5101 Y24.5932
G01 X60.5062 Y24.5906
G01 X60.5017 Y24.5897
G01 X60.4971 Y24.5906
G01 X60.4932 Y24.5932
G01 X60.4906 Y24.5971
G01 X60.4897 Y24.6017
G01 X60.4906 Y24.6062
G01 X60.4932 Y24.6101
G01 X60.4971 Y24.6127
G01 X60.5017 Y24.6137
G01 X60.5062 Y24.6127
G01 X60.5101 Y24.6101
G01 X60.5127 Y24.6062
G01 X60.5137 Y24.6017
G00 X60.5137 Y24.6017
G01 F250.00
G01 Z-0.9000
G01 F1250.00
G01 X60.5127 Y24.5971
G01 X60.5101 Y24.5932
G01 X60.5062 Y24.5906
G01 X60.5017 Y24.5897
G01 X60.4971 Y24.5906
G01 X60.4932 Y24.5932
G01 X60.4906 Y24.5971
G01 X60.4897 Y24.6017
G01 X60.4906 Y24.6062
G01 X60.4932 Y24.6101
G01 X60.4971 Y24.6127
G01 X60.5017 Y24.6137
G01 X60.5062 Y24.6127
G01 X60.5101 Y24.6101
G01 X60.5127 Y24.6062
G01 X60.5137 Y24.6017
G00 X60.5137 Y24.6017
G01 F250.00
G01 Z-1.0000
G01 F1250.00
G01 X60.5127 Y24.5971
G01 X60.5101 Y24.5932
G01 X60.5062 Y24.5906
G01 X60.5017 Y24.5897
G01 X60.4971 Y24.5906
G01 X60.4932 Y24.5932
G01 X60.4906 Y24.5971
G01 X60.4897 Y24.6017
G01 X60.4906 Y24.6062
G01 X60.4932 Y24.6101
G01 X60.4971 Y24.6127
G01 X60.5017 Y24.6137
G01 X60.5062 Y24.6127
G01 X60.5101 Y24.6101
G01 X60.5127 Y24.6062
G01 X60.5137 Y24.6017
G00 X60.5137 Y24.6017
G01 F250.00
G01 Z-1.1000
G01 F1250.00
G01 X60.5127 Y24.5971
G01 X60.5101 Y24.5932
G01 X60.5062 Y24.5906
G01 X60.5017 Y24.5897
G01 X60.4971 Y24.5906
G01 X60.4932 Y24.5932
G01 X60.4906 Y24.5971
G01 X60.4897 Y24.6017
G01 X60.4906 Y24.6062
G01 X60.4932 Y24.6101
G01 X60.4971 Y24.6127
G01 X60.5017 Y24.6137
G01 X60.5062 Y24.6127
G01 X60.5101 Y24.6101
G01 X60.5127 Y24.6062
G01 X60.5137 Y24.6017
G00 X60.5137 Y24.6017
G01 F250.00
G01 Z-1.2000
G01 F1250.00
G01 X60.5127 Y24.5971
G01 X60.5101 Y24.5932
G01 X60.5062 Y24.5906
G01 X60.5017 Y24.5897
G01 X60.4971 Y24.5906
G01 X60.4932 Y24.5932
G01 X60.4906 Y24.5971
G01 X60.4897 Y24.6017
G01 X60.4906 Y24.6062
G01 X60.4932 Y24.6101
G01 X60.4971 Y24.6127
G01 X60.5017 Y24.6137
G01 X60.5062 Y24.6127
G01 X60.5101 Y24.6101
G01 X60.5127 Y24.6062
G01 X60.5137 Y24.6017
G00 X60.5137 Y24.6017
G01 F250.00
G01 Z-1.3000
G01 F1250.00
G01 X60.5127 Y24.5971
G01 X60.5101 Y24.5932
G01 X60.5062 Y24.5906
G01 X60.5017 Y24.5897
G01 X60.4971 Y24.5906
G01 X60.4932 Y24.5932
G01 X60.4906 Y24.5971
G01 X60.4897 Y24.6017
G01 X60.4906 Y24.6062
G01 X60.4932 Y24.6101
G01 X60.4971 Y24.6127
G01 X60.5017 Y24.6137
G01 X60.5062 Y24.6127
G01 X60.5101 Y24.6101
G01 X60.5127 Y24.6062
G01 X60.5137 Y24.6017
G00 X60.5137 Y24.6017
G01 F250.00
G01 Z-1.4000
G01 F1250.00
G01 X60.5127 Y24.5971
G01 X60.5101 Y24.5932
G01 X60.5062 Y24.5906
G01 X60.5017 Y24.5897
G01 X60.4971 Y24.5906
G01 X60.4932 Y24.5932
G01 X60.4906 Y24.5971
G01 X60.4897 Y24.6017
G01 X60.4906 Y24.6062
G01 X60.4932 Y24.6101
G01 X60.4971 Y24.6127
G01 X60.5017 Y24.6137
G01 X60.5062 Y24.6127
G01 X60.5101 Y24.6101
G01 X60.5127 Y24.6062
G01 X60.5137 Y24.6017
G00 X60.5137 Y24.6017
G01 F250.00
G01 Z-1.5000
G01 F1250.00
G01 X60.5127 Y24.5971
G01 X60.5101 Y24.5932
G01 X60.5062 Y24.5906
G01 X60.5017 Y24.5897
G01 X60.4971 Y24.5906
G01 X60.4932 Y24.5932
G01 X60.4906 Y24.5971
G01 X60.4897 Y24.6017
G01 X60.4906 Y24.6062
G01 X60.4932 Y24.6101
G01 X60.4971 Y24.6127
G01 X60.5017 Y24.6137
G01 X60.5062 Y24.6127
G01 X60.5101 Y24.6101
G01 X60.5127 Y24.6062
G01 X60.5137 Y24.6017
G00 X60.5137 Y24.6017
G01 F250.00
G01 Z-1.6000
G01 F1250.00
G01 X60.5127 Y24.5971
G01 X60.5101 Y24.5932
G01 X60.5062 Y24.5906
G01 X60.5017 Y24.5897
G01 X60.4971 Y24.5906
G01 X60.4932 Y24.5932
G01 X60.4906 Y24.5971
G01 X60.4897 Y24.6017
