(G-CODE GENERATED BY FLATCAM v8.991 - www.flatcam.org - Version Date: 2019/12/30)

(Name: Cncjob_Board_Edge)
(Type: G-code from Geometry)
(Units: MM)

(Created on Monday, 30 January 2023 at 17:36)

(TOOL DIAMETER: 1.5 mm)
(Feedrate: 2500.0 mm/min)
(Feedrate_Z: 250.0 mm/min)
(Feedrate rapids 1500.0 mm/min)

(Z_Cut: -1.8 mm)
(Z_Move: 0.5 mm)
(Z Toolchange: 15.0 mm)
(X,Y Toolchange: 0.0000, 0.0000 mm)
(Z Start: 0.5 mm)
(Z End: 15.0 mm)
(Steps per circle: 64)
(Preprocessor Geometry: default)

(X range:    1.2500 ...   80.3533  mm)
(Y range:    1.2500 ...   83.6533  mm)

(Spindle Speed: None RPM)
G21
G90
G94




G01 F2500.00
G00 Z0.5000
G00 Z0.5000
M03
G4 P1.0
G00 X1.3509 Y2.0649
G01 F250.00
G01 Z-0.1000
G01 F2500.00
G01 X1.3500 Y2.1017
G01 X1.3501 Y27.7109
G01 X1.3509 Y27.7385
G01 X1.3525 Y27.7668
G01 X1.3561 Y27.8034
G01 X1.3601 Y27.8315
G01 X1.3664 Y27.8678
G01 X1.3702 Y27.8858
G01 X1.3769 Y27.9134
G01 X1.3867 Y27.9489
G01 X1.3922 Y27.9664
G01 X1.4080 Y28.0105
G01 X1.4148 Y28.0276
G01 X1.4297 Y28.0612
G01 X1.4421 Y28.0868
G01 X1.4506 Y28.1031
G01 X1.4594 Y28.1192
G01 X1.4738 Y28.1437
G01 X1.4935 Y28.1748
G01 X1.5039 Y28.1900
G01 X1.5207 Y28.2129
G01 X1.5433 Y28.2419
G01 X1.5552 Y28.2560
G01 X1.5741 Y28.2772
G01 X1.5866 Y28.2907
G01 X1.6126 Y28.3167
G01 X1.6473 Y28.3481
G01 X1.6614 Y28.3600
G01 X1.6904 Y28.3826
G01 X1.7133 Y28.3994
G01 X1.7285 Y28.4098
G01 X1.7596 Y28.4295
G01 X1.7841 Y28.4439
G01 X1.8165 Y28.4612
G01 X1.8421 Y28.4736
G01 X1.8757 Y28.4885
G01 X1.8928 Y28.4953
G01 X1.9195 Y28.5051
G01 X1.9544 Y28.5166
G01 X1.9899 Y28.5264
G01 X2.0175 Y28.5331
G01 X2.0536 Y28.5403
G01 X2.0816 Y28.5447
G01 X2.1182 Y28.5492
G01 X2.1365 Y28.5508
G01 X2.1740 Y28.5528
G01 X2.2017 Y28.5533
G01 X40.3017 Y28.5533
G01 X40.3201 Y28.5531
G01 X40.3484 Y28.5519
G01 X40.3668 Y28.5508
G01 X40.4034 Y28.5472
G01 X40.4497 Y28.5403
G01 X40.4678 Y28.5369
G01 X40.5037 Y28.5289
G01 X40.5312 Y28.5218
G01 X40.5489 Y28.5166
G01 X40.5838 Y28.5051
G01 X40.6105 Y28.4953
G01 X40.6445 Y28.4812
G01 X40.6612 Y28.4736
G01 X40.6868 Y28.4612
G01 X40.7031 Y28.4527
G01 X40.7192 Y28.4439
G01 X40.7437 Y28.4295
G01 X40.7594 Y28.4198
G01 X40.7900 Y28.3994
G01 X40.8276 Y28.3715
G01 X40.8560 Y28.3481
G01 X40.8698 Y28.3359
G01 X40.8907 Y28.3167
G01 X40.9039 Y28.3039
G01 X40.9292 Y28.2772
G01 X40.9481 Y28.2560
G01 X40.9715 Y28.2276
G01 X40.9826 Y28.2129
G01 X40.9994 Y28.1900
G01 X41.0098 Y28.1748
G01 X41.0295 Y28.1437
G01 X41.0439 Y28.1192
G01 X41.0527 Y28.1031
G01 X41.0693 Y28.0702
G01 X41.0812 Y28.0445
G01 X41.0953 Y28.0105
G01 X41.1051 Y27.9838
G01 X41.1166 Y27.9489
G01 X41.1264 Y27.9134
G01 X41.1331 Y27.8858
G01 X41.1403 Y27.8497
G01 X41.1432 Y27.8315
G01 X41.1472 Y27.8034
G01 X41.1508 Y27.7668
G01 X41.1528 Y27.7293
G01 X41.1533 Y27.7017
G01 X41.1532 Y2.0925
G01 X41.1524 Y2.0649
G01 X41.1508 Y2.0365
G01 X41.1472 Y1.9999
G01 X41.1432 Y1.9718
G01 X41.1369 Y1.9355
G01 X41.1331 Y1.9175
G01 X41.1264 Y1.8899
G01 X41.1218 Y1.8721
G01 X41.1111 Y1.8369
G01 X41.0953 Y1.7928
G01 X41.0812 Y1.7588
G01 X41.0736 Y1.7421
G01 X41.0612 Y1.7165
G01 X41.0527 Y1.7002
G01 X41.0439 Y1.6841
G01 X41.0295 Y1.6596
G01 X41.0198 Y1.6439
G01 X40.9994 Y1.6133
G01 X40.9715 Y1.5757
G01 X40.9600 Y1.5614
G01 X40.9359 Y1.5335
G01 X40.9167 Y1.5126
G01 X40.9039 Y1.4994
G01 X40.8772 Y1.4741
G01 X40.8560 Y1.4552
G01 X40.8419 Y1.4433
G01 X40.8129 Y1.4207
G01 X40.7900 Y1.4039
G01 X40.7748 Y1.3935
G01 X40.7437 Y1.3738
G01 X40.7192 Y1.3594
G01 X40.7031 Y1.3506
G01 X40.6702 Y1.3340
G01 X40.6445 Y1.3221
G01 X40.6105 Y1.3080
G01 X40.5838 Y1.2982
G01 X40.5489 Y1.2867
G01 X40.5134 Y1.2769
G01 X40.4858 Y1.2702
G01 X40.4497 Y1.2630
G01 X40.4217 Y1.2586
G01 X40.4034 Y1.2561
G01 X40.3668 Y1.2525
G01 X40.3293 Y1.2505
G01 X40.3017 Y1.2500
G01 X2.1924 Y1.2501
G01 X2.1549 Y1.2514
G01 X2.1182 Y1.2541
G01 X2.0999 Y1.2561
G01 X2.0718 Y1.2601
G01 X2.0355 Y1.2664
G01 X2.0175 Y1.2702
G01 X1.9899 Y1.2769
G01 X1.9544 Y1.2867
G01 X1.9369 Y1.2922
G01 X1.9101 Y1.3016
G01 X1.8757 Y1.3148
G01 X1.8588 Y1.3221
G01 X1.8331 Y1.3340
G01 X1.8002 Y1.3506
G01 X1.7841 Y1.3594
G01 X1.7596 Y1.3738
G01 X1.7285 Y1.3935
G01 X1.6984 Y1.4147
G01 X1.6757 Y1.4318
G01 X1.6614 Y1.4433
G01 X1.6335 Y1.4674
G01 X1.6126 Y1.4866
G01 X1.5866 Y1.5126
G01 X1.5552 Y1.5473
G01 X1.5318 Y1.5757
G01 X1.5039 Y1.6133
G01 X1.4835 Y1.6439
G01 X1.4594 Y1.6841
G01 X1.4421 Y1.7165
G01 X1.4221 Y1.7588
G01 X1.4080 Y1.7928
G01 X1.3922 Y1.8369
G01 X1.3815 Y1.8721
G01 X1.3702 Y1.9175
G01 X1.3630 Y1.9536
G01 X1.3561 Y1.9999
G01 X1.3525 Y2.0365
G01 X1.3509 Y2.0649
G00 X1.3509 Y2.0649
G01 F250.00
G01 Z-0.2000
G01 F2500.00
G01 X1.3500 Y2.1017
G01 X1.3501 Y27.7109
G01 X1.3509 Y27.7385
G01 X1.3525 Y27.7668
G01 X1.3561 Y27.8034
G01 X1.3601 Y27.8315
G01 X1.3664 Y27.8678
G01 X1.3702 Y27.8858
G01 X1.3769 Y27.9134
G01 X1.3867 Y27.9489
G01 X1.3922 Y27.9664
G01 X1.4080 Y28.0105
G01 X1.4148 Y28.0276
G01 X1.4297 Y28.0612
G01 X1.4421 Y28.0868
G01 X1.4506 Y28.1031
G01 X1.4594 Y28.1192
G01 X1.4738 Y28.1437
G01 X1.4935 Y28.1748
G01 X1.5039 Y28.1900
G01 X1.5207 Y28.2129
G01 X1.5433 Y28.2419
G01 X1.5552 Y28.2560
G01 X1.5741 Y28.2772
G01 X1.5866 Y28.2907
G01 X1.6126 Y28.3167
G01 X1.6473 Y28.3481
G01 X1.6614 Y28.3600
G01 X1.6904 Y28.3826
G01 X1.7133 Y28.3994
G01 X1.7285 Y28.4098
G01 X1.7596 Y28.4295
G01 X1.7841 Y28.4439
G01 X1.8165 Y28.4612
G01 X1.8421 Y28.4736
G01 X1.8757 Y28.4885
G01 X1.8928 Y28.4953
G01 X1.9195 Y28.5051
G01 X1.9544 Y28.5166
G01 X1.9899 Y28.5264
G01 X2.0175 Y28.5331
G01 X2.0536 Y28.5403
G01 X2.0816 Y28.5447
G01 X2.1182 Y28.5492
G01 X2.1365 Y28.5508
G01 X2.1740 Y28.5528
G01 X2.2017 Y28.5533
G01 X40.3017 Y28.5533
G01 X40.3201 Y28.5531
G01 X40.3484 Y28.5519
G01 X40.3668 Y28.5508
G01 X40.4034 Y28.5472
G01 X40.4497 Y28.5403
G01 X40.4678 Y28.5369
G01 X40.5037 Y28.5289
G01 X40.5312 Y28.5218
G01 X40.5489 Y28.5166
G01 X40.5838 Y28.5051
G01 X40.6105 Y28.4953
G01 X40.6445 Y28.4812
G01 X40.6612 Y28.4736
G01 X40.6868 Y28.4612
G01 X40.7031 Y28.4527
G01 X40.7192 Y28.4439
G01 X40.7437 Y28.4295
G01 X40.7594 Y28.4198
G01 X40.7900 Y28.3994
G01 X40.8276 Y28.3715
G01 X40.8560 Y28.3481
G01 X40.8698 Y28.3359
G01 X40.8907 Y28.3167
G01 X40.9039 Y28.3039
G01 X40.9292 Y28.2772
G01 X40.9481 Y28.2560
G01 X40.9715 Y28.2276
G01 X40.9826 Y28.2129
G01 X40.9994 Y28.1900
G01 X41.0098 Y28.1748
G01 X41.0295 Y28.1437
G01 X41.0439 Y28.1192
G01 X41.0527 Y28.1031
G01 X41.0693 Y28.0702
G01 X41.0812 Y28.0445
G01 X41.0953 Y28.0105
G01 X41.1051 Y27.9838
G01 X41.1166 Y27.9489
G01 X41.1264 Y27.9134
G01 X41.1331 Y27.8858
G01 X41.1403 Y27.8497
G01 X41.1432 Y27.8315
G01 X41.1472 Y27.8034
G01 X41.1508 Y27.7668
G01 X41.1528 Y27.7293
G01 X41.1533 Y27.7017
G01 X41.1532 Y2.0925
G01 X41.1524 Y2.0649
G01 X41.1508 Y2.0365
G01 X41.1472 Y1.9999
G01 X41.1432 Y1.9718
G01 X41.1369 Y1.9355
G01 X41.1331 Y1.9175
G01 X41.1264 Y1.8899
G01 X41.1218 Y1.8721
G01 X41.1111 Y1.8369
G01 X41.0953 Y1.7928
G01 X41.0812 Y1.7588
G01 X41.0736 Y1.7421
G01 X41.0612 Y1.7165
G01 X41.0527 Y1.7002
G01 X41.0439 Y1.6841
G01 X41.0295 Y1.6596
G01 X41.0198 Y1.6439
G01 X40.9994 Y1.6133
G01 X40.9715 Y1.5757
G01 X40.9600 Y1.5614
G01 X40.9359 Y1.5335
G01 X40.9167 Y1.5126
G01 X40.9039 Y1.4994
G01 X40.8772 Y1.4741
G01 X40.8560 Y1.4552
G01 X40.8419 Y1.4433
G01 X40.8129 Y1.4207
G01 X40.7900 Y1.4039
G01 X40.7748 Y1.3935
G01 X40.7437 Y1.3738
G01 X40.7192 Y1.3594
G01 X40.7031 Y1.3506
G01 X40.6702 Y1.3340
G01 X40.6445 Y1.3221
G01 X40.6105 Y1.3080
G01 X40.5838 Y1.2982
G01 X40.5489 Y1.2867
G01 X40.5134 Y1.2769
G01 X40.4858 Y1.2702
G01 X40.4497 Y1.2630
G01 X40.4217 Y1.2586
G01 X40.4034 Y1.2561
G01 X40.3668 Y1.2525
G01 X40.3293 Y1.2505
G01 X40.3017 Y1.2500
G01 X2.1924 Y1.2501
G01 X2.1549 Y1.2514
G01 X2.1182 Y1.2541
G01 X2.0999 Y1.2561
G01 X2.0718 Y1.2601
G01 X2.0355 Y1.2664
G01 X2.0175 Y1.2702
G01 X1.9899 Y1.2769
G01 X1.9544 Y1.2867
G01 X1.9369 Y1.2922
G01 X1.9101 Y1.3016
G01 X1.8757 Y1.3148
G01 X1.8588 Y1.3221
G01 X1.8331 Y1.3340
G01 X1.8002 Y1.3506
G01 X1.7841 Y1.3594
G01 X1.7596 Y1.3738
G01 X1.7285 Y1.3935
G01 X1.6984 Y1.4147
G01 X1.6757 Y1.4318
G01 X1.6614 Y1.4433
G01 X1.6335 Y1.4674
G01 X1.6126 Y1.4866
G01 X1.5866 Y1.5126
G01 X1.5552 Y1.5473
G01 X1.5318 Y1.5757
G01 X1.5039 Y1.6133
G01 X1.4835 Y1.6439
G01 X1.4594 Y1.6841
G01 X1.4421 Y1.7165
G01 X1.4221 Y1.7588
G01 X1.4080 Y1.7928
G01 X1.3922 Y1.8369
G01 X1.3815 Y1.8721
G01 X1.3702 Y1.9175
G01 X1.3630 Y1.9536
G01 X1.3561 Y1.9999
G01 X1.3525 Y2.0365
G01 X1.3509 Y2.0649
G00 X1.3509 Y2.0649
G01 F250.00
G01 Z-0.3000
G01 F2500.00
G01 X1.3500 Y2.1017
G01 X1.3501 Y27.7109
G01 X1.3509 Y27.7385
G01 X1.3525 Y27.7668
G01 X1.3561 Y27.8034
G01 X1.3601 Y27.8315
G01 X1.3664 Y27.8678
G01 X1.3702 Y27.8858
G01 X1.3769 Y27.9134
G01 X1.3867 Y27.9489
G01 X1.3922 Y27.9664
G01 X1.4080 Y28.0105
G01 X1.4148 Y28.0276
G01 X1.4297 Y28.0612
G01 X1.4421 Y28.0868
G01 X1.4506 Y28.1031
G01 X1.4594 Y28.1192
G01 X1.4738 Y28.1437
G01 X1.4935 Y28.1748
G01 X1.5039 Y28.1900
G01 X1.5207 Y28.2129
G01 X1.5433 Y28.2419
G01 X1.5552 Y28.2560
G01 X1.5741 Y28.2772
G01 X1.5866 Y28.2907
G01 X1.6126 Y28.3167
G01 X1.6473 Y28.3481
G01 X1.6614 Y28.3600
G01 X1.6904 Y28.3826
G01 X1.7133 Y28.3994
G01 X1.7285 Y28.4098
G01 X1.7596 Y28.4295
G01 X1.7841 Y28.4439
G01 X1.8165 Y28.4612
G01 X1.8421 Y28.4736
G01 X1.8757 Y28.4885
G01 X1.8928 Y28.4953
G01 X1.9195 Y28.5051
G01 X1.9544 Y28.5166
G01 X1.9899 Y28.5264
G01 X2.0175 Y28.5331
G01 X2.0536 Y28.5403
G01 X2.0816 Y28.5447
G01 X2.1182 Y28.5492
G01 X2.1365 Y28.5508
G01 X2.1740 Y28.5528
G01 X2.2017 Y28.5533
G01 X40.3017 Y28.5533
G01 X40.3201 Y28.5531
G01 X40.3484 Y28.5519
G01 X40.3668 Y28.5508
G01 X40.4034 Y28.5472
G01 X40.4497 Y28.5403
G01 X40.4678 Y28.5369
G01 X40.5037 Y28.5289
G01 X40.5312 Y28.5218
G01 X40.5489 Y28.5166
G01 X40.5838 Y28.5051
G01 X40.6105 Y28.4953
G01 X40.6445 Y28.4812
G01 X40.6612 Y28.4736
G01 X40.6868 Y28.4612
G01 X40.7031 Y28.4527
G01 X40.7192 Y28.4439
G01 X40.7437 Y28.4295
G01 X40.7594 Y28.4198
G01 X40.7900 Y28.3994
G01 X40.8276 Y28.3715
G01 X40.8560 Y28.3481
G01 X40.8698 Y28.3359
G01 X40.8907 Y28.3167
G01 X40.9039 Y28.3039
G01 X40.9292 Y28.2772
G01 X40.9481 Y28.2560
G01 X40.9715 Y28.2276
G01 X40.9826 Y28.2129
G01 X40.9994 Y28.1900
G01 X41.0098 Y28.1748
G01 X41.0295 Y28.1437
G01 X41.0439 Y28.1192
G01 X41.0527 Y28.1031
G01 X41.0693 Y28.0702
G01 X41.0812 Y28.0445
G01 X41.0953 Y28.0105
G01 X41.1051 Y27.9838
G01 X41.1166 Y27.9489
G01 X41.1264 Y27.9134
G01 X41.1331 Y27.8858
G01 X41.1403 Y27.8497
G01 X41.1432 Y27.8315
G01 X41.1472 Y27.8034
G01 X41.1508 Y27.7668
G01 X41.1528 Y27.7293
G01 X41.1533 Y27.7017
G01 X41.1532 Y2.0925
G01 X41.1524 Y2.0649
G01 X41.1508 Y2.0365
G01 X41.1472 Y1.9999
G01 X41.1432 Y1.9718
G01 X41.1369 Y1.9355
G01 X41.1331 Y1.9175
G01 X41.1264 Y1.8899
G01 X41.1218 Y1.8721
G01 X41.1111 Y1.8369
G01 X41.0953 Y1.7928
G01 X41.0812 Y1.7588
G01 X41.0736 Y1.7421
G01 X41.0612 Y1.7165
G01 X41.0527 Y1.7002
G01 X41.0439 Y1.6841
G01 X41.0295 Y1.6596
G01 X41.0198 Y1.6439
G01 X40.9994 Y1.6133
G01 X40.9715 Y1.5757
G01 X40.9600 Y1.5614
G01 X40.9359 Y1.5335
G01 X40.9167 Y1.5126
G01 X40.9039 Y1.4994
G01 X40.8772 Y1.4741
G01 X40.8560 Y1.4552
G01 X40.8419 Y1.4433
G01 X40.8129 Y1.4207
G01 X40.7900 Y1.4039
G01 X40.7748 Y1.3935
G01 X40.7437 Y1.3738
G01 X40.7192 Y1.3594
G01 X40.7031 Y1.3506
G01 X40.6702 Y1.3340
G01 X40.6445 Y1.3221
G01 X40.6105 Y1.3080
G01 X40.5838 Y1.2982
G01 X40.5489 Y1.2867
G01 X40.5134 Y1.2769
G01 X40.4858 Y1.2702
G01 X40.4497 Y1.2630
G01 X40.4217 Y1.2586
G01 X40.4034 Y1.2561
G01 X40.3668 Y1.2525
G01 X40.3293 Y1.2505
G01 X40.3017 Y1.2500
G01 X2.1924 Y1.2501
G01 X2.1549 Y1.2514
G01 X2.1182 Y1.2541
G01 X2.0999 Y1.2561
G01 X2.0718 Y1.2601
G01 X2.0355 Y1.2664
G01 X2.0175 Y1.2702
G01 X1.9899 Y1.2769
G01 X1.9544 Y1.2867
G01 X1.9369 Y1.2922
G01 X1.9101 Y1.3016
G01 X1.8757 Y1.3148
G01 X1.8588 Y1.3221
G01 X1.8331 Y1.3340
G01 X1.8002 Y1.3506
G01 X1.7841 Y1.3594
G01 X1.7596 Y1.3738
G01 X1.7285 Y1.3935
G01 X1.6984 Y1.4147
G01 X1.6757 Y1.4318
G01 X1.6614 Y1.4433
G01 X1.6335 Y1.4674
G01 X1.6126 Y1.4866
G01 X1.5866 Y1.5126
G01 X1.5552 Y1.5473
G01 X1.5318 Y1.5757
G01 X1.5039 Y1.6133
G01 X1.4835 Y1.6439
G01 X1.4594 Y1.6841
G01 X1.4421 Y1.7165
G01 X1.4221 Y1.7588
G01 X1.4080 Y1.7928
G01 X1.3922 Y1.8369
G01 X1.3815 Y1.8721
G01 X1.3702 Y1.9175
G01 X1.3630 Y1.9536
G01 X1.3561 Y1.9999
G01 X1.3525 Y2.0365
G01 X1.3509 Y2.0649
G00 X1.3509 Y2.0649
G01 F250.00
G01 Z-0.4000
G01 F2500.00
G01 X1.3500 Y2.1017
G01 X1.3501 Y27.7109
G01 X1.3509 Y27.7385
G01 X1.3525 Y27.7668
G01 X1.3561 Y27.8034
G01 X1.3601 Y27.8315
G01 X1.3664 Y27.8678
G01 X1.3702 Y27.8858
G01 X1.3769 Y27.9134
G01 X1.3867 Y27.9489
G01 X1.3922 Y27.9664
G01 X1.4080 Y28.0105
G01 X1.4148 Y28.0276
G01 X1.4297 Y28.0612
G01 X1.4421 Y28.0868
G01 X1.4506 Y28.1031
G01 X1.4594 Y28.1192
G01 X1.4738 Y28.1437
G01 X1.4935 Y28.1748
G01 X1.5039 Y28.1900
G01 X1.5207 Y28.2129
G01 X1.5433 Y28.2419
G01 X1.5552 Y28.2560
G01 X1.5741 Y28.2772
G01 X1.5866 Y28.2907
G01 X1.6126 Y28.3167
G01 X1.6473 Y28.3481
G01 X1.6614 Y28.3600
G01 X1.6904 Y28.3826
G01 X1.7133 Y28.3994
G01 X1.7285 Y28.4098
G01 X1.7596 Y28.4295
G01 X1.7841 Y28.4439
G01 X1.8165 Y28.4612
G01 X1.8421 Y28.4736
G01 X1.8757 Y28.4885
G01 X1.8928 Y28.4953
G01 X1.9195 Y28.5051
G01 X1.9544 Y28.5166
G01 X1.9899 Y28.5264
G01 X2.0175 Y28.5331
G01 X2.0536 Y28.5403
G01 X2.0816 Y28.5447
G01 X2.1182 Y28.5492
G01 X2.1365 Y28.5508
G01 X2.1740 Y28.5528
G01 X2.2017 Y28.5533
G01 X40.3017 Y28.5533
G01 X40.3201 Y28.5531
G01 X40.3484 Y28.5519
G01 X40.3668 Y28.5508
G01 X40.4034 Y28.5472
G01 X40.4497 Y28.5403
G01 X40.4678 Y28.5369
G01 X40.5037 Y28.5289
G01 X40.5312 Y28.5218
G01 X40.5489 Y28.5166
G01 X40.5838 Y28.5051
G01 X40.6105 Y28.4953
G01 X40.6445 Y28.4812
G01 X40.6612 Y28.4736
G01 X40.6868 Y28.4612
G01 X40.7031 Y28.4527
G01 X40.7192 Y28.4439
G01 X40.7437 Y28.4295
G01 X40.7594 Y28.4198
G01 X40.7900 Y28.3994
G01 X40.8276 Y28.3715
G01 X40.8560 Y28.3481
G01 X40.8698 Y28.3359
G01 X40.8907 Y28.3167
G01 X40.9039 Y28.3039
G01 X40.9292 Y28.2772
G01 X40.9481 Y28.2560
G01 X40.9715 Y28.2276
G01 X40.9826 Y28.2129
G01 X40.9994 Y28.1900
G01 X41.0098 Y28.1748
G01 X41.0295 Y28.1437
G01 X41.0439 Y28.1192
G01 X41.0527 Y28.1031
G01 X41.0693 Y28.0702
G01 X41.0812 Y28.0445
G01 X41.0953 Y28.0105
G01 X41.1051 Y27.9838
G01 X41.1166 Y27.9489
G01 X41.1264 Y27.9134
G01 X41.1331 Y27.8858
G01 X41.1403 Y27.8497
G01 X41.1432 Y27.8315
G01 X41.1472 Y27.8034
G01 X41.1508 Y27.7668
G01 X41.1528 Y27.7293
G01 X41.1533 Y27.7017
G01 X41.1532 Y2.0925
G01 X41.1524 Y2.0649
G01 X41.1508 Y2.0365
G01 X41.1472 Y1.9999
G01 X41.1432 Y1.9718
G01 X41.1369 Y1.9355
G01 X41.1331 Y1.9175
G01 X41.1264 Y1.8899
G01 X41.1218 Y1.8721
G01 X41.1111 Y1.8369
G01 X41.0953 Y1.7928
G01 X41.0812 Y1.7588
G01 X41.0736 Y1.7421
G01 X41.0612 Y1.7165
G01 X41.0527 Y1.7002
G01 X41.0439 Y1.6841
G01 X41.0295 Y1.6596
G01 X41.0198 Y1.6439
G01 X40.9994 Y1.6133
G01 X40.9715 Y1.5757
G01 X40.9600 Y1.5614
G01 X40.9359 Y1.5335
G01 X40.9167 Y1.5126
G01 X40.9039 Y1.4994
G01 X40.8772 Y1.4741
G01 X40.8560 Y1.4552
G01 X40.8419 Y1.4433
G01 X40.8129 Y1.4207
G01 X40.7900 Y1.4039
G01 X40.7748 Y1.3935
G01 X40.7437 Y1.3738
G01 X40.7192 Y1.3594
G01 X40.7031 Y1.3506
G01 X40.6702 Y1.3340
G01 X40.6445 Y1.3221
G01 X40.6105 Y1.3080
G01 X40.5838 Y1.2982
G01 X40.5489 Y1.2867
G01 X40.5134 Y1.2769
G01 X40.4858 Y1.2702
G01 X40.4497 Y1.2630
G01 X40.4217 Y1.2586
G01 X40.4034 Y1.2561
G01 X40.3668 Y1.2525
G01 X40.3293 Y1.2505
G01 X40.3017 Y1.2500
G01 X2.1924 Y1.2501
G01 X2.1549 Y1.2514
G01 X2.1182 Y1.2541
G01 X2.0999 Y1.2561
G01 X2.0718 Y1.2601
G01 X2.0355 Y1.2664
G01 X2.0175 Y1.2702
G01 X1.9899 Y1.2769
G01 X1.9544 Y1.2867
G01 X1.9369 Y1.2922
G01 X1.9101 Y1.3016
G01 X1.8757 Y1.3148
G01 X1.8588 Y1.3221
G01 X1.8331 Y1.3340
G01 X1.8002 Y1.3506
G01 X1.7841 Y1.3594
G01 X1.7596 Y1.3738
G01 X1.7285 Y1.3935
G01 X1.6984 Y1.4147
G01 X1.6757 Y1.4318
G01 X1.6614 Y1.4433
G01 X1.6335 Y1.4674
G01 X1.6126 Y1.4866
G01 X1.5866 Y1.5126
G01 X1.5552 Y1.5473
G01 X1.5318 Y1.5757
G01 X1.5039 Y1.6133
G01 X1.4835 Y1.6439
G01 X1.4594 Y1.6841
G01 X1.4421 Y1.7165
G01 X1.4221 Y1.7588
G01 X1.4080 Y1.7928
G01 X1.3922 Y1.8369
G01 X1.3815 Y1.8721
G01 X1.3702 Y1.9175
G01 X1.3630 Y1.9536
G01 X1.3561 Y1.9999
G01 X1.3525 Y2.0365
G01 X1.3509 Y2.0649
G00 X1.3509 Y2.0649
G01 F250.00
G01 Z-0.5000
G01 F2500.00
G01 X1.3500 Y2.1017
G01 X1.3501 Y27.7109
G01 X1.3509 Y27.7385
G01 X1.3525 Y27.7668
G01 X1.3561 Y27.8034
G01 X1.3601 Y27.8315
G01 X1.3664 Y27.8678
G01 X1.3702 Y27.8858
G01 X1.3769 Y27.9134
G01 X1.3867 Y27.9489
G01 X1.3922 Y27.9664
G01 X1.4080 Y28.0105
G01 X1.4148 Y28.0276
G01 X1.4297 Y28.0612
G01 X1.4421 Y28.0868
G01 X1.4506 Y28.1031
G01 X1.4594 Y28.1192
G01 X1.4738 Y28.1437
G01 X1.4935 Y28.1748
G01 X1.5039 Y28.1900
G01 X1.5207 Y28.2129
G01 X1.5433 Y28.2419
G01 X1.5552 Y28.2560
G01 X1.5741 Y28.2772
G01 X1.5866 Y28.2907
G01 X1.6126 Y28.3167
G01 X1.6473 Y28.3481
G01 X1.6614 Y28.3600
G01 X1.6904 Y28.3826
G01 X1.7133 Y28.3994
G01 X1.7285 Y28.4098
G01 X1.7596 Y28.4295
G01 X1.7841 Y28.4439
G01 X1.8165 Y28.4612
G01 X1.8421 Y28.4736
G01 X1.8757 Y28.4885
G01 X1.8928 Y28.4953
G01 X1.9195 Y28.5051
G01 X1.9544 Y28.5166
G01 X1.9899 Y28.5264
G01 X2.0175 Y28.5331
G01 X2.0536 Y28.5403
G01 X2.0816 Y28.5447
G01 X2.1182 Y28.5492
G01 X2.1365 Y28.5508
G01 X2.1740 Y28.5528
G01 X2.2017 Y28.5533
G01 X40.3017 Y28.5533
G01 X40.3201 Y28.5531
G01 X40.3484 Y28.5519
G01 X40.3668 Y28.5508
G01 X40.4034 Y28.5472
G01 X40.4497 Y28.5403
G01 X40.4678 Y28.5369
G01 X40.5037 Y28.5289
G01 X40.5312 Y28.5218
G01 X40.5489 Y28.5166
G01 X40.5838 Y28.5051
G01 X40.6105 Y28.4953
G01 X40.6445 Y28.4812
G01 X40.6612 Y28.4736
G01 X40.6868 Y28.4612
G01 X40.7031 Y28.4527
G01 X40.7192 Y28.4439
G01 X40.7437 Y28.4295
G01 X40.7594 Y28.4198
G01 X40.7900 Y28.3994
G01 X40.8276 Y28.3715
G01 X40.8560 Y28.3481
G01 X40.8698 Y28.3359
G01 X40.8907 Y28.3167
G01 X40.9039 Y28.3039
G01 X40.9292 Y28.2772
G01 X40.9481 Y28.2560
G01 X40.9715 Y28.2276
G01 X40.9826 Y28.2129
G01 X40.9994 Y28.1900
G01 X41.0098 Y28.1748
G01 X41.0295 Y28.1437
G01 X41.0439 Y28.1192
G01 X41.0527 Y28.1031
G01 X41.0693 Y28.0702
G01 X41.0812 Y28.0445
G01 X41.0953 Y28.0105
G01 X41.1051 Y27.9838
G01 X41.1166 Y27.9489
G01 X41.1264 Y27.9134
G01 X41.1331 Y27.8858
G01 X41.1403 Y27.8497
G01 X41.1432 Y27.8315
G01 X41.1472 Y27.8034
G01 X41.1508 Y27.7668
G01 X41.1528 Y27.7293
G01 X41.1533 Y27.7017
G01 X41.1532 Y2.0925
G01 X41.1524 Y2.0649
G01 X41.1508 Y2.0365
G01 X41.1472 Y1.9999
G01 X41.1432 Y1.9718
G01 X41.1369 Y1.9355
G01 X41.1331 Y1.9175
G01 X41.1264 Y1.8899
G01 X41.1218 Y1.8721
G01 X41.1111 Y1.8369
G01 X41.0953 Y1.7928
G01 X41.0812 Y1.7588
G01 X41.0736 Y1.7421
G01 X41.0612 Y1.7165
G01 X41.0527 Y1.7002
G01 X41.0439 Y1.6841
G01 X41.0295 Y1.6596
G01 X41.0198 Y1.6439
G01 X40.9994 Y1.6133
G01 X40.9715 Y1.5757
G01 X40.9600 Y1.5614
G01 X40.9359 Y1.5335
G01 X40.9167 Y1.5126
G01 X40.9039 Y1.4994
G01 X40.8772 Y1.4741
G01 X40.8560 Y1.4552
G01 X40.8419 Y1.4433
G01 X40.8129 Y1.4207
G01 X40.7900 Y1.4039
G01 X40.7748 Y1.3935
G01 X40.7437 Y1.3738
G01 X40.7192 Y1.3594
G01 X40.7031 Y1.3506
G01 X40.6702 Y1.3340
G01 X40.6445 Y1.3221
G01 X40.6105 Y1.3080
G01 X40.5838 Y1.2982
G01 X40.5489 Y1.2867
G01 X40.5134 Y1.2769
G01 X40.4858 Y1.2702
G01 X40.4497 Y1.2630
G01 X40.4217 Y1.2586
G01 X40.4034 Y1.2561
G01 X40.3668 Y1.2525
G01 X40.3293 Y1.2505
G01 X40.3017 Y1.2500
G01 X2.1924 Y1.2501
G01 X2.1549 Y1.2514
G01 X2.1182 Y1.2541
G01 X2.0999 Y1.2561
G01 X2.0718 Y1.2601
G01 X2.0355 Y1.2664
G01 X2.0175 Y1.2702
G01 X1.9899 Y1.2769
G01 X1.9544 Y1.2867
G01 X1.9369 Y1.2922
G01 X1.9101 Y1.3016
G01 X1.8757 Y1.3148
G01 X1.8588 Y1.3221
G01 X1.8331 Y1.3340
G01 X1.8002 Y1.3506
G01 X1.7841 Y1.3594
G01 X1.7596 Y1.3738
G01 X1.7285 Y1.3935
G01 X1.6984 Y1.4147
G01 X1.6757 Y1.4318
G01 X1.6614 Y1.4433
G01 X1.6335 Y1.4674
G01 X1.6126 Y1.4866
G01 X1.5866 Y1.5126
G01 X1.5552 Y1.5473
G01 X1.5318 Y1.5757
G01 X1.5039 Y1.6133
G01 X1.4835 Y1.6439
G01 X1.4594 Y1.6841
G01 X1.4421 Y1.7165
G01 X1.4221 Y1.7588
G01 X1.4080 Y1.7928
G01 X1.3922 Y1.8369
G01 X1.3815 Y1.8721
G01 X1.3702 Y1.9175
G01 X1.3630 Y1.9536
G01 X1.3561 Y1.9999
G01 X1.3525 Y2.0365
G01 X1.3509 Y2.0649
G00 X1.3509 Y2.0649
G01 F250.00
G01 Z-0.6000
G01 F2500.00
G01 X1.3500 Y2.1017
G01 X1.3501 Y27.7109
G01 X1.3509 Y27.7385
G01 X1.3525 Y27.7668
G01 X1.3561 Y27.8034
G01 X1.3601 Y27.8315
G01 X1.3664 Y27.8678
G01 X1.3702 Y27.8858
G01 X1.3769 Y27.9134
G01 X1.3867 Y27.9489
G01 X1.3922 Y27.9664
G01 X1.4080 Y28.0105
G01 X1.4148 Y28.0276
G01 X1.4297 Y28.0612
G01 X1.4421 Y28.0868
G01 X1.4506 Y28.1031
G01 X1.4594 Y28.1192
G01 X1.4738 Y28.1437
G01 X1.4935 Y28.1748
G01 X1.5039 Y28.1900
G01 X1.5207 Y28.2129
G01 X1.5433 Y28.2419
G01 X1.5552 Y28.2560
G01 X1.5741 Y28.2772
G01 X1.5866 Y28.2907
G01 X1.6126 Y28.3167
G01 X1.6473 Y28.3481
G01 X1.6614 Y28.3600
G01 X1.6904 Y28.3826
G01 X1.7133 Y28.3994
G01 X1.7285 Y28.4098
G01 X1.7596 Y28.4295
G01 X1.7841 Y28.4439
G01 X1.8165 Y28.4612
G01 X1.8421 Y28.4736
G01 X1.8757 Y28.4885
G01 X1.8928 Y28.4953
G01 X1.9195 Y28.5051
G01 X1.9544 Y28.5166
G01 X1.9899 Y28.5264
G01 X2.0175 Y28.5331
G01 X2.0536 Y28.5403
G01 X2.0816 Y28.5447
G01 X2.1182 Y28.5492
G01 X2.1365 Y28.5508
G01 X2.1740 Y28.5528
G01 X2.2017 Y28.5533
G01 X40.3017 Y28.5533
G01 X40.3201 Y28.5531
G01 X40.3484 Y28.5519
G01 X40.3668 Y28.5508
G01 X40.4034 Y28.5472
G01 X40.4497 Y28.5403
G01 X40.4678 Y28.5369
G01 X40.5037 Y28.5289
G01 X40.5312 Y28.5218
G01 X40.5489 Y28.5166
G01 X40.5838 Y28.5051
G01 X40.6105 Y28.4953
G01 X40.6445 Y28.4812
G01 X40.6612 Y28.4736
G01 X40.6868 Y28.4612
G01 X40.7031 Y28.4527
G01 X40.7192 Y28.4439
G01 X40.7437 Y28.4295
G01 X40.7594 Y28.4198
G01 X40.7900 Y28.3994
G01 X40.8276 Y28.3715
G01 X40.8560 Y28.3481
G01 X40.8698 Y28.3359
G01 X40.8907 Y28.3167
G01 X40.9039 Y28.3039
G01 X40.9292 Y28.2772
G01 X40.9481 Y28.2560
G01 X40.9715 Y28.2276
G01 X40.9826 Y28.2129
G01 X40.9994 Y28.1900
G01 X41.0098 Y28.1748
G01 X41.0295 Y28.1437
G01 X41.0439 Y28.1192
G01 X41.0527 Y28.1031
G01 X41.0693 Y28.0702
G01 X41.0812 Y28.0445
G01 X41.0953 Y28.0105
G01 X41.1051 Y27.9838
G01 X41.1166 Y27.9489
G01 X41.1264 Y27.9134
G01 X41.1331 Y27.8858
G01 X41.1403 Y27.8497
G01 X41.1432 Y27.8315
G01 X41.1472 Y27.8034
G01 X41.1508 Y27.7668
G01 X41.1528 Y27.7293
G01 X41.1533 Y27.7017
G01 X41.1532 Y2.0925
G01 X41.1524 Y2.0649
G01 X41.1508 Y2.0365
G01 X41.1472 Y1.9999
G01 X41.1432 Y1.9718
G01 X41.1369 Y1.9355
G01 X41.1331 Y1.9175
G01 X41.1264 Y1.8899
G01 X41.1218 Y1.8721
G01 X41.1111 Y1.8369
G01 X41.0953 Y1.7928
G01 X41.0812 Y1.7588
G01 X41.0736 Y1.7421
G01 X41.0612 Y1.7165
G01 X41.0527 Y1.7002
G01 X41.0439 Y1.6841
G01 X41.0295 Y1.6596
G01 X41.0198 Y1.6439
G01 X40.9994 Y1.6133
G01 X40.9715 Y1.5757
G01 X40.9600 Y1.5614
G01 X40.9359 Y1.5335
G01 X40.9167 Y1.5126
G01 X40.9039 Y1.4994
G01 X40.8772 Y1.4741
G01 X40.8560 Y1.4552
G01 X40.8419 Y1.4433
G01 X40.8129 Y1.4207
G01 X40.7900 Y1.4039
G01 X40.7748 Y1.3935
G01 X40.7437 Y1.3738
G01 X40.7192 Y1.3594
G01 X40.7031 Y1.3506
G01 X40.6702 Y1.3340
G01 X40.6445 Y1.3221
G01 X40.6105 Y1.3080
G01 X40.5838 Y1.2982
G01 X40.5489 Y1.2867
G01 X40.5134 Y1.2769
G01 X40.4858 Y1.2702
G01 X40.4497 Y1.2630
G01 X40.4217 Y1.2586
G01 X40.4034 Y1.2561
G01 X40.3668 Y1.2525
G01 X40.3293 Y1.2505
G01 X40.3017 Y1.2500
G01 X2.1924 Y1.2501
G01 X2.1549 Y1.2514
G01 X2.1182 Y1.2541
G01 X2.0999 Y1.2561
G01 X2.0718 Y1.2601
G01 X2.0355 Y1.2664
G01 X2.0175 Y1.2702
G01 X1.9899 Y1.2769
G01 X1.9544 Y1.2867
G01 X1.9369 Y1.2922
G01 X1.9101 Y1.3016
G01 X1.8757 Y1.3148
G01 X1.8588 Y1.3221
G01 X1.8331 Y1.3340
G01 X1.8002 Y1.3506
G01 X1.7841 Y1.3594
G01 X1.7596 Y1.3738
G01 X1.7285 Y1.3935
G01 X1.6984 Y1.4147
G01 X1.6757 Y1.4318
G01 X1.6614 Y1.4433
G01 X1.6335 Y1.4674
G01 X1.6126 Y1.4866
G01 X1.5866 Y1.5126
G01 X1.5552 Y1.5473
G01 X1.5318 Y1.5757
G01 X1.5039 Y1.6133
G01 X1.4835 Y1.6439
G01 X1.4594 Y1.6841
G01 X1.4421 Y1.7165
G01 X1.4221 Y1.7588
G01 X1.4080 Y1.7928
G01 X1.3922 Y1.8369
G01 X1.3815 Y1.8721
G01 X1.3702 Y1.9175
G01 X1.3630 Y1.9536
G01 X1.3561 Y1.9999
G01 X1.3525 Y2.0365
G01 X1.3509 Y2.0649
G00 X1.3509 Y2.0649
G01 F250.00
G01 Z-0.7000
G01 F2500.00
G01 X1.3500 Y2.1017
G01 X1.3501 Y27.7109
G01 X1.3509 Y27.7385
G01 X1.3525 Y27.7668
G01 X1.3561 Y27.8034
G01 X1.3601 Y27.8315
G01 X1.3664 Y27.8678
G01 X1.3702 Y27.8858
G01 X1.3769 Y27.9134
G01 X1.3867 Y27.9489
G01 X1.3922 Y27.9664
G01 X1.4080 Y28.0105
G01 X1.4148 Y28.0276
G01 X1.4297 Y28.0612
G01 X1.4421 Y28.0868
G01 X1.4506 Y28.1031
G01 X1.4594 Y28.1192
G01 X1.4738 Y28.1437
G01 X1.4935 Y28.1748
G01 X1.5039 Y28.1900
G01 X1.5207 Y28.2129
G01 X1.5433 Y28.2419
G01 X1.5552 Y28.2560
G01 X1.5741 Y28.2772
G01 X1.5866 Y28.2907
G01 X1.6126 Y28.3167
G01 X1.6473 Y28.3481
G01 X1.6614 Y28.3600
G01 X1.6904 Y28.3826
G01 X1.7133 Y28.3994
G01 X1.7285 Y28.4098
G01 X1.7596 Y28.4295
G01 X1.7841 Y28.4439
G01 X1.8165 Y28.4612
G01 X1.8421 Y28.4736
G01 X1.8757 Y28.4885
G01 X1.8928 Y28.4953
G01 X1.9195 Y28.5051
G01 X1.9544 Y28.5166
G01 X1.9899 Y28.5264
G01 X2.0175 Y28.5331
G01 X2.0536 Y28.5403
G01 X2.0816 Y28.5447
G01 X2.1182 Y28.5492
G01 X2.1365 Y28.5508
G01 X2.1740 Y28.5528
G01 X2.2017 Y28.5533
G01 X40.3017 Y28.5533
G01 X40.3201 Y28.5531
G01 X40.3484 Y28.5519
G01 X40.3668 Y28.5508
G01 X40.4034 Y28.5472
G01 X40.4497 Y28.5403
G01 X40.4678 Y28.5369
G01 X40.5037 Y28.5289
G01 X40.5312 Y28.5218
G01 X40.5489 Y28.5166
G01 X40.5838 Y28.5051
G01 X40.6105 Y28.4953
G01 X40.6445 Y28.4812
G01 X40.6612 Y28.4736
G01 X40.6868 Y28.4612
G01 X40.7031 Y28.4527
G01 X40.7192 Y28.4439
G01 X40.7437 Y28.4295
G01 X40.7594 Y28.4198
G01 X40.7900 Y28.3994
G01 X40.8276 Y28.3715
G01 X40.8560 Y28.3481
G01 X40.8698 Y28.3359
G01 X40.8907 Y28.3167
G01 X40.9039 Y28.3039
G01 X40.9292 Y28.2772
G01 X40.9481 Y28.2560
G01 X40.9715 Y28.2276
G01 X40.9826 Y28.2129
G01 X40.9994 Y28.1900
G01 X41.0098 Y28.1748
G01 X41.0295 Y28.1437
G01 X41.0439 Y28.1192
G01 X41.0527 Y28.1031
G01 X41.0693 Y28.0702
G01 X41.0812 Y28.0445
G01 X41.0953 Y28.0105
G01 X41.1051 Y27.9838
G01 X41.1166 Y27.9489
G01 X41.1264 Y27.9134
G01 X41.1331 Y27.8858
G01 X41.1403 Y27.8497
G01 X41.1432 Y27.8315
G01 X41.1472 Y27.8034
G01 X41.1508 Y27.7668
G01 X41.1528 Y27.7293
G01 X41.1533 Y27.7017
G01 X41.1532 Y2.0925
G01 X41.1524 Y2.0649
G01 X41.1508 Y2.0365
G01 X41.1472 Y1.9999
G01 X41.1432 Y1.9718
G01 X41.1369 Y1.9355
G01 X41.1331 Y1.9175
G01 X41.1264 Y1.8899
G01 X41.1218 Y1.8721
G01 X41.1111 Y1.8369
G01 X41.0953 Y1.7928
G01 X41.0812 Y1.7588
G01 X41.0736 Y1.7421
G01 X41.0612 Y1.7165
G01 X41.0527 Y1.7002
G01 X41.0439 Y1.6841
G01 X41.0295 Y1.6596
G01 X41.0198 Y1.6439
G01 X40.9994 Y1.6133
G01 X40.9715 Y1.5757
G01 X40.9600 Y1.5614
G01 X40.9359 Y1.5335
G01 X40.9167 Y1.5126
G01 X40.9039 Y1.4994
G01 X40.8772 Y1.4741
G01 X40.8560 Y1.4552
G01 X40.8419 Y1.4433
G01 X40.8129 Y1.4207
G01 X40.7900 Y1.4039
G01 X40.7748 Y1.3935
G01 X40.7437 Y1.3738
G01 X40.7192 Y1.3594
G01 X40.7031 Y1.3506
G01 X40.6702 Y1.3340
G01 X40.6445 Y1.3221
G01 X40.6105 Y1.3080
G01 X40.5838 Y1.2982
G01 X40.5489 Y1.2867
G01 X40.5134 Y1.2769
G01 X40.4858 Y1.2702
G01 X40.4497 Y1.2630
G01 X40.4217 Y1.2586
G01 X40.4034 Y1.2561
G01 X40.3668 Y1.2525
G01 X40.3293 Y1.2505
G01 X40.3017 Y1.2500
G01 X2.1924 Y1.2501
G01 X2.1549 Y1.2514
G01 X2.1182 Y1.2541
G01 X2.0999 Y1.2561
G01 X2.0718 Y1.2601
G01 X2.0355 Y1.2664
G01 X2.0175 Y1.2702
G01 X1.9899 Y1.2769
G01 X1.9544 Y1.2867
G01 X1.9369 Y1.2922
G01 X1.9101 Y1.3016
G01 X1.8757 Y1.3148
G01 X1.8588 Y1.3221
G01 X1.8331 Y1.3340
G01 X1.8002 Y1.3506
G01 X1.7841 Y1.3594
G01 X1.7596 Y1.3738
G01 X1.7285 Y1.3935
G01 X1.6984 Y1.4147
G01 X1.6757 Y1.4318
G01 X1.6614 Y1.4433
G01 X1.6335 Y1.4674
G01 X1.6126 Y1.4866
G01 X1.5866 Y1.5126
G01 X1.5552 Y1.5473
G01 X1.5318 Y1.5757
G01 X1.5039 Y1.6133
G01 X1.4835 Y1.6439
G01 X1.4594 Y1.6841
G01 X1.4421 Y1.7165
G01 X1.4221 Y1.7588
G01 X1.4080 Y1.7928
G01 X1.3922 Y1.8369
G01 X1.3815 Y1.8721
G01 X1.3702 Y1.9175
G01 X1.3630 Y1.9536
G01 X1.3561 Y1.9999
G01 X1.3525 Y2.0365
G01 X1.3509 Y2.0649
G00 X1.3509 Y2.0649
G01 F250.00
G01 Z-0.8000
G01 F2500.00
G01 X1.3500 Y2.1017
G01 X1.3501 Y27.7109
G01 X1.3509 Y27.7385
G01 X1.3525 Y27.7668
G01 X1.3561 Y27.8034
G01 X1.3601 Y27.8315
G01 X1.3664 Y27.8678
G01 X1.3702 Y27.8858
G01 X1.3769 Y27.9134
G01 X1.3867 Y27.9489
G01 X1.3922 Y27.9664
G01 X1.4080 Y28.0105
G01 X1.4148 Y28.0276
G01 X1.4297 Y28.0612
G01 X1.4421 Y28.0868
G01 X1.4506 Y28.1031
G01 X1.4594 Y28.1192
G01 X1.4738 Y28.1437
G01 X1.4935 Y28.1748
G01 X1.5039 Y28.1900
G01 X1.5207 Y28.2129
G01 X1.5433 Y28.2419
G01 X1.5552 Y28.2560
G01 X1.5741 Y28.2772
G01 X1.5866 Y28.2907
G01 X1.6126 Y28.3167
G01 X1.6473 Y28.3481
G01 X1.6614 Y28.3600
G01 X1.6904 Y28.3826
G01 X1.7133 Y28.3994
G01 X1.7285 Y28.4098
G01 X1.7596 Y28.4295
G01 X1.7841 Y28.4439
G01 X1.8165 Y28.4612
G01 X1.8421 Y28.4736
G01 X1.8757 Y28.4885
G01 X1.8928 Y28.4953
G01 X1.9195 Y28.5051
G01 X1.9544 Y28.5166
G01 X1.9899 Y28.5264
G01 X2.0175 Y28.5331
G01 X2.0536 Y28.5403
G01 X2.0816 Y28.5447
G01 X2.1182 Y28.5492
G01 X2.1365 Y28.5508
G01 X2.1740 Y28.5528
G01 X2.2017 Y28.5533
G01 X40.3017 Y28.5533
G01 X40.3201 Y28.5531
G01 X40.3484 Y28.5519
G01 X40.3668 Y28.5508
G01 X40.4034 Y28.5472
G01 X40.4497 Y28.5403
G01 X40.4678 Y28.5369
G01 X40.5037 Y28.5289
G01 X40.5312 Y28.5218
G01 X40.5489 Y28.5166
G01 X40.5838 Y28.5051
G01 X40.6105 Y28.4953
G01 X40.6445 Y28.4812
G01 X40.6612 Y28.4736
G01 X40.6868 Y28.4612
G01 X40.7031 Y28.4527
G01 X40.7192 Y28.4439
G01 X40.7437 Y28.4295
G01 X40.7594 Y28.4198
G01 X40.7900 Y28.3994
G01 X40.8276 Y28.3715
G01 X40.8560 Y28.3481
G01 X40.8698 Y28.3359
G01 X40.8907 Y28.3167
G01 X40.9039 Y28.3039
G01 X40.9292 Y28.2772
G01 X40.9481 Y28.2560
G01 X40.9715 Y28.2276
G01 X40.9826 Y28.2129
G01 X40.9994 Y28.1900
G01 X41.0098 Y28.1748
G01 X41.0295 Y28.1437
G01 X41.0439 Y28.1192
G01 X41.0527 Y28.1031
G01 X41.0693 Y28.0702
G01 X41.0812 Y28.0445
G01 X41.0953 Y28.0105
G01 X41.1051 Y27.9838
G01 X41.1166 Y27.9489
G01 X41.1264 Y27.9134
G01 X41.1331 Y27.8858
G01 X41.1403 Y27.8497
G01 X41.1432 Y27.8315
G01 X41.1472 Y27.8034
G01 X41.1508 Y27.7668
G01 X41.1528 Y27.7293
G01 X41.1533 Y27.7017
G01 X41.1532 Y2.0925
G01 X41.1524 Y2.0649
G01 X41.1508 Y2.0365
G01 X41.1472 Y1.9999
G01 X41.1432 Y1.9718
G01 X41.1369 Y1.9355
G01 X41.1331 Y1.9175
G01 X41.1264 Y1.8899
G01 X41.1218 Y1.8721
G01 X41.1111 Y1.8369
G01 X41.0953 Y1.7928
G01 X41.0812 Y1.7588
G01 X41.0736 Y1.7421
G01 X41.0612 Y1.7165
G01 X41.0527 Y1.7002
G01 X41.0439 Y1.6841
G01 X41.0295 Y1.6596
G01 X41.0198 Y1.6439
G01 X40.9994 Y1.6133
G01 X40.9715 Y1.5757
G01 X40.9600 Y1.5614
G01 X40.9359 Y1.5335
G01 X40.9167 Y1.5126
G01 X40.9039 Y1.4994
G01 X40.8772 Y1.4741
G01 X40.8560 Y1.4552
G01 X40.8419 Y1.4433
G01 X40.8129 Y1.4207
G01 X40.7900 Y1.4039
G01 X40.7748 Y1.3935
G01 X40.7437 Y1.3738
G01 X40.7192 Y1.3594
G01 X40.7031 Y1.3506
G01 X40.6702 Y1.3340
G01 X40.6445 Y1.3221
G01 X40.6105 Y1.3080
G01 X40.5838 Y1.2982
G01 X40.5489 Y1.2867
G01 X40.5134 Y1.2769
G01 X40.4858 Y1.2702
G01 X40.4497 Y1.2630
G01 X40.4217 Y1.2586
G01 X40.4034 Y1.2561
G01 X40.3668 Y1.2525
G01 X40.3293 Y1.2505
G01 X40.3017 Y1.2500
G01 X2.1924 Y1.2501
G01 X2.1549 Y1.2514
G01 X2.1182 Y1.2541
G01 X2.0999 Y1.2561
G01 X2.0718 Y1.2601
G01 X2.0355 Y1.2664
G01 X2.0175 Y1.2702
G01 X1.9899 Y1.2769
G01 X1.9544 Y1.2867
G01 X1.9369 Y1.2922
G01 X1.9101 Y1.3016
G01 X1.8757 Y1.3148
G01 X1.8588 Y1.3221
G01 X1.8331 Y1.3340
G01 X1.8002 Y1.3506
G01 X1.7841 Y1.3594
G01 X1.7596 Y1.3738
G01 X1.7285 Y1.3935
G01 X1.6984 Y1.4147
G01 X1.6757 Y1.4318
G01 X1.6614 Y1.4433
G01 X1.6335 Y1.4674
G01 X1.6126 Y1.4866
G01 X1.5866 Y1.5126
G01 X1.5552 Y1.5473
G01 X1.5318 Y1.5757
G01 X1.5039 Y1.6133
G01 X1.4835 Y1.6439
G01 X1.4594 Y1.6841
G01 X1.4421 Y1.7165
G01 X1.4221 Y1.7588
G01 X1.4080 Y1.7928
G01 X1.3922 Y1.8369
G01 X1.3815 Y1.8721
G01 X1.3702 Y1.9175
G01 X1.3630 Y1.9536
G01 X1.3561 Y1.9999
G01 X1.3525 Y2.0365
G01 X1.3509 Y2.0649
G00 X1.3509 Y2.0649
G01 F250.00
G01 Z-0.9000
G01 F2500.00
G01 X1.3500 Y2.1017
G01 X1.3501 Y27.7109
G01 X1.3509 Y27.7385
G01 X1.3525 Y27.7668
G01 X1.3561 Y27.8034
G01 X1.3601 Y27.8315
G01 X1.3664 Y27.8678
G01 X1.3702 Y27.8858
G01 X1.3769 Y27.9134
G01 X1.3867 Y27.9489
G01 X1.3922 Y27.9664
G01 X1.4080 Y28.0105
G01 X1.4148 Y28.0276
G01 X1.4297 Y28.0612
G01 X1.4421 Y28.0868
G01 X1.4506 Y28.1031
G01 X1.4594 Y28.1192
G01 X1.4738 Y28.1437
G01 X1.4935 Y28.1748
G01 X1.5039 Y28.1900
G01 X1.5207 Y28.2129
G01 X1.5433 Y28.2419
G01 X1.5552 Y28.2560
G01 X1.5741 Y28.2772
G01 X1.5866 Y28.2907
G01 X1.6126 Y28.3167
G01 X1.6473 Y28.3481
G01 X1.6614 Y28.3600
G01 X1.6904 Y28.3826
G01 X1.7133 Y28.3994
G01 X1.7285 Y28.4098
G01 X1.7596 Y28.4295
G01 X1.7841 Y28.4439
G01 X1.8165 Y28.4612
G01 X1.8421 Y28.4736
G01 X1.8757 Y28.4885
G01 X1.8928 Y28.4953
G01 X1.9195 Y28.5051
G01 X1.9544 Y28.5166
G01 X1.9899 Y28.5264
G01 X2.0175 Y28.5331
G01 X2.0536 Y28.5403
G01 X2.0816 Y28.5447
G01 X2.1182 Y28.5492
G01 X2.1365 Y28.5508
G01 X2.1740 Y28.5528
G01 X2.2017 Y28.5533
G01 X40.3017 Y28.5533
G01 X40.3201 Y28.5531
G01 X40.3484 Y28.5519
G01 X40.3668 Y28.5508
G01 X40.4034 Y28.5472
G01 X40.4497 Y28.5403
G01 X40.4678 Y28.5369
G01 X40.5037 Y28.5289
G01 X40.5312 Y28.5218
G01 X40.5489 Y28.5166
G01 X40.5838 Y28.5051
G01 X40.6105 Y28.4953
G01 X40.6445 Y28.4812
G01 X40.6612 Y28.4736
G01 X40.6868 Y28.4612
G01 X40.7031 Y28.4527
G01 X40.7192 Y28.4439
G01 X40.7437 Y28.4295
G01 X40.7594 Y28.4198
G01 X40.7900 Y28.3994
G01 X40.8276 Y28.3715
G01 X40.8560 Y28.3481
G01 X40.8698 Y28.3359
G01 X40.8907 Y28.3167
G01 X40.9039 Y28.3039
G01 X40.9292 Y28.2772
G01 X40.9481 Y28.2560
G01 X40.9715 Y28.2276
G01 X40.9826 Y28.2129
G01 X40.9994 Y28.1900
G01 X41.0098 Y28.1748
G01 X41.0295 Y28.1437
G01 X41.0439 Y28.1192
G01 X41.0527 Y28.1031
G01 X41.0693 Y28.0702
G01 X41.0812 Y28.0445
G01 X41.0953 Y28.0105
G01 X41.1051 Y27.9838
G01 X41.1166 Y27.9489
G01 X41.1264 Y27.9134
G01 X41.1331 Y27.8858
G01 X41.1403 Y27.8497
G01 X41.1432 Y27.8315
G01 X41.1472 Y27.8034
G01 X41.1508 Y27.7668
G01 X41.1528 Y27.7293
G01 X41.1533 Y27.7017
G01 X41.1532 Y2.0925
G01 X41.1524 Y2.0649
G01 X41.1508 Y2.0365
G01 X41.1472 Y1.9999
G01 X41.1432 Y1.9718
G01 X41.1369 Y1.9355
G01 X41.1331 Y1.9175
G01 X41.1264 Y1.8899
G01 X41.1218 Y1.8721
G01 X41.1111 Y1.8369
G01 X41.0953 Y1.7928
G01 X41.0812 Y1.7588
G01 X41.0736 Y1.7421
G01 X41.0612 Y1.7165
G01 X41.0527 Y1.7002
G01 X41.0439 Y1.6841
G01 X41.0295 Y1.6596
G01 X41.0198 Y1.6439
G01 X40.9994 Y1.6133
G01 X40.9715 Y1.5757
G01 X40.9600 Y1.5614
G01 X40.9359 Y1.5335
G01 X40.9167 Y1.5126
G01 X40.9039 Y1.4994
G01 X40.8772 Y1.4741
G01 X40.8560 Y1.4552
G01 X40.8419 Y1.4433
G01 X40.8129 Y1.4207
G01 X40.7900 Y1.4039
G01 X40.7748 Y1.3935
G01 X40.7437 Y1.3738
G01 X40.7192 Y1.3594
G01 X40.7031 Y1.3506
G01 X40.6702 Y1.3340
G01 X40.6445 Y1.3221
G01 X40.6105 Y1.3080
G01 X40.5838 Y1.2982
G01 X40.5489 Y1.2867
G01 X40.5134 Y1.2769
G01 X40.4858 Y1.2702
G01 X40.4497 Y1.2630
G01 X40.4217 Y1.2586
G01 X40.4034 Y1.2561
G01 X40.3668 Y1.2525
G01 X40.3293 Y1.2505
G01 X40.3017 Y1.2500
G01 X2.1924 Y1.2501
G01 X2.1549 Y1.2514
G01 X2.1182 Y1.2541
G01 X2.0999 Y1.2561
G01 X2.0718 Y1.2601
G01 X2.0355 Y1.2664
G01 X2.0175 Y1.2702
G01 X1.9899 Y1.2769
G01 X1.9544 Y1.2867
G01 X1.9369 Y1.2922
G01 X1.9101 Y1.3016
G01 X1.8757 Y1.3148
G01 X1.8588 Y1.3221
G01 X1.8331 Y1.3340
G01 X1.8002 Y1.3506
G01 X1.7841 Y1.3594
G01 X1.7596 Y1.3738
G01 X1.7285 Y1.3935
G01 X1.6984 Y1.4147
G01 X1.6757 Y1.4318
G01 X1.6614 Y1.4433
G01 X1.6335 Y1.4674
G01 X1.6126 Y1.4866
G01 X1.5866 Y1.5126
G01 X1.5552 Y1.5473
G01 X1.5318 Y1.5757
G01 X1.5039 Y1.6133
G01 X1.4835 Y1.6439
G01 X1.4594 Y1.6841
G01 X1.4421 Y1.7165
G01 X1.4221 Y1.7588
G01 X1.4080 Y1.7928
G01 X1.3922 Y1.8369
G01 X1.3815 Y1.8721
G01 X1.3702 Y1.9175
G01 X1.3630 Y1.9536
G01 X1.3561 Y1.9999
G01 X1.3525 Y2.0365
G01 X1.3509 Y2.0649
G00 X1.3509 Y2.0649
G01 F250.00
G01 Z-1.0000
G01 F2500.00
G01 X1.3500 Y2.1017
G01 X1.3501 Y27.7109
G01 X1.3509 Y27.7385
G01 X1.3525 Y27.7668
G01 X1.3561 Y27.8034
G01 X1.3601 Y27.8315
G01 X1.3664 Y27.8678
G01 X1.3702 Y27.8858
G01 X1.3769 Y27.9134
G01 X1.3867 Y27.9489
G01 X1.3922 Y27.9664
G01 X1.4080 Y28.0105
G01 X1.4148 Y28.0276
G01 X1.4297 Y28.0612
G01 X1.4421 Y28.0868
G01 X1.4506 Y28.1031
G01 X1.4594 Y28.1192
G01 X1.4738 Y28.1437
G01 X1.4935 Y28.1748
G01 X1.5039 Y28.1900
G01 X1.5207 Y28.2129
G01 X1.5433 Y28.2419
G01 X1.5552 Y28.2560
G01 X1.5741 Y28.2772
G01 X1.5866 Y28.2907
G01 X1.6126 Y28.3167
G01 X1.6473 Y28.3481
G01 X1.6614 Y28.3600
G01 X1.6904 Y28.3826
G01 X1.7133 Y28.3994
G01 X1.7285 Y28.4098
G01 X1.7596 Y28.4295
G01 X1.7841 Y28.4439
G01 X1.8165 Y28.4612
G01 X1.8421 Y28.4736
G01 X1.8757 Y28.4885
G01 X1.8928 Y28.4953
G01 X1.9195 Y28.5051
G01 X1.9544 Y28.5166
G01 X1.9899 Y28.5264
G01 X2.0175 Y28.5331
G01 X2.0536 Y28.5403
G01 X2.0816 Y28.5447
G01 X2.1182 Y28.5492
G01 X2.1365 Y28.5508
G01 X2.1740 Y28.5528
G01 X2.2017 Y28.5533
G01 X40.3017 Y28.5533
G01 X40.3201 Y28.5531
G01 X40.3484 Y28.5519
G01 X40.3668 Y28.5508
G01 X40.4034 Y28.5472
G01 X40.4497 Y28.5403
G01 X40.4678 Y28.5369
G01 X40.5037 Y28.5289
G01 X40.5312 Y28.5218
G01 X40.5489 Y28.5166
G01 X40.5838 Y28.5051
G01 X40.6105 Y28.4953
G01 X40.6445 Y28.4812
G01 X40.6612 Y28.4736
G01 X40.6868 Y28.4612
G01 X40.7031 Y28.4527
G01 X40.7192 Y28.4439
G01 X40.7437 Y28.4295
G01 X40.7594 Y28.4198
G01 X40.7900 Y28.3994
G01 X40.8276 Y28.3715
G01 X40.8560 Y28.3481
G01 X40.8698 Y28.3359
G01 X40.8907 Y28.3167
G01 X40.9039 Y28.3039
G01 X40.9292 Y28.2772
G01 X40.9481 Y28.2560
G01 X40.9715 Y28.2276
G01 X40.9826 Y28.2129
G01 X40.9994 Y28.1900
G01 X41.0098 Y28.1748
G01 X41.0295 Y28.1437
G01 X41.0439 Y28.1192
G01 X41.0527 Y28.1031
G01 X41.0693 Y28.0702
G01 X41.0812 Y28.0445
G01 X41.0953 Y28.0105
G01 X41.1051 Y27.9838
G01 X41.1166 Y27.9489
G01 X41.1264 Y27.9134
G01 X41.1331 Y27.8858
G01 X41.1403 Y27.8497
G01 X41.1432 Y27.8315
G01 X41.1472 Y27.8034
G01 X41.1508 Y27.7668
G01 X41.1528 Y27.7293
G01 X41.1533 Y27.7017
G01 X41.1532 Y2.0925
G01 X41.1524 Y2.0649
G01 X41.1508 Y2.0365
G01 X41.1472 Y1.9999
G01 X41.1432 Y1.9718
G01 X41.1369 Y1.9355
G01 X41.1331 Y1.9175
G01 X41.1264 Y1.8899
G01 X41.1218 Y1.8721
G01 X41.1111 Y1.8369
G01 X41.0953 Y1.7928
G01 X41.0812 Y1.7588
G01 X41.0736 Y1.7421
G01 X41.0612 Y1.7165
G01 X41.0527 Y1.7002
G01 X41.0439 Y1.6841
G01 X41.0295 Y1.6596
G01 X41.0198 Y1.6439
G01 X40.9994 Y1.6133
G01 X40.9715 Y1.5757
G01 X40.9600 Y1.5614
G01 X40.9359 Y1.5335
G01 X40.9167 Y1.5126
G01 X40.9039 Y1.4994
G01 X40.8772 Y1.4741
G01 X40.8560 Y1.4552
G01 X40.8419 Y1.4433
G01 X40.8129 Y1.4207
G01 X40.7900 Y1.4039
G01 X40.7748 Y1.3935
G01 X40.7437 Y1.3738
G01 X40.7192 Y1.3594
G01 X40.7031 Y1.3506
G01 X40.6702 Y1.3340
G01 X40.6445 Y1.3221
G01 X40.6105 Y1.3080
G01 X40.5838 Y1.2982
G01 X40.5489 Y1.2867
G01 X40.5134 Y1.2769
G01 X40.4858 Y1.2702
G01 X40.4497 Y1.2630
G01 X40.4217 Y1.2586
G01 X40.4034 Y1.2561
G01 X40.3668 Y1.2525
G01 X40.3293 Y1.2505
G01 X40.3017 Y1.2500
G01 X2.1924 Y1.2501
G01 X2.1549 Y1.2514
G01 X2.1182 Y1.2541
G01 X2.0999 Y1.2561
G01 X2.0718 Y1.2601
G01 X2.0355 Y1.2664
G01 X2.0175 Y1.2702
G01 X1.9899 Y1.2769
G01 X1.9544 Y1.2867
G01 X1.9369 Y1.2922
G01 X1.9101 Y1.3016
G01 X1.8757 Y1.3148
G01 X1.8588 Y1.3221
G01 X1.8331 Y1.3340
G01 X1.8002 Y1.3506
G01 X1.7841 Y1.3594
G01 X1.7596 Y1.3738
G01 X1.7285 Y1.3935
G01 X1.6984 Y1.4147
G01 X1.6757 Y1.4318
G01 X1.6614 Y1.4433
G01 X1.6335 Y1.4674
G01 X1.6126 Y1.4866
G01 X1.5866 Y1.5126
G01 X1.5552 Y1.5473
G01 X1.5318 Y1.5757
G01 X1.5039 Y1.6133
G01 X1.4835 Y1.6439
G01 X1.4594 Y1.6841
G01 X1.4421 Y1.7165
G01 X1.4221 Y1.7588
G01 X1.4080 Y1.7928
G01 X1.3922 Y1.8369
G01 X1.3815 Y1.8721
G01 X1.3702 Y1.9175
G01 X1.3630 Y1.9536
G01 X1.3561 Y1.9999
G01 X1.3525 Y2.0365
G01 X1.3509 Y2.0649
G00 X1.3509 Y2.0649
G01 F250.00
G01 Z-1.1000
G01 F2500.00
G01 X1.3500 Y2.1017
G01 X1.3501 Y27.7109
G01 X1.3509 Y27.7385
G01 X1.3525 Y27.7668
G01 X1.3561 Y27.8034
G01 X1.3601 Y27.8315
G01 X1.3664 Y27.8678
G01 X1.3702 Y27.8858
G01 X1.3769 Y27.9134
G01 X1.3867 Y27.9489
G01 X1.3922 Y27.9664
G01 X1.4080 Y28.0105
G01 X1.4148 Y28.0276
G01 X1.4297 Y28.0612
G01 X1.4421 Y28.0868
G01 X1.4506 Y28.1031
G01 X1.4594 Y28.1192
G01 X1.4738 Y28.1437
G01 X1.4935 Y28.1748
G01 X1.5039 Y28.1900
G01 X1.5207 Y28.2129
G01 X1.5433 Y28.2419
G01 X1.5552 Y28.2560
G01 X1.5741 Y28.2772
G01 X1.5866 Y28.2907
G01 X1.6126 Y28.3167
G01 X1.6473 Y28.3481
G01 X1.6614 Y28.3600
G01 X1.6904 Y28.3826
G01 X1.7133 Y28.3994
G01 X1.7285 Y28.4098
G01 X1.7596 Y28.4295
G01 X1.7841 Y28.4439
G01 X1.8165 Y28.4612
G01 X1.8421 Y28.4736
G01 X1.8757 Y28.4885
G01 X1.8928 Y28.4953
G01 X1.9195 Y28.5051
G01 X1.9544 Y28.5166
G01 X1.9899 Y28.5264
G01 X2.0175 Y28.5331
G01 X2.0536 Y28.5403
G01 X2.0816 Y28.5447
G01 X2.1182 Y28.5492
G01 X2.1365 Y28.5508
G01 X2.1740 Y28.5528
G01 X2.2017 Y28.5533
G01 X40.3017 Y28.5533
G01 X40.3201 Y28.5531
G01 X40.3484 Y28.5519
G01 X40.3668 Y28.5508
G01 X40.4034 Y28.5472
G01 X40.4497 Y28.5403
G01 X40.4678 Y28.5369
G01 X40.5037 Y28.5289
G01 X40.5312 Y28.5218
G01 X40.5489 Y28.5166
G01 X40.5838 Y28.5051
G01 X40.6105 Y28.4953
G01 X40.6445 Y28.4812
G01 X40.6612 Y28.4736
G01 X40.6868 Y28.4612
G01 X40.7031 Y28.4527
G01 X40.7192 Y28.4439
G01 X40.7437 Y28.4295
G01 X40.7594 Y28.4198
G01 X40.7900 Y28.3994
G01 X40.8276 Y28.3715
G01 X40.8560 Y28.3481
G01 X40.8698 Y28.3359
G01 X40.8907 Y28.3167
G01 X40.9039 Y28.3039
G01 X40.9292 Y28.2772
G01 X40.9481 Y28.2560
G01 X40.9715 Y28.2276
G01 X40.9826 Y28.2129
G01 X40.9994 Y28.1900
G01 X41.0098 Y28.1748
G01 X41.0295 Y28.1437
G01 X41.0439 Y28.1192
G01 X41.0527 Y28.1031
G01 X41.0693 Y28.0702
G01 X41.0812 Y28.0445
G01 X41.0953 Y28.0105
G01 X41.1051 Y27.9838
G01 X41.1166 Y27.9489
G01 X41.1264 Y27.9134
G01 X41.1331 Y27.8858
G01 X41.1403 Y27.8497
G01 X41.1432 Y27.8315
G01 X41.1472 Y27.8034
G01 X41.1508 Y27.7668
G01 X41.1528 Y27.7293
G01 X41.1533 Y27.7017
G01 X41.1532 Y2.0925
G01 X41.1524 Y2.0649
G01 X41.1508 Y2.0365
G01 X41.1472 Y1.9999
G01 X41.1432 Y1.9718
G01 X41.1369 Y1.9355
G01 X41.1331 Y1.9175
G01 X41.1264 Y1.8899
G01 X41.1218 Y1.8721
G01 X41.1111 Y1.8369
G01 X41.0953 Y1.7928
G01 X41.0812 Y1.7588
G01 X41.0736 Y1.7421
G01 X41.0612 Y1.7165
G01 X41.0527 Y1.7002
G01 X41.0439 Y1.6841
G01 X41.0295 Y1.6596
G01 X41.0198 Y1.6439
G01 X40.9994 Y1.6133
G01 X40.9715 Y1.5757
G01 X40.9600 Y1.5614
G01 X40.9359 Y1.5335
G01 X40.9167 Y1.5126
G01 X40.9039 Y1.4994
G01 X40.8772 Y1.4741
G01 X40.8560 Y1.4552
G01 X40.8419 Y1.4433
G01 X40.8129 Y1.4207
G01 X40.7900 Y1.4039
G01 X40.7748 Y1.3935
G01 X40.7437 Y1.3738
G01 X40.7192 Y1.3594
G01 X40.7031 Y1.3506
G01 X40.6702 Y1.3340
G01 X40.6445 Y1.3221
G01 X40.6105 Y1.3080
G01 X40.5838 Y1.2982
G01 X40.5489 Y1.2867
G01 X40.5134 Y1.2769
G01 X40.4858 Y1.2702
G01 X40.4497 Y1.2630
G01 X40.4217 Y1.2586
G01 X40.4034 Y1.2561
G01 X40.3668 Y1.2525
G01 X40.3293 Y1.2505
G01 X40.3017 Y1.2500
G01 X2.1924 Y1.2501
G01 X2.1549 Y1.2514
G01 X2.1182 Y1.2541
G01 X2.0999 Y1.2561
G01 X2.0718 Y1.2601
G01 X2.0355 Y1.2664
G01 X2.0175 Y1.2702
G01 X1.9899 Y1.2769
G01 X1.9544 Y1.2867
G01 X1.9369 Y1.2922
G01 X1.9101 Y1.3016
G01 X1.8757 Y1.3148
G01 X1.8588 Y1.3221
G01 X1.8331 Y1.3340
G01 X1.8002 Y1.3506
G01 X1.7841 Y1.3594
G01 X1.7596 Y1.3738
G01 X1.7285 Y1.3935
G01 X1.6984 Y1.4147
G01 X1.6757 Y1.4318
G01 X1.6614 Y1.4433
G01 X1.6335 Y1.4674
G01 X1.6126 Y1.4866
G01 X1.5866 Y1.5126
G01 X1.5552 Y1.5473
G01 X1.5318 Y1.5757
G01 X1.5039 Y1.6133
G01 X1.4835 Y1.6439
G01 X1.4594 Y1.6841
G01 X1.4421 Y1.7165
G01 X1.4221 Y1.7588
G01 X1.4080 Y1.7928
G01 X1.3922 Y1.8369
G01 X1.3815 Y1.8721
G01 X1.3702 Y1.9175
G01 X1.3630 Y1.9536
G01 X1.3561 Y1.9999
G01 X1.3525 Y2.0365
G01 X1.3509 Y2.0649
G00 X1.3509 Y2.0649
G01 F250.00
G01 Z-1.2000
G01 F2500.00
G01 X1.3500 Y2.1017
G01 X1.3501 Y27.7109
G01 X1.3509 Y27.7385
G01 X1.3525 Y27.7668
G01 X1.3561 Y27.8034
G01 X1.3601 Y27.8315
G01 X1.3664 Y27.8678
G01 X1.3702 Y27.8858
G01 X1.3769 Y27.9134
G01 X1.3867 Y27.9489
G01 X1.3922 Y27.9664
G01 X1.4080 Y28.0105
G01 X1.4148 Y28.0276
G01 X1.4297 Y28.0612
G01 X1.4421 Y28.0868
G01 X1.4506 Y28.1031
G01 X1.4594 Y28.1192
G01 X1.4738 Y28.1437
G01 X1.4935 Y28.1748
G01 X1.5039 Y28.1900
G01 X1.5207 Y28.2129
G01 X1.5433 Y28.2419
G01 X1.5552 Y28.2560
G01 X1.5741 Y28.2772
G01 X1.5866 Y28.2907
G01 X1.6126 Y28.3167
G01 X1.6473 Y28.3481
G01 X1.6614 Y28.3600
G01 X1.6904 Y28.3826
G01 X1.7133 Y28.3994
G01 X1.7285 Y28.4098
G01 X1.7596 Y28.4295
G01 X1.7841 Y28.4439
G01 X1.8165 Y28.4612
G01 X1.8421 Y28.4736
G01 X1.8757 Y28.4885
G01 X1.8928 Y28.4953
G01 X1.9195 Y28.5051
G01 X1.9544 Y28.5166
G01 X1.9899 Y28.5264
G01 X2.0175 Y28.5331
G01 X2.0536 Y28.5403
G01 X2.0816 Y28.5447
G01 X2.1182 Y28.5492
G01 X2.1365 Y28.5508
G01 X2.1740 Y28.5528
G01 X2.2017 Y28.5533
G01 X40.3017 Y28.5533
G01 X40.3201 Y28.5531
G01 X40.3484 Y28.5519
G01 X40.3668 Y28.5508
G01 X40.4034 Y28.5472
G01 X40.4497 Y28.5403
G01 X40.4678 Y28.5369
G01 X40.5037 Y28.5289
G01 X40.5312 Y28.5218
G01 X40.5489 Y28.5166
G01 X40.5838 Y28.5051
G01 X40.6105 Y28.4953
G01 X40.6445 Y28.4812
G01 X40.6612 Y28.4736
G01 X40.6868 Y28.4612
G01 X40.7031 Y28.4527
G01 X40.7192 Y28.4439
G01 X40.7437 Y28.4295
G01 X40.7594 Y28.4198
G01 X40.7900 Y28.3994
G01 X40.8276 Y28.3715
G01 X40.8560 Y28.3481
G01 X40.8698 Y28.3359
G01 X40.8907 Y28.3167
G01 X40.9039 Y28.3039
G01 X40.9292 Y28.2772
G01 X40.9481 Y28.2560
G01 X40.9715 Y28.2276
G01 X40.9826 Y28.2129
G01 X40.9994 Y28.1900
G01 X41.0098 Y28.1748
G01 X41.0295 Y28.1437
G01 X41.0439 Y28.1192
G01 X41.0527 Y28.1031
G01 X41.0693 Y28.0702
G01 X41.0812 Y28.0445
G01 X41.0953 Y28.0105
G01 X41.1051 Y27.9838
G01 X41.1166 Y27.9489
G01 X41.1264 Y27.9134
G01 X41.1331 Y27.8858
G01 X41.1403 Y27.8497
G01 X41.1432 Y27.8315
G01 X41.1472 Y27.8034
G01 X41.1508 Y27.7668
G01 X41.1528 Y27.7293
G01 X41.1533 Y27.7017
G01 X41.1532 Y2.0925
G01 X41.1524 Y2.0649
G01 X41.1508 Y2.0365
G01 X41.1472 Y1.9999
G01 X41.1432 Y1.9718
G01 X41.1369 Y1.9355
G01 X41.1331 Y1.9175
G01 X41.1264 Y1.8899
G01 X41.1218 Y1.8721
G01 X41.1111 Y1.8369
G01 X41.0953 Y1.7928
G01 X41.0812 Y1.7588
G01 X41.0736 Y1.7421
G01 X41.0612 Y1.7165
G01 X41.0527 Y1.7002
G01 X41.0439 Y1.6841
G01 X41.0295 Y1.6596
G01 X41.0198 Y1.6439
G01 X40.9994 Y1.6133
G01 X40.9715 Y1.5757
G01 X40.9600 Y1.5614
G01 X40.9359 Y1.5335
G01 X40.9167 Y1.5126
G01 X40.9039 Y1.4994
G01 X40.8772 Y1.4741
G01 X40.8560 Y1.4552
G01 X40.8419 Y1.4433
G01 X40.8129 Y1.4207
G01 X40.7900 Y1.4039
G01 X40.7748 Y1.3935
G01 X40.7437 Y1.3738
G01 X40.7192 Y1.3594
G01 X40.7031 Y1.3506
G01 X40.6702 Y1.3340
G01 X40.6445 Y1.3221
G01 X40.6105 Y1.3080
G01 X40.5838 Y1.2982
G01 X40.5489 Y1.2867
G01 X40.5134 Y1.2769
G01 X40.4858 Y1.2702
G01 X40.4497 Y1.2630
G01 X40.4217 Y1.2586
G01 X40.4034 Y1.2561
G01 X40.3668 Y1.2525
G01 X40.3293 Y1.2505
G01 X40.3017 Y1.2500
G01 X2.1924 Y1.2501
G01 X2.1549 Y1.2514
G01 X2.1182 Y1.2541
G01 X2.0999 Y1.2561
G01 X2.0718 Y1.2601
G01 X2.0355 Y1.2664
G01 X2.0175 Y1.2702
G01 X1.9899 Y1.2769
G01 X1.9544 Y1.2867
G01 X1.9369 Y1.2922
G01 X1.9101 Y1.3016
G01 X1.8757 Y1.3148
G01 X1.8588 Y1.3221
G01 X1.8331 Y1.3340
G01 X1.8002 Y1.3506
G01 X1.7841 Y1.3594
G01 X1.7596 Y1.3738
G01 X1.7285 Y1.3935
G01 X1.6984 Y1.4147
G01 X1.6757 Y1.4318
G01 X1.6614 Y1.4433
G01 X1.6335 Y1.4674
G01 X1.6126 Y1.4866
G01 X1.5866 Y1.5126
G01 X1.5552 Y1.5473
G01 X1.5318 Y1.5757
G01 X1.5039 Y1.6133
G01 X1.4835 Y1.6439
G01 X1.4594 Y1.6841
G01 X1.4421 Y1.7165
G01 X1.4221 Y1.7588
G01 X1.4080 Y1.7928
G01 X1.3922 Y1.8369
G01 X1.3815 Y1.8721
G01 X1.3702 Y1.9175
G01 X1.3630 Y1.9536
G01 X1.3561 Y1.9999
G01 X1.3525 Y2.0365
G01 X1.3509 Y2.0649
G00 X1.3509 Y2.0649
G01 F250.00
G01 Z-1.3000
G01 F2500.00
G01 X1.3500 Y2.1017
G01 X1.3501 Y27.7109
G01 X1.3509 Y27.7385
G01 X1.3525 Y27.7668
G01 X1.3561 Y27.8034
G01 X1.3601 Y27.8315
G01 X1.3664 Y27.8678
G01 X1.3702 Y27.8858
G01 X1.3769 Y27.9134
G01 X1.3867 Y27.9489
G01 X1.3922 Y27.9664
G01 X1.4080 Y28.0105
G01 X1.4148 Y28.0276
G01 X1.4297 Y28.0612
G01 X1.4421 Y28.0868
G01 X1.4506 Y28.1031
G01 X1.4594 Y28.1192
G01 X1.4738 Y28.1437
G01 X1.4935 Y28.1748
G01 X1.5039 Y28.1900
G01 X1.5207 Y28.2129
G01 X1.5433 Y28.2419
G01 X1.5552 Y28.2560
G01 X1.5741 Y28.2772
G01 X1.5866 Y28.2907
G01 X1.6126 Y28.3167
G01 X1.6473 Y28.3481
G01 X1.6614 Y28.3600
G01 X1.6904 Y28.3826
G01 X1.7133 Y28.3994
G01 X1.7285 Y28.4098
G01 X1.7596 Y28.4295
G01 X1.7841 Y28.4439
G01 X1.8165 Y28.4612
G01 X1.8421 Y28.4736
G01 X1.8757 Y28.4885
G01 X1.8928 Y28.4953
G01 X1.9195 Y28.5051
G01 X1.9544 Y28.5166
G01 X1.9899 Y28.5264
G01 X2.0175 Y28.5331
G01 X2.0536 Y28.5403
G01 X2.0816 Y28.5447
G01 X2.1182 Y28.5492
G01 X2.1365 Y28.5508
G01 X2.1740 Y28.5528
G01 X2.2017 Y28.5533
G01 X40.3017 Y28.5533
G01 X40.3201 Y28.5531
G01 X40.3484 Y28.5519
G01 X40.3668 Y28.5508
G01 X40.4034 Y28.5472
G01 X40.4497 Y28.5403
G01 X40.4678 Y28.5369
G01 X40.5037 Y28.5289
G01 X40.5312 Y28.5218
G01 X40.5489 Y28.5166
G01 X40.5838 Y28.5051
G01 X40.6105 Y28.4953
G01 X40.6445 Y28.4812
G01 X40.6612 Y28.4736
G01 X40.6868 Y28.4612
G01 X40.7031 Y28.4527
G01 X40.7192 Y28.4439
G01 X40.7437 Y28.4295
G01 X40.7594 Y28.4198
G01 X40.7900 Y28.3994
G01 X40.8276 Y28.3715
G01 X40.8560 Y28.3481
G01 X40.8698 Y28.3359
G01 X40.8907 Y28.3167
G01 X40.9039 Y28.3039
G01 X40.9292 Y28.2772
G01 X40.9481 Y28.2560
G01 X40.9715 Y28.2276
G01 X40.9826 Y28.2129
G01 X40.9994 Y28.1900
G01 X41.0098 Y28.1748
G01 X41.0295 Y28.1437
G01 X41.0439 Y28.1192
G01 X41.0527 Y28.1031
G01 X41.0693 Y28.0702
G01 X41.0812 Y28.0445
G01 X41.0953 Y28.0105
G01 X41.1051 Y27.9838
G01 X41.1166 Y27.9489
G01 X41.1264 Y27.9134
G01 X41.1331 Y27.8858
G01 X41.1403 Y27.8497
G01 X41.1432 Y27.8315
G01 X41.1472 Y27.8034
G01 X41.1508 Y27.7668
G01 X41.1528 Y27.7293
G01 X41.1533 Y27.7017
G01 X41.1532 Y2.0925
G01 X41.1524 Y2.0649
G01 X41.1508 Y2.0365
G01 X41.1472 Y1.9999
G01 X41.1432 Y1.9718
G01 X41.1369 Y1.9355
G01 X41.1331 Y1.9175
G01 X41.1264 Y1.8899
G01 X41.1218 Y1.8721
G01 X41.1111 Y1.8369
G01 X41.0953 Y1.7928
G01 X41.0812 Y1.7588
G01 X41.0736 Y1.7421
G01 X41.0612 Y1.7165
G01 X41.0527 Y1.7002
G01 X41.0439 Y1.6841
G01 X41.0295 Y1.6596
G01 X41.0198 Y1.6439
G01 X40.9994 Y1.6133
G01 X40.9715 Y1.5757
G01 X40.9600 Y1.5614
G01 X40.9359 Y1.5335
G01 X40.9167 Y1.5126
G01 X40.9039 Y1.4994
G01 X40.8772 Y1.4741
G01 X40.8560 Y1.4552
G01 X40.8419 Y1.4433
G01 X40.8129 Y1.4207
G01 X40.7900 Y1.4039
G01 X40.7748 Y1.3935
G01 X40.7437 Y1.3738
G01 X40.7192 Y1.3594
G01 X40.7031 Y1.3506
G01 X40.6702 Y1.3340
G01 X40.6445 Y1.3221
G01 X40.6105 Y1.3080
G01 X40.5838 Y1.2982
G01 X40.5489 Y1.2867
G01 X40.5134 Y1.2769
G01 X40.4858 Y1.2702
G01 X40.4497 Y1.2630
G01 X40.4217 Y1.2586
G01 X40.4034 Y1.2561
G01 X40.3668 Y1.2525
G01 X40.3293 Y1.2505
G01 X40.3017 Y1.2500
G01 X2.1924 Y1.2501
G01 X2.1549 Y1.2514
G01 X2.1182 Y1.2541
G01 X2.0999 Y1.2561
G01 X2.0718 Y1.2601
G01 X2.0355 Y1.2664
G01 X2.0175 Y1.2702
G01 X1.9899 Y1.2769
G01 X1.9544 Y1.2867
G01 X1.9369 Y1.2922
G01 X1.9101 Y1.3016
G01 X1.8757 Y1.3148
G01 X1.8588 Y1.3221
G01 X1.8331 Y1.3340
G01 X1.8002 Y1.3506
G01 X1.7841 Y1.3594
G01 X1.7596 Y1.3738
G01 X1.7285 Y1.3935
G01 X1.6984 Y1.4147
G01 X1.6757 Y1.4318
G01 X1.6614 Y1.4433
G01 X1.6335 Y1.4674
G01 X1.6126 Y1.4866
G01 X1.5866 Y1.5126
G01 X1.5552 Y1.5473
G01 X1.5318 Y1.5757
G01 X1.5039 Y1.6133
G01 X1.4835 Y1.6439
G01 X1.4594 Y1.6841
G01 X1.4421 Y1.7165
G01 X1.4221 Y1.7588
G01 X1.4080 Y1.7928
G01 X1.3922 Y1.8369
G01 X1.3815 Y1.8721
G01 X1.3702 Y1.9175
G01 X1.3630 Y1.9536
G01 X1.3561 Y1.9999
G01 X1.3525 Y2.0365
G01 X1.3509 Y2.0649
G00 X1.3509 Y2.0649
G01 F250.00
G01 Z-1.4000
G01 F2500.00
G01 X1.3500 Y2.1017
G01 X1.3501 Y27.7109
G01 X1.3509 Y27.7385
G01 X1.3525 Y27.7668
G01 X1.3561 Y27.8034
G01 X1.3601 Y27.8315
G01 X1.3664 Y27.8678
G01 X1.3702 Y27.8858
G01 X1.3769 Y27.9134
G01 X1.3867 Y27.9489
G01 X1.3922 Y27.9664
G01 X1.4080 Y28.0105
G01 X1.4148 Y28.0276
G01 X1.4297 Y28.0612
G01 X1.4421 Y28.0868
G01 X1.4506 Y28.1031
G01 X1.4594 Y28.1192
G01 X1.4738 Y28.1437
G01 X1.4935 Y28.1748
G01 X1.5039 Y28.1900
G01 X1.5207 Y28.2129
G01 X1.5433 Y28.2419
G01 X1.5552 Y28.2560
G01 X1.5741 Y28.2772
G01 X1.5866 Y28.2907
G01 X1.6126 Y28.3167
G01 X1.6473 Y28.3481
G01 X1.6614 Y28.3600
G01 X1.6904 Y28.3826
G01 X1.7133 Y28.3994
G01 X1.7285 Y28.4098
G01 X1.7596 Y28.4295
G01 X1.7841 Y28.4439
G01 X1.8165 Y28.4612
G01 X1.8421 Y28.4736
G01 X1.8757 Y28.4885
G01 X1.8928 Y28.4953
G01 X1.9195 Y28.5051
G01 X1.9544 Y28.5166
G01 X1.9899 Y28.5264
G01 X2.0175 Y28.5331
G01 X2.0536 Y28.5403
G01 X2.0816 Y28.5447
G01 X2.1182 Y28.5492
G01 X2.1365 Y28.5508
G01 X2.1740 Y28.5528
G01 X2.2017 Y28.5533
G01 X40.3017 Y28.5533
G01 X40.3201 Y28.5531
G01 X40.3484 Y28.5519
G01 X40.3668 Y28.5508
G01 X40.4034 Y28.5472
G01 X40.4497 Y28.5403
G01 X40.4678 Y28.5369
G01 X40.5037 Y28.5289
G01 X40.5312 Y28.5218
G01 X40.5489 Y28.5166
G01 X40.5838 Y28.5051
G01 X40.6105 Y28.4953
G01 X40.6445 Y28.4812
G01 X40.6612 Y28.4736
G01 X40.6868 Y28.4612
G01 X40.7031 Y28.4527
G01 X40.7192 Y28.4439
G01 X40.7437 Y28.4295
G01 X40.7594 Y28.4198
G01 X40.7900 Y28.3994
G01 X40.8276 Y28.3715
G01 X40.8560 Y28.3481
G01 X40.8698 Y28.3359
G01 X40.8907 Y28.3167
G01 X40.9039 Y28.3039
G01 X40.9292 Y28.2772
G01 X40.9481 Y28.2560
G01 X40.9715 Y28.2276
G01 X40.9826 Y28.2129
G01 X40.9994 Y28.1900
G01 X41.0098 Y28.1748
G01 X41.0295 Y28.1437
G01 X41.0439 Y28.1192
G01 X41.0527 Y28.1031
G01 X41.0693 Y28.0702
G01 X41.0812 Y28.0445
G01 X41.0953 Y28.0105
G01 X41.1051 Y27.9838
G01 X41.1166 Y27.9489
G01 X41.1264 Y27.9134
G01 X41.1331 Y27.8858
G01 X41.1403 Y27.8497
G01 X41.1432 Y27.8315
G01 X41.1472 Y27.8034
G01 X41.1508 Y27.7668
G01 X41.1528 Y27.7293
G01 X41.1533 Y27.7017
G01 X41.1532 Y2.0925
G01 X41.1524 Y2.0649
G01 X41.1508 Y2.0365
G01 X41.1472 Y1.9999
G01 X41.1432 Y1.9718
G01 X41.1369 Y1.9355
G01 X41.1331 Y1.9175
G01 X41.1264 Y1.8899
G01 X41.1218 Y1.8721
G01 X41.1111 Y1.8369
G01 X41.0953 Y1.7928
G01 X41.0812 Y1.7588
G01 X41.0736 Y1.7421
G01 X41.0612 Y1.7165
G01 X41.0527 Y1.7002
G01 X41.0439 Y1.6841
G01 X41.0295 Y1.6596
G01 X41.0198 Y1.6439
G01 X40.9994 Y1.6133
G01 X40.9715 Y1.5757
G01 X40.9600 Y1.5614
G01 X40.9359 Y1.5335
G01 X40.9167 Y1.5126
G01 X40.9039 Y1.4994
G01 X40.8772 Y1.4741
G01 X40.8560 Y1.4552
G01 X40.8419 Y1.4433
G01 X40.8129 Y1.4207
G01 X40.7900 Y1.4039
G01 X40.7748 Y1.3935
G01 X40.7437 Y1.3738
G01 X40.7192 Y1.3594
G01 X40.7031 Y1.3506
G01 X40.6702 Y1.3340
G01 X40.6445 Y1.3221
G01 X40.6105 Y1.3080
G01 X40.5838 Y1.2982
G01 X40.5489 Y1.2867
G01 X40.5134 Y1.2769
G01 X40.4858 Y1.2702
G01 X40.4497 Y1.2630
G01 X40.4217 Y1.2586
G01 X40.4034 Y1.2561
G01 X40.3668 Y1.2525
G01 X40.3293 Y1.2505
G01 X40.3017 Y1.2500
G01 X2.1924 Y1.2501
G01 X2.1549 Y1.2514
G01 X2.1182 Y1.2541
G01 X2.0999 Y1.2561
G01 X2.0718 Y1.2601
G01 X2.0355 Y1.2664
G01 X2.0175 Y1.2702
G01 X1.9899 Y1.2769
G01 X1.9544 Y1.2867
G01 X1.9369 Y1.2922
G01 X1.9101 Y1.3016
G01 X1.8757 Y1.3148
G01 X1.8588 Y1.3221
G01 X1.8331 Y1.3340
G01 X1.8002 Y1.3506
G01 X1.7841 Y1.3594
G01 X1.7596 Y1.3738
G01 X1.7285 Y1.3935
G01 X1.6984 Y1.4147
G01 X1.6757 Y1.4318
G01 X1.6614 Y1.4433
G01 X1.6335 Y1.4674
G01 X1.6126 Y1.4866
G01 X1.5866 Y1.5126
G01 X1.5552 Y1.5473
G01 X1.5318 Y1.5757
G01 X1.5039 Y1.6133
G01 X1.4835 Y1.6439
G01 X1.4594 Y1.6841
G01 X1.4421 Y1.7165
G01 X1.4221 Y1.7588
G01 X1.4080 Y1.7928
G01 X1.3922 Y1.8369
G01 X1.3815 Y1.8721
G01 X1.3702 Y1.9175
G01 X1.3630 Y1.9536
G01 X1.3561 Y1.9999
G01 X1.3525 Y2.0365
G01 X1.3509 Y2.0649
G00 X1.3509 Y2.0649
G01 F250.00
G01 Z-1.5000
G01 F2500.00
G01 X1.3500 Y2.1017
G01 X1.3501 Y27.7109
G01 X1.3509 Y27.7385
G01 X1.3525 Y27.7668
G01 X1.3561 Y27.8034
G01 X1.3601 Y27.8315
G01 X1.3664 Y27.8678
G01 X1.3702 Y27.8858
G01 X1.3769 Y27.9134
G01 X1.3867 Y27.9489
G01 X1.3922 Y27.9664
G01 X1.4080 Y28.0105
G01 X1.4148 Y28.0276
G01 X1.4297 Y28.0612
G01 X1.4421 Y28.0868
G01 X1.4506 Y28.1031
G01 X1.4594 Y28.1192
G01 X1.4738 Y28.1437
G01 X1.4935 Y28.1748
G01 X1.5039 Y28.1900
G01 X1.5207 Y28.2129
G01 X1.5433 Y28.2419
G01 X1.5552 Y28.2560
G01 X1.5741 Y28.2772
G01 X1.5866 Y28.2907
G01 X1.6126 Y28.3167
G01 X1.6473 Y28.3481
G01 X1.6614 Y28.3600
G01 X1.6904 Y28.3826
G01 X1.7133 Y28.3994
G01 X1.7285 Y28.4098
G01 X1.7596 Y28.4295
G01 X1.7841 Y28.4439
G01 X1.8165 Y28.4612
G01 X1.8421 Y28.4736
G01 X1.8757 Y28.4885
G01 X1.8928 Y28.4953
G01 X1.9195 Y28.5051
G01 X1.9544 Y28.5166
G01 X1.9899 Y28.5264
G01 X2.0175 Y28.5331
G01 X2.0536 Y28.5403
G01 X2.0816 Y28.5447
G01 X2.1182 Y28.5492
G01 X2.1365 Y28.5508
G01 X2.1740 Y28.5528
G01 X2.2017 Y28.5533
G01 X40.3017 Y28.5533
G01 X40.3201 Y28.5531
G01 X40.3484 Y28.5519
G01 X40.3668 Y28.5508
G01 X40.4034 Y28.5472
G01 X40.4497 Y28.5403
G01 X40.4678 Y28.5369
G01 X40.5037 Y28.5289
G01 X40.5312 Y28.5218
G01 X40.5489 Y28.5166
G01 X40.5838 Y28.5051
G01 X40.6105 Y28.4953
G01 X40.6445 Y28.4812
G01 X40.6612 Y28.4736
G01 X40.6868 Y28.4612
G01 X40.7031 Y28.4527
G01 X40.7192 Y28.4439
G01 X40.7437 Y28.4295
G01 X40.7594 Y28.4198
G01 X40.7900 Y28.3994
G01 X40.8276 Y28.3715
G01 X40.8560 Y28.3481
G01 X40.8698 Y28.3359
G01 X40.8907 Y28.3167
G01 X40.9039 Y28.3039
G01 X40.9292 Y28.2772
G01 X40.9481 Y28.2560
G01 X40.9715 Y28.2276
G01 X40.9826 Y28.2129
G01 X40.9994 Y28.1900
G01 X41.0098 Y28.1748
G01 X41.0295 Y28.1437
G01 X41.0439 Y28.1192
G01 X41.0527 Y28.1031
G01 X41.0693 Y28.0702
G01 X41.0812 Y28.0445
G01 X41.0953 Y28.0105
G01 X41.1051 Y27.9838
G01 X41.1166 Y27.9489
G01 X41.1264 Y27.9134
G01 X41.1331 Y27.8858
G01 X41.1403 Y27.8497
G01 X41.1432 Y27.8315
G01 X41.1472 Y27.8034
G01 X41.1508 Y27.7668
G01 X41.1528 Y27.7293
G01 X41.1533 Y27.7017
G01 X41.1532 Y2.0925
G01 X41.1524 Y2.0649
G01 X41.1508 Y2.0365
G01 X41.1472 Y1.9999
G01 X41.1432 Y1.9718
G01 X41.1369 Y1.9355
G01 X41.1331 Y1.9175
G01 X41.1264 Y1.8899
G01 X41.1218 Y1.8721
G01 X41.1111 Y1.8369
G01 X41.0953 Y1.7928
G01 X41.0812 Y1.7588
G01 X41.0736 Y1.7421
G01 X41.0612 Y1.7165
G01 X41.0527 Y1.7002
G01 X41.0439 Y1.6841
G01 X41.0295 Y1.6596
G01 X41.0198 Y1.6439
G01 X40.9994 Y1.6133
G01 X40.9715 Y1.5757
G01 X40.9600 Y1.5614
G01 X40.9359 Y1.5335
G01 X40.9167 Y1.5126
G01 X40.9039 Y1.4994
G01 X40.8772 Y1.4741
G01 X40.8560 Y1.4552
G01 X40.8419 Y1.4433
G01 X40.8129 Y1.4207
G01 X40.7900 Y1.4039
G01 X40.7748 Y1.3935
G01 X40.7437 Y1.3738
G01 X40.7192 Y1.3594
G01 X40.7031 Y1.3506
G01 X40.6702 Y1.3340
G01 X40.6445 Y1.3221
G01 X40.6105 Y1.3080
G01 X40.5838 Y1.2982
G01 X40.5489 Y1.2867
G01 X40.5134 Y1.2769
G01 X40.4858 Y1.2702
G01 X40.4497 Y1.2630
G01 X40.4217 Y1.2586
G01 X40.4034 Y1.2561
G01 X40.3668 Y1.2525
G01 X40.3293 Y1.2505
G01 X40.3017 Y1.2500
G01 X2.1924 Y1.2501
G01 X2.1549 Y1.2514
G01 X2.1182 Y1.2541
G01 X2.0999 Y1.2561
G01 X2.0718 Y1.2601
G01 X2.0355 Y1.2664
G01 X2.0175 Y1.2702
G01 X1.9899 Y1.2769
G01 X1.9544 Y1.2867
G01 X1.9369 Y1.2922
G01 X1.9101 Y1.3016
G01 X1.8757 Y1.3148
G01 X1.8588 Y1.3221
G01 X1.8331 Y1.3340
G01 X1.8002 Y1.3506
G01 X1.7841 Y1.3594
G01 X1.7596 Y1.3738
G01 X1.7285 Y1.3935
G01 X1.6984 Y1.4147
G01 X1.6757 Y1.4318
G01 X1.6614 Y1.4433
G01 X1.6335 Y1.4674
G01 X1.6126 Y1.4866
G01 X1.5866 Y1.5126
G01 X1.5552 Y1.5473
G01 X1.5318 Y1.5757
G01 X1.5039 Y1.6133
G01 X1.4835 Y1.6439
G01 X1.4594 Y1.6841
G01 X1.4421 Y1.7165
G01 X1.4221 Y1.7588
G01 X1.4080 Y1.7928
G01 X1.3922 Y1.8369
G01 X1.3815 Y1.8721
G01 X1.3702 Y1.9175
G01 X1.3630 Y1.9536
G01 X1.3561 Y1.9999
G01 X1.3525 Y2.0365
G01 X1.3509 Y2.0649
G00 X1.3509 Y2.0649
G01 F250.00
G01 Z-1.6000
G01 F2500.00
G01 X1.3500 Y2.1017
G01 X1.3501 Y27.7109
G01 X1.3509 Y27.7385
G01 X1.3525 Y27.7668
G01 X1.3561 Y27.8034
G01 X1.3601 Y27.8315
G01 X1.3664 Y27.8678
G01 X1.3702 Y27.8858
G01 X1.3769 Y27.9134
G01 X1.3867 Y27.9489
G01 X1.3922 Y27.9664
G01 X1.4080 Y28.0105
G01 X1.4148 Y28.0276
G01 X1.4297 Y28.0612
G01 X1.4421 Y28.0868
G01 X1.4506 Y28.1031
G01 X1.4594 Y28.1192
G01 X1.4738 Y28.1437
G01 X1.4935 Y28.1748
G01 X1.5039 Y28.1900
G01 X1.5207 Y28.2129
G01 X1.5433 Y28.2419
G01 X1.5552 Y28.2560
G01 X1.5741 Y28.2772
G01 X1.5866 Y28.2907
G01 X1.6126 Y28.3167
G01 X1.6473 Y28.3481
G01 X1.6614 Y28.3600
G01 X1.6904 Y28.3826
G01 X1.7133 Y28.3994
G01 X1.7285 Y28.4098
G01 X1.7596 Y28.4295
G01 X1.7841 Y28.4439
G01 X1.8165 Y28.4612
G01 X1.8421 Y28.4736
G01 X1.8757 Y28.4885
G01 X1.8928 Y28.4953
G01 X1.9195 Y28.5051
G01 X1.9544 Y28.5166
G01 X1.9899 Y28.5264
G01 X2.0175 Y28.5331
G01 X2.0536 Y28.5403
G01 X2.0816 Y28.5447
G01 X2.1182 Y28.5492
G01 X2.1365 Y28.5508
G01 X2.1740 Y28.5528
G01 X2.2017 Y28.5533
G01 X40.3017 Y28.5533
G01 X40.3201 Y28.5531
G01 X40.3484 Y28.5519
G01 X40.3668 Y28.5508
G01 X40.4034 Y28.5472
G01 X40.4497 Y28.5403
G01 X40.4678 Y28.5369
G01 X40.5037 Y28.5289
G01 X40.5312 Y28.5218
G01 X40.5489 Y28.5166
G01 X40.5838 Y28.5051
G01 X40.6105 Y28.4953
G01 X40.6445 Y28.4812
G01 X40.6612 Y28.4736
G01 X40.6868 Y28.4612
G01 X40.7031 Y28.4527
G01 X40.7192 Y28.4439
G01 X40.7437 Y28.4295
G01 X40.7594 Y28.4198
G01 X40.7900 Y28.3994
G01 X40.8276 Y28.3715
G01 X40.8560 Y28.3481
G01 X40.8698 Y28.3359
G01 X40.8907 Y28.3167
G01 X40.9039 Y28.3039
G01 X40.9292 Y28.2772
G01 X40.9481 Y28.2560
G01 X40.9715 Y28.2276
G01 X40.9826 Y28.2129
G01 X40.9994 Y28.1900
G01 X41.0098 Y28.1748
G01 X41.0295 Y28.1437
G01 X41.0439 Y28.1192
G01 X41.0527 Y28.1031
G01 X41.0693 Y28.0702
G01 X41.0812 Y28.0445
G01 X41.0953 Y28.0105
G01 X41.1051 Y27.9838
G01 X41.1166 Y27.9489
G01 X41.1264 Y27.9134
G01 X41.1331 Y27.8858
G01 X41.1403 Y27.8497
G01 X41.1432 Y27.8315
G01 X41.1472 Y27.8034
G01 X41.1508 Y27.7668
G01 X41.1528 Y27.7293
G01 X41.1533 Y27.7017
G01 X41.1532 Y2.0925
G01 X41.1524 Y2.0649
G01 X41.1508 Y2.0365
G01 X41.1472 Y1.9999
G01 X41.1432 Y1.9718
G01 X41.1369 Y1.9355
G01 X41.1331 Y1.9175
G01 X41.1264 Y1.8899
G01 X41.1218 Y1.8721
G01 X41.1111 Y1.8369
G01 X41.0953 Y1.7928
G01 X41.0812 Y1.7588
G01 X41.0736 Y1.7421
G01 X41.0612 Y1.7165
G01 X41.0527 Y1.7002
G01 X41.0439 Y1.6841
G01 X41.0295 Y1.6596
G01 X41.0198 Y1.6439
G01 X40.9994 Y1.6133
G01 X40.9715 Y1.5757
G01 X40.9600 Y1.5614
G01 X40.9359 Y1.5335
G01 X40.9167 Y1.5126
G01 X40.9039 Y1.4994
G01 X40.8772 Y1.4741
G01 X40.8560 Y1.4552
G01 X40.8419 Y1.4433
G01 X40.8129 Y1.4207
G01 X40.7900 Y1.4039
G01 X40.7748 Y1.3935
G01 X40.7437 Y1.3738
G01 X40.7192 Y1.3594
G01 X40.7031 Y1.3506
G01 X40.6702 Y1.3340
G01 X40.6445 Y1.3221
G01 X40.6105 Y1.3080
G01 X40.5838 Y1.2982
G01 X40.5489 Y1.2867
G01 X40.5134 Y1.2769
G01 X40.4858 Y1.2702
G01 X40.4497 Y1.2630
G01 X40.4217 Y1.2586
G01 X40.4034 Y1.2561
G01 X40.3668 Y1.2525
G01 X40.3293 Y1.2505
G01 X40.3017 Y1.2500
G01 X2.1924 Y1.2501
G01 X2.1549 Y1.2514
G01 X2.1182 Y1.2541
G01 X2.0999 Y1.2561
G01 X2.0718 Y1.2601
G01 X2.0355 Y1.2664
G01 X2.0175 Y1.2702
G01 X1.9899 Y1.2769
G01 X1.9544 Y1.2867
G01 X1.9369 Y1.2922
G01 X1.9101 Y1.3016
G01 X1.8757 Y1.3148
G01 X1.8588 Y1.3221
G01 X1.8331 Y1.3340
G01 X1.8002 Y1.3506
G01 X1.7841 Y1.3594
G01 X1.7596 Y1.3738
G01 X1.7285 Y1.3935
G01 X1.6984 Y1.4147
G01 X1.6757 Y1.4318
G01 X1.6614 Y1.4433
G01 X1.6335 Y1.4674
G01 X1.6126 Y1.4866
G01 X1.5866 Y1.5126
G01 X1.5552 Y1.5473
G01 X1.5318 Y1.5757
G01 X1.5039 Y1.6133
G01 X1.4835 Y1.6439
G01 X1.4594 Y1.6841
G01 X1.4421 Y1.7165
G01 X1.4221 Y1.7588
G01 X1.4080 Y1.7928
G01 X1.3922 Y1.8369
G01 X1.3815 Y1.8721
G01 X1.3702 Y1.9175
G01 X1.3630 Y1.9536
G01 X1.3561 Y1.9999
G01 X1.3525 Y2.0365
G01 X1.3509 Y2.0649
G00 X1.3509 Y2.0649
G01 F250.00
G01 Z-1.7000
G01 F2500.00
G01 X1.3500 Y2.1017
G01 X1.3501 Y27.7109
G01 X1.3509 Y27.7385
G01 X1.3525 Y27.7668
G01 X1.3561 Y27.8034
G01 X1.3601 Y27.8315
G01 X1.3664 Y27.8678
G01 X1.3702 Y27.8858
G01 X1.3769 Y27.9134
G01 X1.3867 Y27.9489
G01 X1.3922 Y27.9664
G01 X1.4080 Y28.0105
G01 X1.4148 Y28.0276
G01 X1.4297 Y28.0612
G01 X1.4421 Y28.0868
G01 X1.4506 Y28.1031
G01 X1.4594 Y28.1192
G01 X1.4738 Y28.1437
G01 X1.4935 Y28.1748
G01 X1.5039 Y28.1900
G01 X1.5207 Y28.2129
G01 X1.5433 Y28.2419
G01 X1.5552 Y28.2560
G01 X1.5741 Y28.2772
G01 X1.5866 Y28.2907
G01 X1.6126 Y28.3167
G01 X1.6473 Y28.3481
G01 X1.6614 Y28.3600
G01 X1.6904 Y28.3826
G01 X1.7133 Y28.3994
G01 X1.7285 Y28.4098
G01 X1.7596 Y28.4295
G01 X1.7841 Y28.4439
G01 X1.8165 Y28.4612
G01 X1.8421 Y28.4736
G01 X1.8757 Y28.4885
G01 X1.8928 Y28.4953
G01 X1.9195 Y28.5051
G01 X1.9544 Y28.5166
G01 X1.9899 Y28.5264
G01 X2.0175 Y28.5331
G01 X2.0536 Y28.5403
G01 X2.0816 Y28.5447
G01 X2.1182 Y28.5492
G01 X2.1365 Y28.5508
G01 X2.1740 Y28.5528
G01 X2.2017 Y28.5533
G01 X40.3017 Y28.5533
G01 X40.3201 Y28.5531
G01 X40.3484 Y28.5519
G01 X40.3668 Y28.5508
G01 X40.4034 Y28.5472
G01 X40.4497 Y28.5403
G01 X40.4678 Y28.5369
G01 X40.5037 Y28.5289
G01 X40.5312 Y28.5218
G01 X40.5489 Y28.5166
G01 X40.5838 Y28.5051
G01 X40.6105 Y28.4953
G01 X40.6445 Y28.4812
G01 X40.6612 Y28.4736
G01 X40.6868 Y28.4612
G01 X40.7031 Y28.4527
G01 X40.7192 Y28.4439
G01 X40.7437 Y28.4295
G01 X40.7594 Y28.4198
G01 X40.7900 Y28.3994
G01 X40.8276 Y28.3715
G01 X40.8560 Y28.3481
G01 X40.8698 Y28.3359
G01 X40.8907 Y28.3167
G01 X40.9039 Y28.3039
G01 X40.9292 Y28.2772
G01 X40.9481 Y28.2560
G01 X40.9715 Y28.2276
G01 X40.9826 Y28.2129
G01 X40.9994 Y28.1900
G01 X41.0098 Y28.1748
G01 X41.0295 Y28.1437
G01 X41.0439 Y28.1192
G01 X41.0527 Y28.1031
G01 X41.0693 Y28.0702
G01 X41.0812 Y28.0445
G01 X41.0953 Y28.0105
G01 X41.1051 Y27.9838
G01 X41.1166 Y27.9489
G01 X41.1264 Y27.9134
G01 X41.1331 Y27.8858
G01 X41.1403 Y27.8497
G01 X41.1432 Y27.8315
G01 X41.1472 Y27.8034
G01 X41.1508 Y27.7668
G01 X41.1528 Y27.7293
G01 X41.1533 Y27.7017
G01 X41.1532 Y2.0925
G01 X41.1524 Y2.0649
G01 X41.1508 Y2.0365
G01 X41.1472 Y1.9999
G01 X41.1432 Y1.9718
G01 X41.1369 Y1.9355
G01 X41.1331 Y1.9175
G01 X41.1264 Y1.8899
G01 X41.1218 Y1.8721
G01 X41.1111 Y1.8369
G01 X41.0953 Y1.7928
G01 X41.0812 Y1.7588
G01 X41.0736 Y1.7421
G01 X41.0612 Y1.7165
G01 X41.0527 Y1.7002
G01 X41.0439 Y1.6841
G01 X41.0295 Y1.6596
G01 X41.0198 Y1.6439
G01 X40.9994 Y1.6133
G01 X40.9715 Y1.5757
G01 X40.9600 Y1.5614
G01 X40.9359 Y1.5335
G01 X40.9167 Y1.5126
G01 X40.9039 Y1.4994
G01 X40.8772 Y1.4741
G01 X40.8560 Y1.4552
G01 X40.8419 Y1.4433
G01 X40.8129 Y1.4207
G01 X40.7900 Y1.4039
G01 X40.7748 Y1.3935
G01 X40.7437 Y1.3738
G01 X40.7192 Y1.3594
G01 X40.7031 Y1.3506
G01 X40.6702 Y1.3340
G01 X40.6445 Y1.3221
G01 X40.6105 Y1.3080
G01 X40.5838 Y1.2982
G01 X40.5489 Y1.2867
G01 X40.5134 Y1.2769
G01 X40.4858 Y1.2702
G01 X40.4497 Y1.2630
G01 X40.4217 Y1.2586
G01 X40.4034 Y1.2561
G01 X40.3668 Y1.2525
G01 X40.3293 Y1.2505
G01 X40.3017 Y1.2500
G01 X2.1924 Y1.2501
G01 X2.1549 Y1.2514
G01 X2.1182 Y1.2541
G01 X2.0999 Y1.2561
G01 X2.0718 Y1.2601
G01 X2.0355 Y1.2664
G01 X2.0175 Y1.2702
G01 X1.9899 Y1.2769
G01 X1.9544 Y1.2867
G01 X1.9369 Y1.2922
G01 X1.9101 Y1.3016
G01 X1.8757 Y1.3148
G01 X1.8588 Y1.3221
G01 X1.8331 Y1.3340
G01 X1.8002 Y1.3506
G01 X1.7841 Y1.3594
G01 X1.7596 Y1.3738
G01 X1.7285 Y1.3935
G01 X1.6984 Y1.4147
G01 X1.6757 Y1.4318
G01 X1.6614 Y1.4433
G01 X1.6335 Y1.4674
G01 X1.6126 Y1.4866
G01 X1.5866 Y1.5126
G01 X1.5552 Y1.5473
G01 X1.5318 Y1.5757
G01 X1.5039 Y1.6133
G01 X1.4835 Y1.6439
G01 X1.4594 Y1.6841
G01 X1.4421 Y1.7165
G01 X1.4221 Y1.7588
G01 X1.4080 Y1.7928
G01 X1.3922 Y1.8369
G01 X1.3815 Y1.8721
G01 X1.3702 Y1.9175
G01 X1.3630 Y1.9536
G01 X1.3561 Y1.9999
G01 X1.3525 Y2.0365
G01 X1.3509 Y2.0649
G00 X1.3509 Y2.0649
G01 F250.00
G01 Z-1.8000
G01 F2500.00
G01 X1.3500 Y2.1017
G01 X1.3501 Y27.7109
G01 X1.3509 Y27.7385
G01 X1.3525 Y27.7668
G01 X1.3561 Y27.8034
G01 X1.3601 Y27.8315
G01 X1.3664 Y27.8678
G01 X1.3702 Y27.8858
G01 X1.3769 Y27.9134
G01 X1.3867 Y27.9489
G01 X1.3922 Y27.9664
G01 X1.4080 Y28.0105
G01 X1.4148 Y28.0276
G01 X1.4297 Y28.0612
G01 X1.4421 Y28.0868
G01 X1.4506 Y28.1031
G01 X1.4594 Y28.1192
G01 X1.4738 Y28.1437
G01 X1.4935 Y28.1748
G01 X1.5039 Y28.1900
G01 X1.5207 Y28.2129
G01 X1.5433 Y28.2419
G01 X1.5552 Y28.2560
G01 X1.5741 Y28.2772
G01 X1.5866 Y28.2907
G01 X1.6126 Y28.3167
G01 X1.6473 Y28.3481
G01 X1.6614 Y28.3600
G01 X1.6904 Y28.3826
G01 X1.7133 Y28.3994
G01 X1.7285 Y28.4098
G01 X1.7596 Y28.4295
G01 X1.7841 Y28.4439
G01 X1.8165 Y28.4612
G01 X1.8421 Y28.4736
G01 X1.8757 Y28.4885
G01 X1.8928 Y28.4953
G01 X1.9195 Y28.5051
G01 X1.9544 Y28.5166
G01 X1.9899 Y28.5264
G01 X2.0175 Y28.5331
G01 X2.0536 Y28.5403
G01 X2.0816 Y28.5447
G01 X2.1182 Y28.5492
G01 X2.1365 Y28.5508
G01 X2.1740 Y28.5528
G01 X2.2017 Y28.5533
G01 X40.3017 Y28.5533
G01 X40.3201 Y28.5531
G01 X40.3484 Y28.5519
G01 X40.3668 Y28.5508
G01 X40.4034 Y28.5472
G01 X40.4497 Y28.5403
G01 X40.4678 Y28.5369
G01 X40.5037 Y28.5289
G01 X40.5312 Y28.5218
G01 X40.5489 Y28.5166
G01 X40.5838 Y28.5051
G01 X40.6105 Y28.4953
G01 X40.6445 Y28.4812
G01 X40.6612 Y28.4736
G01 X40.6868 Y28.4612
G01 X40.7031 Y28.4527
G01 X40.7192 Y28.4439
G01 X40.7437 Y28.4295
G01 X40.7594 Y28.4198
G01 X40.7900 Y28.3994
G01 X40.8276 Y28.3715
G01 X40.8560 Y28.3481
G01 X40.8698 Y28.3359
G01 X40.8907 Y28.3167
G01 X40.9039 Y28.3039
G01 X40.9292 Y28.2772
G01 X40.9481 Y28.2560
G01 X40.9715 Y28.2276
G01 X40.9826 Y28.2129
G01 X40.9994 Y28.1900
G01 X41.0098 Y28.1748
G01 X41.0295 Y28.1437
G01 X41.0439 Y28.1192
G01 X41.0527 Y28.1031
G01 X41.0693 Y28.0702
G01 X41.0812 Y28.0445
G01 X41.0953 Y28.0105
G01 X41.1051 Y27.9838
G01 X41.1166 Y27.9489
G01 X41.1264 Y27.9134
G01 X41.1331 Y27.8858
G01 X41.1403 Y27.8497
G01 X41.1432 Y27.8315
G01 X41.1472 Y27.8034
G01 X41.1508 Y27.7668
G01 X41.1528 Y27.7293
G01 X41.1533 Y27.7017
G01 X41.1532 Y2.0925
G01 X41.1524 Y2.0649
G01 X41.1508 Y2.0365
G01 X41.1472 Y1.9999
G01 X41.1432 Y1.9718
G01 X41.1369 Y1.9355
G01 X41.1331 Y1.9175
G01 X41.1264 Y1.8899
G01 X41.1218 Y1.8721
G01 X41.1111 Y1.8369
G01 X41.0953 Y1.7928
G01 X41.0812 Y1.7588
G01 X41.0736 Y1.7421
G01 X41.0612 Y1.7165
G01 X41.0527 Y1.7002
G01 X41.0439 Y1.6841
G01 X41.0295 Y1.6596
G01 X41.0198 Y1.6439
G01 X40.9994 Y1.6133
G01 X40.9715 Y1.5757
G01 X40.9600 Y1.5614
G01 X40.9359 Y1.5335
G01 X40.9167 Y1.5126
G01 X40.9039 Y1.4994
G01 X40.8772 Y1.4741
G01 X40.8560 Y1.4552
G01 X40.8419 Y1.4433
G01 X40.8129 Y1.4207
G01 X40.7900 Y1.4039
G01 X40.7748 Y1.3935
G01 X40.7437 Y1.3738
G01 X40.7192 Y1.3594
G01 X40.7031 Y1.3506
G01 X40.6702 Y1.3340
G01 X40.6445 Y1.3221
G01 X40.6105 Y1.3080
G01 X40.5838 Y1.2982
G01 X40.5489 Y1.2867
G01 X40.5134 Y1.2769
G01 X40.4858 Y1.2702
G01 X40.4497 Y1.2630
G01 X40.4217 Y1.2586
G01 X40.4034 Y1.2561
G01 X40.3668 Y1.2525
G01 X40.3293 Y1.2505
G01 X40.3017 Y1.2500
G01 X2.1924 Y1.2501
G01 X2.1549 Y1.2514
G01 X2.1182 Y1.2541
G01 X2.0999 Y1.2561
G01 X2.0718 Y1.2601
G01 X2.0355 Y1.2664
G01 X2.0175 Y1.2702
G01 X1.9899 Y1.2769
G01 X1.9544 Y1.2867
G01 X1.9369 Y1.2922
G01 X1.9101 Y1.3016
G01 X1.8757 Y1.3148
G01 X1.8588 Y1.3221
G01 X1.8331 Y1.3340
G01 X1.8002 Y1.3506
G01 X1.7841 Y1.3594
G01 X1.7596 Y1.3738
G01 X1.7285 Y1.3935
G01 X1.6984 Y1.4147
G01 X1.6757 Y1.4318
G01 X1.6614 Y1.4433
G01 X1.6335 Y1.4674
G01 X1.6126 Y1.4866
G01 X1.5866 Y1.5126
G01 X1.5552 Y1.5473
G01 X1.5318 Y1.5757
G01 X1.5039 Y1.6133
G01 X1.4835 Y1.6439
G01 X1.4594 Y1.6841
G01 X1.4421 Y1.7165
G01 X1.4221 Y1.7588
G01 X1.4080 Y1.7928
G01 X1.3922 Y1.8369
G01 X1.3815 Y1.8721
G01 X1.3702 Y1.9175
G01 X1.3630 Y1.9536
G01 X1.3561 Y1.9999
G01 X1.3525 Y2.0365
G01 X1.3509 Y2.0649
G00 Z0.5000
G00 X1.4509 Y29.8649
G01 F250.00
G01 Z-0.1000
G01 F2500.00
G01 X1.4500 Y29.9017
G01 X1.4501 Y55.5109
G01 X1.4509 Y55.5385
G01 X1.4525 Y55.5668
G01 X1.4561 Y55.6034
G01 X1.4601 Y55.6315
G01 X1.4664 Y55.6678
G01 X1.4702 Y55.6858
G01 X1.4769 Y55.7134
G01 X1.4867 Y55.7489
G01 X1.4922 Y55.7664
G01 X1.5080 Y55.8105
G01 X1.5148 Y55.8276
G01 X1.5297 Y55.8612
G01 X1.5421 Y55.8868
G01 X1.5506 Y55.9031
G01 X1.5594 Y55.9192
G01 X1.5738 Y55.9437
G01 X1.5935 Y55.9748
G01 X1.6039 Y55.9900
G01 X1.6207 Y56.0129
G01 X1.6433 Y56.0419
G01 X1.6552 Y56.0560
G01 X1.6741 Y56.0772
G01 X1.6866 Y56.0907
G01 X1.7126 Y56.1167
G01 X1.7473 Y56.1481
G01 X1.7614 Y56.1600
G01 X1.7904 Y56.1826
G01 X1.8133 Y56.1994
G01 X1.8285 Y56.2098
G01 X1.8596 Y56.2295
G01 X1.8841 Y56.2439
G01 X1.9165 Y56.2612
G01 X1.9421 Y56.2736
G01 X1.9757 Y56.2885
G01 X1.9928 Y56.2953
G01 X2.0195 Y56.3051
G01 X2.0544 Y56.3166
G01 X2.0899 Y56.3264
G01 X2.1175 Y56.3331
G01 X2.1536 Y56.3403
G01 X2.1816 Y56.3447
G01 X2.2182 Y56.3492
G01 X2.2365 Y56.3508
G01 X2.2740 Y56.3528
G01 X2.3017 Y56.3533
G01 X40.4017 Y56.3533
G01 X40.4201 Y56.3531
G01 X40.4484 Y56.3519
G01 X40.4668 Y56.3508
G01 X40.5034 Y56.3472
G01 X40.5497 Y56.3403
G01 X40.5678 Y56.3369
G01 X40.6037 Y56.3289
G01 X40.6312 Y56.3218
G01 X40.6489 Y56.3166
G01 X40.6838 Y56.3051
G01 X40.7105 Y56.2953
G01 X40.7445 Y56.2812
G01 X40.7612 Y56.2736
G01 X40.7868 Y56.2612
G01 X40.8031 Y56.2527
G01 X40.8192 Y56.2439
G01 X40.8437 Y56.2295
G01 X40.8594 Y56.2198
G01 X40.8900 Y56.1994
G01 X40.9276 Y56.1715
G01 X40.9560 Y56.1481
G01 X40.9698 Y56.1359
G01 X40.9907 Y56.1167
G01 X41.0039 Y56.1039
G01 X41.0292 Y56.0772
G01 X41.0481 Y56.0560
G01 X41.0715 Y56.0276
G01 X41.0826 Y56.0129
G01 X41.0994 Y55.9900
G01 X41.1098 Y55.9748
G01 X41.1295 Y55.9437
G01 X41.1439 Y55.9192
G01 X41.1527 Y55.9031
G01 X41.1693 Y55.8702
G01 X41.1812 Y55.8445
G01 X41.1953 Y55.8105
G01 X41.2051 Y55.7838
G01 X41.2166 Y55.7489
G01 X41.2264 Y55.7134
G01 X41.2331 Y55.6858
G01 X41.2403 Y55.6497
G01 X41.2432 Y55.6315
G01 X41.2472 Y55.6034
G01 X41.2508 Y55.5668
G01 X41.2528 Y55.5293
G01 X41.2533 Y55.5017
G01 X41.2532 Y29.8925
G01 X41.2524 Y29.8649
G01 X41.2508 Y29.8365
G01 X41.2472 Y29.7999
G01 X41.2432 Y29.7718
G01 X41.2369 Y29.7355
G01 X41.2331 Y29.7175
G01 X41.2264 Y29.6899
G01 X41.2218 Y29.6721
G01 X41.2111 Y29.6369
G01 X41.1953 Y29.5928
G01 X41.1885 Y29.5757
G01 X41.1736 Y29.5421
G01 X41.1612 Y29.5165
G01 X41.1527 Y29.5002
G01 X41.1439 Y29.4841
G01 X41.1295 Y29.4596
G01 X41.1198 Y29.4439
G01 X41.0994 Y29.4133
G01 X41.0715 Y29.3757
G01 X41.0600 Y29.3614
G01 X41.0359 Y29.3335
G01 X41.0167 Y29.3126
G01 X41.0039 Y29.2994
G01 X40.9772 Y29.2741
G01 X40.9560 Y29.2552
G01 X40.9419 Y29.2433
G01 X40.9129 Y29.2207
G01 X40.8900 Y29.2039
G01 X40.8748 Y29.1935
G01 X40.8437 Y29.1738
G01 X40.8192 Y29.1594
G01 X40.8031 Y29.1506
G01 X40.7702 Y29.1340
G01 X40.7445 Y29.1221
G01 X40.7105 Y29.1080
G01 X40.6838 Y29.0982
G01 X40.6489 Y29.0867
G01 X40.6134 Y29.0769
G01 X40.5858 Y29.0702
G01 X40.5497 Y29.0630
G01 X40.5217 Y29.0586
G01 X40.4851 Y29.0541
G01 X40.4668 Y29.0525
G01 X40.4293 Y29.0505
G01 X40.4017 Y29.0500
G01 X2.2924 Y29.0501
G01 X2.2549 Y29.0514
G01 X2.2182 Y29.0541
G01 X2.1999 Y29.0561
G01 X2.1718 Y29.0601
G01 X2.1355 Y29.0664
G01 X2.0996 Y29.0744
G01 X2.0721 Y29.0815
G01 X2.0544 Y29.0867
G01 X2.0195 Y29.0982
G01 X1.9928 Y29.1080
G01 X1.9757 Y29.1148
G01 X1.9588 Y29.1221
G01 X1.9331 Y29.1340
G01 X1.9002 Y29.1506
G01 X1.8682 Y29.1687
G01 X1.8439 Y29.1835
G01 X1.8285 Y29.1935
G01 X1.7984 Y29.2147
G01 X1.7757 Y29.2318
G01 X1.7614 Y29.2433
G01 X1.7335 Y29.2674
G01 X1.7126 Y29.2866
G01 X1.6866 Y29.3126
G01 X1.6552 Y29.3473
G01 X1.6318 Y29.3757
G01 X1.6039 Y29.4133
G01 X1.5835 Y29.4439
G01 X1.5594 Y29.4841
G01 X1.5421 Y29.5165
G01 X1.5221 Y29.5588
G01 X1.5080 Y29.5928
G01 X1.4922 Y29.6369
G01 X1.4815 Y29.6721
G01 X1.4702 Y29.7175
G01 X1.4630 Y29.7536
G01 X1.4561 Y29.7999
G01 X1.4525 Y29.8365
G01 X1.4509 Y29.8649
G00 X1.4509 Y29.8649
G01 F250.00
G01 Z-0.2000
G01 F2500.00
G01 X1.4500 Y29.9017
G01 X1.4501 Y55.5109
G01 X1.4509 Y55.5385
G01 X1.4525 Y55.5668
G01 X1.4561 Y55.6034
G01 X1.4601 Y55.6315
G01 X1.4664 Y55.6678
G01 X1.4702 Y55.6858
G01 X1.4769 Y55.7134
G01 X1.4867 Y55.7489
G01 X1.4922 Y55.7664
G01 X1.5080 Y55.8105
G01 X1.5148 Y55.8276
G01 X1.5297 Y55.8612
G01 X1.5421 Y55.8868
G01 X1.5506 Y55.9031
G01 X1.5594 Y55.9192
G01 X1.5738 Y55.9437
G01 X1.5935 Y55.9748
G01 X1.6039 Y55.9900
G01 X1.6207 Y56.0129
G01 X1.6433 Y56.0419
G01 X1.6552 Y56.0560
G01 X1.6741 Y56.0772
G01 X1.6866 Y56.0907
G01 X1.7126 Y56.1167
G01 X1.7473 Y56.1481
G01 X1.7614 Y56.1600
G01 X1.7904 Y56.1826
G01 X1.8133 Y56.1994
G01 X1.8285 Y56.2098
G01 X1.8596 Y56.2295
G01 X1.8841 Y56.2439
G01 X1.9165 Y56.2612
G01 X1.9421 Y56.2736
G01 X1.9757 Y56.2885
G01 X1.9928 Y56.2953
G01 X2.0195 Y56.3051
G01 X2.0544 Y56.3166
G01 X2.0899 Y56.3264
G01 X2.1175 Y56.3331
G01 X2.1536 Y56.3403
G01 X2.1816 Y56.3447
G01 X2.2182 Y56.3492
G01 X2.2365 Y56.3508
G01 X2.2740 Y56.3528
G01 X2.3017 Y56.3533
G01 X40.4017 Y56.3533
G01 X40.4201 Y56.3531
G01 X40.4484 Y56.3519
G01 X40.4668 Y56.3508
G01 X40.5034 Y56.3472
G01 X40.5497 Y56.3403
G01 X40.5678 Y56.3369
G01 X40.6037 Y56.3289
G01 X40.6312 Y56.3218
G01 X40.6489 Y56.3166
G01 X40.6838 Y56.3051
G01 X40.7105 Y56.2953
G01 X40.7445 Y56.2812
G01 X40.7612 Y56.2736
G01 X40.7868 Y56.2612
G01 X40.8031 Y56.2527
G01 X40.8192 Y56.2439
G01 X40.8437 Y56.2295
G01 X40.8594 Y56.2198
G01 X40.8900 Y56.1994
G01 X40.9276 Y56.1715
G01 X40.9560 Y56.1481
G01 X40.9698 Y56.1359
G01 X40.9907 Y56.1167
G01 X41.0039 Y56.1039
G01 X41.0292 Y56.0772
G01 X41.0481 Y56.0560
G01 X41.0715 Y56.0276
G01 X41.0826 Y56.0129
G01 X41.0994 Y55.9900
G01 X41.1098 Y55.9748
G01 X41.1295 Y55.9437
G01 X41.1439 Y55.9192
G01 X41.1527 Y55.9031
G01 X41.1693 Y55.8702
G01 X41.1812 Y55.8445
G01 X41.1953 Y55.8105
G01 X41.2051 Y55.7838
G01 X41.2166 Y55.7489
G01 X41.2264 Y55.7134
G01 X41.2331 Y55.6858
G01 X41.2403 Y55.6497
G01 X41.2432 Y55.6315
G01 X41.2472 Y55.6034
G01 X41.2508 Y55.5668
G01 X41.2528 Y55.5293
G01 X41.2533 Y55.5017
G01 X41.2532 Y29.8925
G01 X41.2524 Y29.8649
G01 X41.2508 Y29.8365
G01 X41.2472 Y29.7999
G01 X41.2432 Y29.7718
G01 X41.2369 Y29.7355
G01 X41.2331 Y29.7175
G01 X41.2264 Y29.6899
G01 X41.2218 Y29.6721
G01 X41.2111 Y29.6369
G01 X41.1953 Y29.5928
G01 X41.1885 Y29.5757
G01 X41.1736 Y29.5421
G01 X41.1612 Y29.5165
G01 X41.1527 Y29.5002
G01 X41.1439 Y29.4841
G01 X41.1295 Y29.4596
G01 X41.1198 Y29.4439
G01 X41.0994 Y29.4133
G01 X41.0715 Y29.3757
G01 X41.0600 Y29.3614
G01 X41.0359 Y29.3335
G01 X41.0167 Y29.3126
G01 X41.0039 Y29.2994
G01 X40.9772 Y29.2741
G01 X40.9560 Y29.2552
G01 X40.9419 Y29.2433
G01 X40.9129 Y29.2207
G01 X40.8900 Y29.2039
G01 X40.8748 Y29.1935
G01 X40.8437 Y29.1738
G01 X40.8192 Y29.1594
G01 X40.8031 Y29.1506
G01 X40.7702 Y29.1340
G01 X40.7445 Y29.1221
G01 X40.7105 Y29.1080
G01 X40.6838 Y29.0982
G01 X40.6489 Y29.0867
G01 X40.6134 Y29.0769
G01 X40.5858 Y29.0702
G01 X40.5497 Y29.0630
G01 X40.5217 Y29.0586
G01 X40.4851 Y29.0541
G01 X40.4668 Y29.0525
G01 X40.4293 Y29.0505
G01 X40.4017 Y29.0500
G01 X2.2924 Y29.0501
G01 X2.2549 Y29.0514
G01 X2.2182 Y29.0541
G01 X2.1999 Y29.0561
G01 X2.1718 Y29.0601
G01 X2.1355 Y29.0664
G01 X2.0996 Y29.0744
G01 X2.0721 Y29.0815
G01 X2.0544 Y29.0867
G01 X2.0195 Y29.0982
G01 X1.9928 Y29.1080
G01 X1.9757 Y29.1148
G01 X1.9588 Y29.1221
G01 X1.9331 Y29.1340
G01 X1.9002 Y29.1506
G01 X1.8682 Y29.1687
G01 X1.8439 Y29.1835
G01 X1.8285 Y29.1935
G01 X1.7984 Y29.2147
G01 X1.7757 Y29.2318
G01 X1.7614 Y29.2433
G01 X1.7335 Y29.2674
G01 X1.7126 Y29.2866
G01 X1.6866 Y29.3126
G01 X1.6552 Y29.3473
G01 X1.6318 Y29.3757
G01 X1.6039 Y29.4133
G01 X1.5835 Y29.4439
G01 X1.5594 Y29.4841
G01 X1.5421 Y29.5165
G01 X1.5221 Y29.5588
G01 X1.5080 Y29.5928
G01 X1.4922 Y29.6369
G01 X1.4815 Y29.6721
G01 X1.4702 Y29.7175
G01 X1.4630 Y29.7536
G01 X1.4561 Y29.7999
G01 X1.4525 Y29.8365
G01 X1.4509 Y29.8649
G00 X1.4509 Y29.8649
G01 F250.00
G01 Z-0.3000
G01 F2500.00
G01 X1.4500 Y29.9017
G01 X1.4501 Y55.5109
G01 X1.4509 Y55.5385
G01 X1.4525 Y55.5668
G01 X1.4561 Y55.6034
G01 X1.4601 Y55.6315
G01 X1.4664 Y55.6678
G01 X1.4702 Y55.6858
G01 X1.4769 Y55.7134
G01 X1.4867 Y55.7489
G01 X1.4922 Y55.7664
G01 X1.5080 Y55.8105
G01 X1.5148 Y55.8276
G01 X1.5297 Y55.8612
G01 X1.5421 Y55.8868
G01 X1.5506 Y55.9031
G01 X1.5594 Y55.9192
G01 X1.5738 Y55.9437
G01 X1.5935 Y55.9748
G01 X1.6039 Y55.9900
G01 X1.6207 Y56.0129
G01 X1.6433 Y56.0419
G01 X1.6552 Y56.0560
G01 X1.6741 Y56.0772
G01 X1.6866 Y56.0907
G01 X1.7126 Y56.1167
G01 X1.7473 Y56.1481
G01 X1.7614 Y56.1600
G01 X1.7904 Y56.1826
G01 X1.8133 Y56.1994
G01 X1.8285 Y56.2098
G01 X1.8596 Y56.2295
G01 X1.8841 Y56.2439
G01 X1.9165 Y56.2612
G01 X1.9421 Y56.2736
G01 X1.9757 Y56.2885
G01 X1.9928 Y56.2953
G01 X2.0195 Y56.3051
G01 X2.0544 Y56.3166
G01 X2.0899 Y56.3264
G01 X2.1175 Y56.3331
G01 X2.1536 Y56.3403
G01 X2.1816 Y56.3447
G01 X2.2182 Y56.3492
G01 X2.2365 Y56.3508
G01 X2.2740 Y56.3528
G01 X2.3017 Y56.3533
G01 X40.4017 Y56.3533
G01 X40.4201 Y56.3531
G01 X40.4484 Y56.3519
G01 X40.4668 Y56.3508
G01 X40.5034 Y56.3472
G01 X40.5497 Y56.3403
G01 X40.5678 Y56.3369
G01 X40.6037 Y56.3289
G01 X40.6312 Y56.3218
G01 X40.6489 Y56.3166
G01 X40.6838 Y56.3051
G01 X40.7105 Y56.2953
G01 X40.7445 Y56.2812
G01 X40.7612 Y56.2736
G01 X40.7868 Y56.2612
G01 X40.8031 Y56.2527
G01 X40.8192 Y56.2439
G01 X40.8437 Y56.2295
G01 X40.8594 Y56.2198
G01 X40.8900 Y56.1994
G01 X40.9276 Y56.1715
G01 X40.9560 Y56.1481
G01 X40.9698 Y56.1359
G01 X40.9907 Y56.1167
G01 X41.0039 Y56.1039
G01 X41.0292 Y56.0772
G01 X41.0481 Y56.0560
G01 X41.0715 Y56.0276
G01 X41.0826 Y56.0129
G01 X41.0994 Y55.9900
G01 X41.1098 Y55.9748
G01 X41.1295 Y55.9437
G01 X41.1439 Y55.9192
G01 X41.1527 Y55.9031
G01 X41.1693 Y55.8702
G01 X41.1812 Y55.8445
G01 X41.1953 Y55.8105
G01 X41.2051 Y55.7838
G01 X41.2166 Y55.7489
G01 X41.2264 Y55.7134
G01 X41.2331 Y55.6858
G01 X41.2403 Y55.6497
G01 X41.2432 Y55.6315
G01 X41.2472 Y55.6034
G01 X41.2508 Y55.5668
G01 X41.2528 Y55.5293
G01 X41.2533 Y55.5017
G01 X41.2532 Y29.8925
G01 X41.2524 Y29.8649
G01 X41.2508 Y29.8365
G01 X41.2472 Y29.7999
G01 X41.2432 Y29.7718
G01 X41.2369 Y29.7355
G01 X41.2331 Y29.7175
G01 X41.2264 Y29.6899
G01 X41.2218 Y29.6721
G01 X41.2111 Y29.6369
G01 X41.1953 Y29.5928
G01 X41.1885 Y29.5757
G01 X41.1736 Y29.5421
G01 X41.1612 Y29.5165
G01 X41.1527 Y29.5002
G01 X41.1439 Y29.4841
G01 X41.1295 Y29.4596
G01 X41.1198 Y29.4439
G01 X41.0994 Y29.4133
G01 X41.0715 Y29.3757
G01 X41.0600 Y29.3614
G01 X41.0359 Y29.3335
G01 X41.0167 Y29.3126
G01 X41.0039 Y29.2994
G01 X40.9772 Y29.2741
G01 X40.9560 Y29.2552
G01 X40.9419 Y29.2433
G01 X40.9129 Y29.2207
G01 X40.8900 Y29.2039
G01 X40.8748 Y29.1935
G01 X40.8437 Y29.1738
G01 X40.8192 Y29.1594
G01 X40.8031 Y29.1506
G01 X40.7702 Y29.1340
G01 X40.7445 Y29.1221
G01 X40.7105 Y29.1080
G01 X40.6838 Y29.0982
G01 X40.6489 Y29.0867
G01 X40.6134 Y29.0769
G01 X40.5858 Y29.0702
G01 X40.5497 Y29.0630
G01 X40.5217 Y29.0586
G01 X40.4851 Y29.0541
G01 X40.4668 Y29.0525
G01 X40.4293 Y29.0505
G01 X40.4017 Y29.0500
G01 X2.2924 Y29.0501
G01 X2.2549 Y29.0514
G01 X2.2182 Y29.0541
G01 X2.1999 Y29.0561
G01 X2.1718 Y29.0601
G01 X2.1355 Y29.0664
G01 X2.0996 Y29.0744
G01 X2.0721 Y29.0815
G01 X2.0544 Y29.0867
G01 X2.0195 Y29.0982
G01 X1.9928 Y29.1080
G01 X1.9757 Y29.1148
G01 X1.9588 Y29.1221
G01 X1.9331 Y29.1340
G01 X1.9002 Y29.1506
G01 X1.8682 Y29.1687
G01 X1.8439 Y29.1835
G01 X1.8285 Y29.1935
G01 X1.7984 Y29.2147
G01 X1.7757 Y29.2318
G01 X1.7614 Y29.2433
G01 X1.7335 Y29.2674
G01 X1.7126 Y29.2866
G01 X1.6866 Y29.3126
G01 X1.6552 Y29.3473
G01 X1.6318 Y29.3757
G01 X1.6039 Y29.4133
G01 X1.5835 Y29.4439
G01 X1.5594 Y29.4841
G01 X1.5421 Y29.5165
G01 X1.5221 Y29.5588
G01 X1.5080 Y29.5928
G01 X1.4922 Y29.6369
G01 X1.4815 Y29.6721
G01 X1.4702 Y29.7175
G01 X1.4630 Y29.7536
G01 X1.4561 Y29.7999
G01 X1.4525 Y29.8365
G01 X1.4509 Y29.8649
G00 X1.4509 Y29.8649
G01 F250.00
G01 Z-0.4000
G01 F2500.00
G01 X1.4500 Y29.9017
G01 X1.4501 Y55.5109
G01 X1.4509 Y55.5385
G01 X1.4525 Y55.5668
G01 X1.4561 Y55.6034
G01 X1.4601 Y55.6315
G01 X1.4664 Y55.6678
G01 X1.4702 Y55.6858
G01 X1.4769 Y55.7134
G01 X1.4867 Y55.7489
G01 X1.4922 Y55.7664
G01 X1.5080 Y55.8105
G01 X1.5148 Y55.8276
G01 X1.5297 Y55.8612
G01 X1.5421 Y55.8868
G01 X1.5506 Y55.9031
G01 X1.5594 Y55.9192
G01 X1.5738 Y55.9437
G01 X1.5935 Y55.9748
G01 X1.6039 Y55.9900
G01 X1.6207 Y56.0129
G01 X1.6433 Y56.0419
G01 X1.6552 Y56.0560
G01 X1.6741 Y56.0772
G01 X1.6866 Y56.0907
G01 X1.7126 Y56.1167
G01 X1.7473 Y56.1481
G01 X1.7614 Y56.1600
G01 X1.7904 Y56.1826
G01 X1.8133 Y56.1994
G01 X1.8285 Y56.2098
G01 X1.8596 Y56.2295
G01 X1.8841 Y56.2439
G01 X1.9165 Y56.2612
G01 X1.9421 Y56.2736
G01 X1.9757 Y56.2885
G01 X1.9928 Y56.2953
G01 X2.0195 Y56.3051
G01 X2.0544 Y56.3166
G01 X2.0899 Y56.3264
G01 X2.1175 Y56.3331
G01 X2.1536 Y56.3403
G01 X2.1816 Y56.3447
G01 X2.2182 Y56.3492
G01 X2.2365 Y56.3508
G01 X2.2740 Y56.3528
G01 X2.3017 Y56.3533
G01 X40.4017 Y56.3533
G01 X40.4201 Y56.3531
G01 X40.4484 Y56.3519
G01 X40.4668 Y56.3508
G01 X40.5034 Y56.3472
G01 X40.5497 Y56.3403
G01 X40.5678 Y56.3369
G01 X40.6037 Y56.3289
G01 X40.6312 Y56.3218
G01 X40.6489 Y56.3166
G01 X40.6838 Y56.3051
G01 X40.7105 Y56.2953
G01 X40.7445 Y56.2812
G01 X40.7612 Y56.2736
G01 X40.7868 Y56.2612
G01 X40.8031 Y56.2527
G01 X40.8192 Y56.2439
G01 X40.8437 Y56.2295
G01 X40.8594 Y56.2198
G01 X40.8900 Y56.1994
G01 X40.9276 Y56.1715
G01 X40.9560 Y56.1481
G01 X40.9698 Y56.1359
G01 X40.9907 Y56.1167
G01 X41.0039 Y56.1039
G01 X41.0292 Y56.0772
G01 X41.0481 Y56.0560
G01 X41.0715 Y56.0276
G01 X41.0826 Y56.0129
G01 X41.0994 Y55.9900
G01 X41.1098 Y55.9748
G01 X41.1295 Y55.9437
G01 X41.1439 Y55.9192
G01 X41.1527 Y55.9031
G01 X41.1693 Y55.8702
G01 X41.1812 Y55.8445
G01 X41.1953 Y55.8105
G01 X41.2051 Y55.7838
G01 X41.2166 Y55.7489
G01 X41.2264 Y55.7134
G01 X41.2331 Y55.6858
G01 X41.2403 Y55.6497
G01 X41.2432 Y55.6315
G01 X41.2472 Y55.6034
G01 X41.2508 Y55.5668
G01 X41.2528 Y55.5293
G01 X41.2533 Y55.5017
G01 X41.2532 Y29.8925
G01 X41.2524 Y29.8649
G01 X41.2508 Y29.8365
G01 X41.2472 Y29.7999
G01 X41.2432 Y29.7718
G01 X41.2369 Y29.7355
G01 X41.2331 Y29.7175
G01 X41.2264 Y29.6899
G01 X41.2218 Y29.6721
G01 X41.2111 Y29.6369
G01 X41.1953 Y29.5928
G01 X41.1885 Y29.5757
G01 X41.1736 Y29.5421
G01 X41.1612 Y29.5165
G01 X41.1527 Y29.5002
G01 X41.1439 Y29.4841
G01 X41.1295 Y29.4596
G01 X41.1198 Y29.4439
G01 X41.0994 Y29.4133
G01 X41.0715 Y29.3757
G01 X41.0600 Y29.3614
G01 X41.0359 Y29.3335
G01 X41.0167 Y29.3126
G01 X41.0039 Y29.2994
G01 X40.9772 Y29.2741
G01 X40.9560 Y29.2552
G01 X40.9419 Y29.2433
G01 X40.9129 Y29.2207
G01 X40.8900 Y29.2039
G01 X40.8748 Y29.1935
G01 X40.8437 Y29.1738
G01 X40.8192 Y29.1594
G01 X40.8031 Y29.1506
G01 X40.7702 Y29.1340
G01 X40.7445 Y29.1221
G01 X40.7105 Y29.1080
G01 X40.6838 Y29.0982
G01 X40.6489 Y29.0867
G01 X40.6134 Y29.0769
G01 X40.5858 Y29.0702
G01 X40.5497 Y29.0630
G01 X40.5217 Y29.0586
G01 X40.4851 Y29.0541
G01 X40.4668 Y29.0525
G01 X40.4293 Y29.0505
G01 X40.4017 Y29.0500
G01 X2.2924 Y29.0501
G01 X2.2549 Y29.0514
G01 X2.2182 Y29.0541
G01 X2.1999 Y29.0561
G01 X2.1718 Y29.0601
G01 X2.1355 Y29.0664
G01 X2.0996 Y29.0744
G01 X2.0721 Y29.0815
G01 X2.0544 Y29.0867
G01 X2.0195 Y29.0982
G01 X1.9928 Y29.1080
G01 X1.9757 Y29.1148
G01 X1.9588 Y29.1221
G01 X1.9331 Y29.1340
G01 X1.9002 Y29.1506
G01 X1.8682 Y29.1687
G01 X1.8439 Y29.1835
G01 X1.8285 Y29.1935
G01 X1.7984 Y29.2147
G01 X1.7757 Y29.2318
G01 X1.7614 Y29.2433
G01 X1.7335 Y29.2674
G01 X1.7126 Y29.2866
G01 X1.6866 Y29.3126
G01 X1.6552 Y29.3473
G01 X1.6318 Y29.3757
G01 X1.6039 Y29.4133
G01 X1.5835 Y29.4439
G01 X1.5594 Y29.4841
G01 X1.5421 Y29.5165
G01 X1.5221 Y29.5588
G01 X1.5080 Y29.5928
G01 X1.4922 Y29.6369
G01 X1.4815 Y29.6721
G01 X1.4702 Y29.7175
G01 X1.4630 Y29.7536
G01 X1.4561 Y29.7999
G01 X1.4525 Y29.8365
G01 X1.4509 Y29.8649
G00 X1.4509 Y29.8649
G01 F250.00
G01 Z-0.5000
G01 F2500.00
G01 X1.4500 Y29.9017
G01 X1.4501 Y55.5109
G01 X1.4509 Y55.5385
G01 X1.4525 Y55.5668
G01 X1.4561 Y55.6034
G01 X1.4601 Y55.6315
G01 X1.4664 Y55.6678
G01 X1.4702 Y55.6858
G01 X1.4769 Y55.7134
G01 X1.4867 Y55.7489
G01 X1.4922 Y55.7664
G01 X1.5080 Y55.8105
G01 X1.5148 Y55.8276
G01 X1.5297 Y55.8612
G01 X1.5421 Y55.8868
G01 X1.5506 Y55.9031
G01 X1.5594 Y55.9192
G01 X1.5738 Y55.9437
G01 X1.5935 Y55.9748
G01 X1.6039 Y55.9900
G01 X1.6207 Y56.0129
G01 X1.6433 Y56.0419
G01 X1.6552 Y56.0560
G01 X1.6741 Y56.0772
G01 X1.6866 Y56.0907
G01 X1.7126 Y56.1167
G01 X1.7473 Y56.1481
G01 X1.7614 Y56.1600
G01 X1.7904 Y56.1826
G01 X1.8133 Y56.1994
G01 X1.8285 Y56.2098
G01 X1.8596 Y56.2295
G01 X1.8841 Y56.2439
G01 X1.9165 Y56.2612
G01 X1.9421 Y56.2736
G01 X1.9757 Y56.2885
G01 X1.9928 Y56.2953
G01 X2.0195 Y56.3051
G01 X2.0544 Y56.3166
G01 X2.0899 Y56.3264
G01 X2.1175 Y56.3331
G01 X2.1536 Y56.3403
G01 X2.1816 Y56.3447
G01 X2.2182 Y56.3492
G01 X2.2365 Y56.3508
G01 X2.2740 Y56.3528
G01 X2.3017 Y56.3533
G01 X40.4017 Y56.3533
G01 X40.4201 Y56.3531
G01 X40.4484 Y56.3519
G01 X40.4668 Y56.3508
G01 X40.5034 Y56.3472
G01 X40.5497 Y56.3403
G01 X40.5678 Y56.3369
G01 X40.6037 Y56.3289
G01 X40.6312 Y56.3218
G01 X40.6489 Y56.3166
G01 X40.6838 Y56.3051
G01 X40.7105 Y56.2953
G01 X40.7445 Y56.2812
G01 X40.7612 Y56.2736
G01 X40.7868 Y56.2612
G01 X40.8031 Y56.2527
G01 X40.8192 Y56.2439
G01 X40.8437 Y56.2295
G01 X40.8594 Y56.2198
G01 X40.8900 Y56.1994
G01 X40.9276 Y56.1715
G01 X40.9560 Y56.1481
G01 X40.9698 Y56.1359
G01 X40.9907 Y56.1167
G01 X41.0039 Y56.1039
G01 X41.0292 Y56.0772
G01 X41.0481 Y56.0560
G01 X41.0715 Y56.0276
G01 X41.0826 Y56.0129
G01 X41.0994 Y55.9900
G01 X41.1098 Y55.9748
G01 X41.1295 Y55.9437
G01 X41.1439 Y55.9192
G01 X41.1527 Y55.9031
G01 X41.1693 Y55.8702
G01 X41.1812 Y55.8445
G01 X41.1953 Y55.8105
G01 X41.2051 Y55.7838
G01 X41.2166 Y55.7489
G01 X41.2264 Y55.7134
G01 X41.2331 Y55.6858
G01 X41.2403 Y55.6497
G01 X41.2432 Y55.6315
G01 X41.2472 Y55.6034
G01 X41.2508 Y55.5668
G01 X41.2528 Y55.5293
G01 X41.2533 Y55.5017
G01 X41.2532 Y29.8925
G01 X41.2524 Y29.8649
G01 X41.2508 Y29.8365
G01 X41.2472 Y29.7999
G01 X41.2432 Y29.7718
G01 X41.2369 Y29.7355
G01 X41.2331 Y29.7175
G01 X41.2264 Y29.6899
G01 X41.2218 Y29.6721
G01 X41.2111 Y29.6369
G01 X41.1953 Y29.5928
G01 X41.1885 Y29.5757
G01 X41.1736 Y29.5421
G01 X41.1612 Y29.5165
G01 X41.1527 Y29.5002
G01 X41.1439 Y29.4841
G01 X41.1295 Y29.4596
G01 X41.1198 Y29.4439
G01 X41.0994 Y29.4133
G01 X41.0715 Y29.3757
G01 X41.0600 Y29.3614
G01 X41.0359 Y29.3335
G01 X41.0167 Y29.3126
G01 X41.0039 Y29.2994
G01 X40.9772 Y29.2741
G01 X40.9560 Y29.2552
G01 X40.9419 Y29.2433
G01 X40.9129 Y29.2207
G01 X40.8900 Y29.2039
G01 X40.8748 Y29.1935
G01 X40.8437 Y29.1738
G01 X40.8192 Y29.1594
G01 X40.8031 Y29.1506
G01 X40.7702 Y29.1340
G01 X40.7445 Y29.1221
G01 X40.7105 Y29.1080
G01 X40.6838 Y29.0982
G01 X40.6489 Y29.0867
G01 X40.6134 Y29.0769
G01 X40.5858 Y29.0702
G01 X40.5497 Y29.0630
G01 X40.5217 Y29.0586
G01 X40.4851 Y29.0541
G01 X40.4668 Y29.0525
G01 X40.4293 Y29.0505
G01 X40.4017 Y29.0500
G01 X2.2924 Y29.0501
G01 X2.2549 Y29.0514
G01 X2.2182 Y29.0541
G01 X2.1999 Y29.0561
G01 X2.1718 Y29.0601
G01 X2.1355 Y29.0664
G01 X2.0996 Y29.0744
G01 X2.0721 Y29.0815
G01 X2.0544 Y29.0867
G01 X2.0195 Y29.0982
G01 X1.9928 Y29.1080
G01 X1.9757 Y29.1148
G01 X1.9588 Y29.1221
G01 X1.9331 Y29.1340
G01 X1.9002 Y29.1506
G01 X1.8682 Y29.1687
G01 X1.8439 Y29.1835
G01 X1.8285 Y29.1935
G01 X1.7984 Y29.2147
G01 X1.7757 Y29.2318
G01 X1.7614 Y29.2433
G01 X1.7335 Y29.2674
G01 X1.7126 Y29.2866
G01 X1.6866 Y29.3126
G01 X1.6552 Y29.3473
G01 X1.6318 Y29.3757
G01 X1.6039 Y29.4133
G01 X1.5835 Y29.4439
G01 X1.5594 Y29.4841
G01 X1.5421 Y29.5165
G01 X1.5221 Y29.5588
G01 X1.5080 Y29.5928
G01 X1.4922 Y29.6369
G01 X1.4815 Y29.6721
G01 X1.4702 Y29.7175
G01 X1.4630 Y29.7536
G01 X1.4561 Y29.7999
G01 X1.4525 Y29.8365
G01 X1.4509 Y29.8649
G00 X1.4509 Y29.8649
G01 F250.00
G01 Z-0.6000
G01 F2500.00
G01 X1.4500 Y29.9017
G01 X1.4501 Y55.5109
G01 X1.4509 Y55.5385
G01 X1.4525 Y55.5668
G01 X1.4561 Y55.6034
G01 X1.4601 Y55.6315
G01 X1.4664 Y55.6678
G01 X1.4702 Y55.6858
G01 X1.4769 Y55.7134
G01 X1.4867 Y55.7489
G01 X1.4922 Y55.7664
G01 X1.5080 Y55.8105
G01 X1.5148 Y55.8276
G01 X1.5297 Y55.8612
G01 X1.5421 Y55.8868
G01 X1.5506 Y55.9031
G01 X1.5594 Y55.9192
G01 X1.5738 Y55.9437
G01 X1.5935 Y55.9748
G01 X1.6039 Y55.9900
G01 X1.6207 Y56.0129
G01 X1.6433 Y56.0419
G01 X1.6552 Y56.0560
G01 X1.6741 Y56.0772
G01 X1.6866 Y56.0907
G01 X1.7126 Y56.1167
G01 X1.7473 Y56.1481
G01 X1.7614 Y56.1600
G01 X1.7904 Y56.1826
G01 X1.8133 Y56.1994
G01 X1.8285 Y56.2098
G01 X1.8596 Y56.2295
G01 X1.8841 Y56.2439
G01 X1.9165 Y56.2612
G01 X1.9421 Y56.2736
G01 X1.9757 Y56.2885
G01 X1.9928 Y56.2953
G01 X2.0195 Y56.3051
G01 X2.0544 Y56.3166
G01 X2.0899 Y56.3264
G01 X2.1175 Y56.3331
G01 X2.1536 Y56.3403
G01 X2.1816 Y56.3447
G01 X2.2182 Y56.3492
G01 X2.2365 Y56.3508
G01 X2.2740 Y56.3528
G01 X2.3017 Y56.3533
G01 X40.4017 Y56.3533
G01 X40.4201 Y56.3531
G01 X40.4484 Y56.3519
G01 X40.4668 Y56.3508
G01 X40.5034 Y56.3472
G01 X40.5497 Y56.3403
G01 X40.5678 Y56.3369
G01 X40.6037 Y56.3289
G01 X40.6312 Y56.3218
G01 X40.6489 Y56.3166
G01 X40.6838 Y56.3051
G01 X40.7105 Y56.2953
G01 X40.7445 Y56.2812
G01 X40.7612 Y56.2736
G01 X40.7868 Y56.2612
G01 X40.8031 Y56.2527
G01 X40.8192 Y56.2439
G01 X40.8437 Y56.2295
G01 X40.8594 Y56.2198
G01 X40.8900 Y56.1994
G01 X40.9276 Y56.1715
G01 X40.9560 Y56.1481
G01 X40.9698 Y56.1359
G01 X40.9907 Y56.1167
G01 X41.0039 Y56.1039
G01 X41.0292 Y56.0772
G01 X41.0481 Y56.0560
G01 X41.0715 Y56.0276
G01 X41.0826 Y56.0129
G01 X41.0994 Y55.9900
G01 X41.1098 Y55.9748
G01 X41.1295 Y55.9437
G01 X41.1439 Y55.9192
G01 X41.1527 Y55.9031
G01 X41.1693 Y55.8702
G01 X41.1812 Y55.8445
G01 X41.1953 Y55.8105
G01 X41.2051 Y55.7838
G01 X41.2166 Y55.7489
G01 X41.2264 Y55.7134
G01 X41.2331 Y55.6858
G01 X41.2403 Y55.6497
G01 X41.2432 Y55.6315
G01 X41.2472 Y55.6034
G01 X41.2508 Y55.5668
G01 X41.2528 Y55.5293
G01 X41.2533 Y55.5017
G01 X41.2532 Y29.8925
G01 X41.2524 Y29.8649
G01 X41.2508 Y29.8365
G01 X41.2472 Y29.7999
G01 X41.2432 Y29.7718
G01 X41.2369 Y29.7355
G01 X41.2331 Y29.7175
G01 X41.2264 Y29.6899
G01 X41.2218 Y29.6721
G01 X41.2111 Y29.6369
G01 X41.1953 Y29.5928
G01 X41.1885 Y29.5757
G01 X41.1736 Y29.5421
G01 X41.1612 Y29.5165
G01 X41.1527 Y29.5002
G01 X41.1439 Y29.4841
G01 X41.1295 Y29.4596
G01 X41.1198 Y29.4439
G01 X41.0994 Y29.4133
G01 X41.0715 Y29.3757
G01 X41.0600 Y29.3614
G01 X41.0359 Y29.3335
G01 X41.0167 Y29.3126
G01 X41.0039 Y29.2994
G01 X40.9772 Y29.2741
G01 X40.9560 Y29.2552
G01 X40.9419 Y29.2433
G01 X40.9129 Y29.2207
G01 X40.8900 Y29.2039
G01 X40.8748 Y29.1935
G01 X40.8437 Y29.1738
G01 X40.8192 Y29.1594
G01 X40.8031 Y29.1506
G01 X40.7702 Y29.1340
G01 X40.7445 Y29.1221
G01 X40.7105 Y29.1080
G01 X40.6838 Y29.0982
G01 X40.6489 Y29.0867
G01 X40.6134 Y29.0769
G01 X40.5858 Y29.0702
G01 X40.5497 Y29.0630
G01 X40.5217 Y29.0586
G01 X40.4851 Y29.0541
G01 X40.4668 Y29.0525
G01 X40.4293 Y29.0505
G01 X40.4017 Y29.0500
G01 X2.2924 Y29.0501
G01 X2.2549 Y29.0514
G01 X2.2182 Y29.0541
G01 X2.1999 Y29.0561
G01 X2.1718 Y29.0601
G01 X2.1355 Y29.0664
G01 X2.0996 Y29.0744
G01 X2.0721 Y29.0815
G01 X2.0544 Y29.0867
G01 X2.0195 Y29.0982
G01 X1.9928 Y29.1080
G01 X1.9757 Y29.1148
G01 X1.9588 Y29.1221
G01 X1.9331 Y29.1340
G01 X1.9002 Y29.1506
G01 X1.8682 Y29.1687
G01 X1.8439 Y29.1835
G01 X1.8285 Y29.1935
G01 X1.7984 Y29.2147
G01 X1.7757 Y29.2318
G01 X1.7614 Y29.2433
G01 X1.7335 Y29.2674
G01 X1.7126 Y29.2866
G01 X1.6866 Y29.3126
G01 X1.6552 Y29.3473
G01 X1.6318 Y29.3757
G01 X1.6039 Y29.4133
G01 X1.5835 Y29.4439
G01 X1.5594 Y29.4841
G01 X1.5421 Y29.5165
G01 X1.5221 Y29.5588
G01 X1.5080 Y29.5928
G01 X1.4922 Y29.6369
G01 X1.4815 Y29.6721
G01 X1.4702 Y29.7175
G01 X1.4630 Y29.7536
G01 X1.4561 Y29.7999
G01 X1.4525 Y29.8365
G01 X1.4509 Y29.8649
G00 X1.4509 Y29.8649
G01 F250.00
G01 Z-0.7000
G01 F2500.00
G01 X1.4500 Y29.9017
G01 X1.4501 Y55.5109
G01 X1.4509 Y55.5385
G01 X1.4525 Y55.5668
G01 X1.4561 Y55.6034
G01 X1.4601 Y55.6315
G01 X1.4664 Y55.6678
G01 X1.4702 Y55.6858
G01 X1.4769 Y55.7134
G01 X1.4867 Y55.7489
G01 X1.4922 Y55.7664
G01 X1.5080 Y55.8105
G01 X1.5148 Y55.8276
G01 X1.5297 Y55.8612
G01 X1.5421 Y55.8868
G01 X1.5506 Y55.9031
G01 X1.5594 Y55.9192
G01 X1.5738 Y55.9437
G01 X1.5935 Y55.9748
G01 X1.6039 Y55.9900
G01 X1.6207 Y56.0129
G01 X1.6433 Y56.0419
G01 X1.6552 Y56.0560
G01 X1.6741 Y56.0772
G01 X1.6866 Y56.0907
G01 X1.7126 Y56.1167
G01 X1.7473 Y56.1481
G01 X1.7614 Y56.1600
G01 X1.7904 Y56.1826
G01 X1.8133 Y56.1994
G01 X1.8285 Y56.2098
G01 X1.8596 Y56.2295
G01 X1.8841 Y56.2439
G01 X1.9165 Y56.2612
G01 X1.9421 Y56.2736
G01 X1.9757 Y56.2885
G01 X1.9928 Y56.2953
G01 X2.0195 Y56.3051
G01 X2.0544 Y56.3166
G01 X2.0899 Y56.3264
G01 X2.1175 Y56.3331
G01 X2.1536 Y56.3403
G01 X2.1816 Y56.3447
G01 X2.2182 Y56.3492
G01 X2.2365 Y56.3508
G01 X2.2740 Y56.3528
G01 X2.3017 Y56.3533
G01 X40.4017 Y56.3533
G01 X40.4201 Y56.3531
G01 X40.4484 Y56.3519
G01 X40.4668 Y56.3508
G01 X40.5034 Y56.3472
G01 X40.5497 Y56.3403
G01 X40.5678 Y56.3369
G01 X40.6037 Y56.3289
G01 X40.6312 Y56.3218
G01 X40.6489 Y56.3166
G01 X40.6838 Y56.3051
G01 X40.7105 Y56.2953
G01 X40.7445 Y56.2812
G01 X40.7612 Y56.2736
G01 X40.7868 Y56.2612
G01 X40.8031 Y56.2527
G01 X40.8192 Y56.2439
G01 X40.8437 Y56.2295
G01 X40.8594 Y56.2198
G01 X40.8900 Y56.1994
G01 X40.9276 Y56.1715
G01 X40.9560 Y56.1481
G01 X40.9698 Y56.1359
G01 X40.9907 Y56.1167
G01 X41.0039 Y56.1039
G01 X41.0292 Y56.0772
G01 X41.0481 Y56.0560
G01 X41.0715 Y56.0276
G01 X41.0826 Y56.0129
G01 X41.0994 Y55.9900
G01 X41.1098 Y55.9748
G01 X41.1295 Y55.9437
G01 X41.1439 Y55.9192
G01 X41.1527 Y55.9031
G01 X41.1693 Y55.8702
G01 X41.1812 Y55.8445
G01 X41.1953 Y55.8105
G01 X41.2051 Y55.7838
G01 X41.2166 Y55.7489
G01 X41.2264 Y55.7134
G01 X41.2331 Y55.6858
G01 X41.2403 Y55.6497
G01 X41.2432 Y55.6315
G01 X41.2472 Y55.6034
G01 X41.2508 Y55.5668
G01 X41.2528 Y55.5293
G01 X41.2533 Y55.5017
G01 X41.2532 Y29.8925
G01 X41.2524 Y29.8649
G01 X41.2508 Y29.8365
G01 X41.2472 Y29.7999
G01 X41.2432 Y29.7718
G01 X41.2369 Y29.7355
G01 X41.2331 Y29.7175
G01 X41.2264 Y29.6899
G01 X41.2218 Y29.6721
G01 X41.2111 Y29.6369
G01 X41.1953 Y29.5928
G01 X41.1885 Y29.5757
G01 X41.1736 Y29.5421
G01 X41.1612 Y29.5165
G01 X41.1527 Y29.5002
G01 X41.1439 Y29.4841
G01 X41.1295 Y29.4596
G01 X41.1198 Y29.4439
